(.../Program Files (x86)/EAGLE-6.5.0/ulp/pcb-gcode.ulp)
(Copyright 2005 - 2012 by John Johnson)
(See readme.txt for licensing terms.)
(This file generated from the board:)
(.../Eagle Designs/Atmega8/Atmega.brd)
(Current profile is .../EAGLE-6.5.0/ulp/profiles/mach.pp  )
(This file generated 31/10/2013 2:26:26 PM)
(Settings from pcb-machine.h)
(  Tool Size)
(0.1778  )
(Z Axis Settings)
(  High     Up        Down     Drill)
(1.2000  	0.5000  	-0.1778 	-0.8128 )
(spindle on time = 3.0000)
(milling depth = -0.2540)
(text depth = -0.1270)
(tool change at 12.7000 15.2400 25.4000 )
(feed rate xy = F508   )
(feed rate z  = F254   )
(Settings from pcb-defaults.h)
(isolate min = 0.0254)
(isolate max = 0.5080)
(isolate step = 0.1270)
(Generated bottom outlines, bottom drill, )
(Unit of measure: mm)
(Metric Mode)
G21
(Absolute Coordinates)
G90
G00 X0.0000  Y0.0000  
M03
G04 P3.000000
G00 Z0.5000  
G00 X-5.6104 Y9.1309  
G01 Z-0.1778 F254   
G01 X-5.3376 Y9.0179  F508   
G01 X-5.0424 Y9.0179  
G01 X-4.7696 Y9.1309  
G01 X-4.5609 Y9.3396  
G01 X-4.4479 Y9.6124  
G01 X-4.4479 Y9.9076  
G01 X-4.5609 Y10.1804 
G01 X-4.7696 Y10.3891 
G01 X-5.0424 Y10.5021 
G01 X-5.3376 Y10.5021 
G01 X-5.6104 Y10.3891 
G01 X-5.8191 Y10.1804 
G01 X-5.9321 Y9.9076  
G01 X-5.9321 Y9.6124  
G01 X-5.8191 Y9.3396  
G01 X-5.6104 Y9.1309  
G00 Z0.5000  
G00 X-13.6683 Y4.4230  
G01 Z-0.1778 F254   
G01 X-13.6905 Y4.5632  F508   
G01 X-13.7344 Y4.6981  
G01 X-13.7988 Y4.8246  
G01 X-13.8822 Y4.9394  
G01 X-13.9826 Y5.0398  
G01 X-14.0974 Y5.1232  
G01 X-14.2017 Y5.1763  
G01 X-14.2017 Y5.1479  
G01 X-14.1549 Y5.1286  
G01 X-14.0114 Y5.0327  
G01 X-13.8893 Y4.9106  
G01 X-13.7934 Y4.7671  
G01 X-13.7274 Y4.6076  
G01 X-13.6937 Y4.4383  
G01 X-13.6937 Y3.9583  
G01 X-13.6683 Y3.9583  
G01 X-13.6683 Y4.4230  
G00 Z0.5000  
G00 X-14.0974 Y2.0568  
G01 Z-0.1778 F254   
G01 X-13.9826 Y2.1402  F508   
G01 X-13.8822 Y2.2406  
G01 X-13.7988 Y2.3554  
G01 X-13.7344 Y2.4819  
G01 X-13.6905 Y2.6168  
G01 X-13.6683 Y2.7570  
G01 X-13.6683 Y3.2217  
G01 X-13.6937 Y3.2217  
G01 X-13.6937 Y2.7417  
G01 X-13.7274 Y2.5724  
G01 X-13.7934 Y2.4129  
G01 X-13.8893 Y2.2694  
G01 X-14.0114 Y2.1473  
G01 X-14.1549 Y2.0514  
G01 X-14.2017 Y2.0321  
G01 X-14.2017 Y2.0037  
G01 X-14.0974 Y2.0568  
G00 Z0.5000  
G00 X-46.2874 Y13.3843 
G01 Z-0.1778 F254   
G01 X-46.2589 Y13.3843 F508   
G01 X-46.2395 Y13.4313 
G01 X-46.1444 Y13.5735 
G01 X-46.0235 Y13.6944 
G01 X-45.8813 Y13.7895 
G01 X-45.8343 Y13.8089 
G01 X-45.8343 Y13.8374 
G01 X-45.8485 Y13.8302 
G01 X-45.8774 Y13.8134 
G01 X-45.8856 Y13.8113 
G01 X-45.9384 Y13.7844 
G01 X-46.0522 Y13.7017 
G01 X-46.1517 Y13.6022 
G01 X-46.2344 Y13.4884 
G01 X-46.2874 Y13.3843 
G00 Z0.5000  
G00 X-46.1517 Y16.1422 
G01 Z-0.1778 F254   
G01 X-46.2344 Y16.0284 F508   
G01 X-46.2874 Y15.9243 
G01 X-46.2589 Y15.9243 
G01 X-46.2395 Y15.9713 
G01 X-46.1444 Y16.1135 
G01 X-46.0235 Y16.2345 
G01 X-45.8813 Y16.3295 
G01 X-45.8343 Y16.3489 
G01 X-45.8343 Y16.3774 
G01 X-45.8485 Y16.3702 
G01 X-45.8774 Y16.3534 
G01 X-45.8856 Y16.3513 
G01 X-45.9384 Y16.3244 
G01 X-46.0522 Y16.2417 
G01 X-46.1517 Y16.1422 
G00 Z0.5000  
G00 X-45.8813 Y19.8705 
G01 Z-0.1778 F254   
G01 X-46.0235 Y19.9655 F508   
G01 X-46.1444 Y20.0865 
G01 X-46.2395 Y20.2287 
G01 X-46.2589 Y20.2757 
G01 X-46.2874 Y20.2757 
G01 X-46.2344 Y20.1716 
G01 X-46.1517 Y20.0578 
G01 X-46.0522 Y19.9583 
G01 X-45.9384 Y19.8756 
G01 X-45.8935 Y19.8528 
G01 X-45.8856 Y19.8487 
G01 X-45.8774 Y19.8465 
G01 X-45.8485 Y19.8298 
G01 X-45.8343 Y19.8226 
G01 X-45.8343 Y19.8511 
G01 X-45.8813 Y19.8705 
G00 Z0.5000  
G00 X-46.2395 Y18.5113 
G01 Z-0.1778 F254   
G01 X-46.1444 Y18.6535 F508   
G01 X-46.0235 Y18.7745 
G01 X-45.8813 Y18.8695 
G01 X-45.8343 Y18.8889 
G01 X-45.8343 Y18.9174 
G01 X-45.8485 Y18.9102 
G01 X-45.8774 Y18.8934 
G01 X-45.8856 Y18.8913 
G01 X-45.9384 Y18.8644 
G01 X-46.0522 Y18.7817 
G01 X-46.1517 Y18.6822 
G01 X-46.2344 Y18.5684 
G01 X-46.2874 Y18.4643 
G01 X-46.2589 Y18.4643 
G01 X-46.2395 Y18.5113 
G00 Z0.5000  
G00 X-46.2344 Y17.6316 
G01 Z-0.1778 F254   
G01 X-46.1517 Y17.5178 F508   
G01 X-46.0522 Y17.4183 
G01 X-45.9384 Y17.3356 
G01 X-45.8856 Y17.3087 
G01 X-45.8774 Y17.3065 
G01 X-45.8485 Y17.2898 
G01 X-45.8343 Y17.2826 
G01 X-45.8343 Y17.3111 
G01 X-45.8813 Y17.3305 
G01 X-46.0235 Y17.4255 
G01 X-46.1444 Y17.5465 
G01 X-46.2395 Y17.6887 
G01 X-46.2589 Y17.7357 
G01 X-46.2874 Y17.7357 
G01 X-46.2344 Y17.6316 
G00 Z0.5000  
G00 X-46.0522 Y14.8783 
G01 Z-0.1778 F254   
G01 X-45.9384 Y14.7956 F508   
G01 X-45.8856 Y14.7687 
G01 X-45.8774 Y14.7665 
G01 X-45.8485 Y14.7498 
G01 X-45.8343 Y14.7426 
G01 X-45.8343 Y14.7711 
G01 X-45.8813 Y14.7905 
G01 X-46.0235 Y14.8855 
G01 X-46.1444 Y15.0065 
G01 X-46.2395 Y15.1487 
G01 X-46.2589 Y15.1957 
G01 X-46.2874 Y15.1957 
G01 X-46.2344 Y15.0916 
G01 X-46.1517 Y14.9778 
G01 X-46.0522 Y14.8783 
G00 Z0.5000  
G00 X-10.7644 Y30.2980 
G01 Z-0.1778 F254   
G01 X-10.6810 Y30.1832 F508   
G01 X-10.5806 Y30.0828 
G01 X-10.4658 Y29.9994 
G01 X-10.3393 Y29.9350 
G01 X-10.2044 Y29.8911 
G01 X-10.0642 Y29.8689 
G01 X-9.5995 Y29.8689 
G01 X-9.5995 Y29.8943 
G01 X-10.0795 Y29.8943 
G01 X-10.2488 Y29.9280 
G01 X-10.4083 Y29.9940 
G01 X-10.5518 Y30.0899 
G01 X-10.6739 Y30.2120 
G01 X-10.7698 Y30.3555 
G01 X-10.7891 Y30.4023 
G01 X-10.8175 Y30.4023 
G01 X-10.7644 Y30.2980 
G00 Z0.5000  
G00 X-7.8818 Y31.4584 
G01 Z-0.1778 F254   
G01 X-7.9966 Y31.5418 F508   
G01 X-8.1231 Y31.6062 
G01 X-8.2580 Y31.6501 
G01 X-8.3982 Y31.6723 
G01 X-8.8629 Y31.6723 
G01 X-8.8629 Y31.6469 
G01 X-8.3829 Y31.6469 
G01 X-8.2136 Y31.6132 
G01 X-8.0541 Y31.5472 
G01 X-7.9106 Y31.4513 
G01 X-7.7885 Y31.3292 
G01 X-7.6926 Y31.1857 
G01 X-7.6733 Y31.1389 
G01 X-7.6448 Y31.1389 
G01 X-7.6980 Y31.2432 
G01 X-7.7814 Y31.3580 
G01 X-7.8818 Y31.4584 
G00 Z0.5000  
G00 X-10.0642 Y31.6723 
G01 Z-0.1778 F254   
G01 X-10.2044 Y31.6501 F508   
G01 X-10.3393 Y31.6062 
G01 X-10.4658 Y31.5418 
G01 X-10.5806 Y31.4584 
G01 X-10.6810 Y31.3580 
G01 X-10.7644 Y31.2432 
G01 X-10.8175 Y31.1389 
G01 X-10.7891 Y31.1389 
G01 X-10.7698 Y31.1857 
G01 X-10.6739 Y31.3292 
G01 X-10.5518 Y31.4513 
G01 X-10.4083 Y31.5472 
G01 X-10.2488 Y31.6132 
G01 X-10.0795 Y31.6469 
G01 X-9.5995 Y31.6469 
G01 X-9.5995 Y31.6723 
G01 X-10.0642 Y31.6723 
G00 Z0.5000  
G00 X-8.3982 Y29.8689 
G01 Z-0.1778 F254   
G01 X-8.2580 Y29.8911 F508   
G01 X-8.1231 Y29.9350 
G01 X-7.9966 Y29.9994 
G01 X-7.8818 Y30.0828 
G01 X-7.7814 Y30.1832 
G01 X-7.6980 Y30.2980 
G01 X-7.6448 Y30.4023 
G01 X-7.6733 Y30.4023 
G01 X-7.6926 Y30.3555 
G01 X-7.7885 Y30.2120 
G01 X-7.9106 Y30.0899 
G01 X-8.0541 Y29.9940 
G01 X-8.2136 Y29.9280 
G01 X-8.3829 Y29.8943 
G01 X-8.8629 Y29.8943 
G01 X-8.8629 Y29.8689 
G01 X-8.3982 Y29.8689 
G00 Z0.5000  
G00 X-5.6104 Y4.7309  
G01 Z-0.1778 F254   
G01 X-5.3376 Y4.6179  F508   
G01 X-5.0424 Y4.6179  
G01 X-4.7696 Y4.7309  
G01 X-4.5609 Y4.9396  
G01 X-4.4479 Y5.2124  
G01 X-4.4479 Y5.5076  
G01 X-4.5609 Y5.7804  
G01 X-4.7696 Y5.9891  
G01 X-5.0424 Y6.1021  
G01 X-5.3376 Y6.1021  
G01 X-5.6104 Y5.9891  
G01 X-5.8191 Y5.7804  
G01 X-5.9321 Y5.5076  
G01 X-5.9321 Y5.2124  
G01 X-5.8191 Y4.9396  
G01 X-5.6104 Y4.7309  
G00 Z0.5000  
G00 X-45.8813 Y12.2505 
G01 Z-0.1778 F254   
G01 X-46.0235 Y12.3455 F508   
G01 X-46.1444 Y12.4665 
G01 X-46.2395 Y12.6087 
G01 X-46.2589 Y12.6557 
G01 X-46.2874 Y12.6557 
G01 X-46.2344 Y12.5516 
G01 X-46.1517 Y12.4378 
G01 X-46.0522 Y12.3383 
G01 X-45.9384 Y12.2556 
G01 X-45.8856 Y12.2287 
G01 X-45.8774 Y12.2265 
G01 X-45.8485 Y12.2098 
G01 X-45.8343 Y12.2026 
G01 X-45.8343 Y12.2311 
G01 X-45.8813 Y12.2505 
G00 Z0.5000  
G00 X-44.7056 Y13.4884 
G01 Z-0.1778 F254   
G01 X-44.7883 Y13.6022 F508   
G01 X-44.8878 Y13.7017 
G01 X-45.0016 Y13.7844 
G01 X-45.1057 Y13.8374 
G01 X-45.1057 Y13.8089 
G01 X-45.0587 Y13.7895 
G01 X-44.9165 Y13.6944 
G01 X-44.7955 Y13.5735 
G01 X-44.7005 Y13.4313 
G01 X-44.6351 Y13.2733 
G01 X-44.6017 Y13.1055 
G01 X-44.6017 Y12.9345 
G01 X-44.6351 Y12.7667 
G01 X-44.7005 Y12.6087 
G01 X-44.7955 Y12.4665 
G01 X-44.9165 Y12.3455 
G01 X-45.0587 Y12.2505 
G01 X-45.1057 Y12.2311 
G01 X-45.1057 Y12.2026 
G01 X-45.0016 Y12.2556 
G01 X-44.8878 Y12.3383 
G01 X-44.7883 Y12.4378 
G01 X-44.7056 Y12.5516 
G01 X-44.6863 Y12.5896 
G01 X-44.6834 Y12.5952 
G01 X-44.6722 Y12.6223 
G01 X-44.6645 Y12.6324 
G01 X-44.6588 Y12.6436 
G01 X-44.6418 Y12.6769 
G01 X-44.5996 Y12.8068 
G01 X-44.5979 Y12.8195 
G01 X-44.5964 Y12.8233 
G01 X-44.5957 Y12.8273 
G01 X-44.5853 Y12.8508 
G01 X-44.5777 Y12.8742 
G01 X-44.5710 Y12.8845 
G01 X-44.5659 Y12.8968 
G01 X-44.5634 Y12.9000 
G01 X-44.5618 Y12.9037 
G01 X-44.5452 Y12.9243 
G01 X-44.5321 Y12.9444 
G01 X-44.5233 Y12.9523 
G01 X-44.5150 Y12.9631 
G01 X-44.5118 Y12.9656 
G01 X-44.5093 Y12.9687 
G01 X-44.4874 Y12.9846 
G01 X-44.4700 Y13.0003 
G01 X-44.4597 Y13.0055 
G01 X-44.4487 Y13.0140 
G01 X-44.4450 Y13.0155 
G01 X-44.4417 Y13.0179 
G01 X-44.4363 Y13.0200 
G01 X-44.4417 Y13.0221 
G01 X-44.4450 Y13.0245 
G01 X-44.4487 Y13.0260 
G01 X-44.4597 Y13.0345 
G01 X-44.4700 Y13.0397 
G01 X-44.4874 Y13.0554 
G01 X-44.5093 Y13.0713 
G01 X-44.5118 Y13.0744 
G01 X-44.5150 Y13.0769 
G01 X-44.5233 Y13.0877 
G01 X-44.5321 Y13.0956 
G01 X-44.5452 Y13.1157 
G01 X-44.5618 Y13.1363 
G01 X-44.5634 Y13.1400 
G01 X-44.5659 Y13.1432 
G01 X-44.5710 Y13.1555 
G01 X-44.5777 Y13.1658 
G01 X-44.5853 Y13.1892 
G01 X-44.5957 Y13.2127 
G01 X-44.5964 Y13.2167 
G01 X-44.5979 Y13.2205 
G01 X-44.5996 Y13.2332 
G01 X-44.6418 Y13.3631 
G01 X-44.6588 Y13.3964 
G01 X-44.6645 Y13.4076 
G01 X-44.6722 Y13.4177 
G01 X-44.6834 Y13.4448 
G01 X-44.6863 Y13.4504 
G01 X-44.7056 Y13.4884 
G00 Z0.5000  
G00 X-44.8878 Y16.2417 
G01 Z-0.1778 F254   
G01 X-45.0016 Y16.3244 F508   
G01 X-45.1057 Y16.3774 
G01 X-45.1057 Y16.3489 
G01 X-45.0587 Y16.3295 
G01 X-44.9165 Y16.2345 
G01 X-44.7955 Y16.1135 
G01 X-44.7005 Y15.9713 
G01 X-44.6351 Y15.8133 
G01 X-44.6017 Y15.6455 
G01 X-44.6017 Y15.4745 
G01 X-44.6351 Y15.3067 
G01 X-44.7005 Y15.1487 
G01 X-44.7955 Y15.0065 
G01 X-44.9165 Y14.8855 
G01 X-45.0587 Y14.7905 
G01 X-45.1057 Y14.7711 
G01 X-45.1057 Y14.7426 
G01 X-45.0016 Y14.7956 
G01 X-44.8878 Y14.8783 
G01 X-44.7883 Y14.9778 
G01 X-44.7056 Y15.0916 
G01 X-44.6834 Y15.1352 
G01 X-44.6722 Y15.1623 
G01 X-44.6645 Y15.1724 
G01 X-44.6588 Y15.1836 
G01 X-44.6418 Y15.2169 
G01 X-44.5996 Y15.3468 
G01 X-44.5979 Y15.3595 
G01 X-44.5965 Y15.3630 
G01 X-44.5959 Y15.3668 
G01 X-44.5854 Y15.3906 
G01 X-44.5777 Y15.4142 
G01 X-44.5710 Y15.4245 
G01 X-44.5659 Y15.4368 
G01 X-44.5636 Y15.4398 
G01 X-44.5621 Y15.4432 
G01 X-44.5453 Y15.4641 
G01 X-44.5321 Y15.4844 
G01 X-44.5233 Y15.4923 
G01 X-44.5150 Y15.5031 
G01 X-44.5120 Y15.5054 
G01 X-44.5097 Y15.5083 
G01 X-44.4876 Y15.5245 
G01 X-44.4700 Y15.5403 
G01 X-44.4597 Y15.5455 
G01 X-44.4487 Y15.5540 
G01 X-44.4452 Y15.5554 
G01 X-44.4422 Y15.5577 
G01 X-44.4361 Y15.5600 
G01 X-44.4422 Y15.5623 
G01 X-44.4452 Y15.5646 
G01 X-44.4487 Y15.5660 
G01 X-44.4597 Y15.5745 
G01 X-44.4700 Y15.5797 
G01 X-44.4876 Y15.5955 
G01 X-44.5097 Y15.6117 
G01 X-44.5120 Y15.6146 
G01 X-44.5150 Y15.6169 
G01 X-44.5233 Y15.6277 
G01 X-44.5321 Y15.6356 
G01 X-44.5453 Y15.6559 
G01 X-44.5621 Y15.6768 
G01 X-44.5636 Y15.6802 
G01 X-44.5659 Y15.6832 
G01 X-44.5710 Y15.6955 
G01 X-44.5777 Y15.7058 
G01 X-44.5854 Y15.7294 
G01 X-44.5959 Y15.7532 
G01 X-44.5965 Y15.7570 
G01 X-44.5979 Y15.7605 
G01 X-44.5996 Y15.7732 
G01 X-44.6418 Y15.9031 
G01 X-44.6588 Y15.9364 
G01 X-44.6645 Y15.9476 
G01 X-44.6722 Y15.9577 
G01 X-44.6834 Y15.9848 
G01 X-44.7056 Y16.0284 
G01 X-44.7883 Y16.1422 
G01 X-44.8878 Y16.2417 
G00 Z0.5000  
G00 X-41.4513 Y11.4177 
G01 Z-0.1778 F254   
G01 X-41.4422 Y11.4333 F508   
G01 X-41.4356 Y11.4501 
G01 X-41.4214 Y11.4694 
G01 X-41.4094 Y11.4901 
G01 X-41.3967 Y11.5028 
G01 X-41.3860 Y11.5173 
G01 X-41.3673 Y11.5323 
G01 X-39.9345 Y12.9650 
G01 X-39.7835 Y13.1160 
G01 X-39.7818 Y13.1226 
G01 X-39.7713 Y13.1407 
G01 X-39.7633 Y13.1601 
G01 X-39.7505 Y13.1768 
G01 X-39.7400 Y13.1949 
G01 X-39.7251 Y13.2098 
G01 X-39.7124 Y13.2264 
G01 X-39.6957 Y13.2392 
G01 X-39.6809 Y13.2541 
G01 X-39.6627 Y13.2645 
G01 X-39.6461 Y13.2773 
G01 X-39.6266 Y13.2854 
G01 X-39.6085 Y13.2959 
G01 X-39.5882 Y13.3013 
G01 X-39.5688 Y13.3093 
G01 X-39.5480 Y13.3121 
G01 X-39.5277 Y13.3175 
G01 X-39.5067 Y13.3175 
G01 X-39.4859 Y13.3202 
G01 X-39.4651 Y13.3175 
G01 X-39.3175 Y13.3175 
G01 X-39.3175 Y18.0923 
G01 X-39.2959 Y18.1731 
G01 X-39.2541 Y18.2455 
G01 X-39.1949 Y18.3046 
G01 X-39.1226 Y18.3464 
G01 X-39.0418 Y18.3680 
G01 X-38.9582 Y18.3680 
G01 X-38.8774 Y18.3464 
G01 X-38.8051 Y18.3046 
G01 X-38.7459 Y18.2455 
G01 X-36.7178 Y16.2174 
G01 X-36.6587 Y16.1583 
G01 X-36.6169 Y16.0859 
G01 X-36.5953 Y16.0051 
G01 X-36.5953 Y7.8710  
G01 X-36.6169 Y7.7902  
G01 X-36.6587 Y7.7178  
G01 X-36.7178 Y7.6587  
G01 X-36.7902 Y7.6169  
G01 X-36.8710 Y7.5953  
G01 X-38.3985 Y7.5953  
G01 X-38.5806 Y7.5199  
G01 X-38.7459 Y7.3545  
G01 X-38.8051 Y7.2954  
G01 X-39.9655 Y6.1350  
G01 X-40.1199 Y5.9806  
G01 X-40.1953 Y5.7985  
G01 X-40.1953 Y5.6426  
G01 X-40.1926 Y5.6218  
G01 X-40.1953 Y5.6010  
G01 X-40.1953 Y5.5800  
G01 X-40.2007 Y5.5597  
G01 X-40.2035 Y5.5389  
G01 X-40.2115 Y5.5195  
G01 X-40.2169 Y5.4992  
G01 X-40.2274 Y5.4810  
G01 X-40.2355 Y5.4617  
G01 X-40.2482 Y5.4450  
G01 X-40.2587 Y5.4268  
G01 X-40.2736 Y5.4120  
G01 X-40.2864 Y5.3953  
G01 X-40.3030 Y5.3825  
G01 X-40.3178 Y5.3677  
G01 X-40.3360 Y5.3572  
G01 X-40.3527 Y5.3444  
G01 X-40.3721 Y5.3364  
G01 X-40.3902 Y5.3259  
G01 X-40.4105 Y5.3205  
G01 X-40.5671 Y5.2556  
G01 X-40.8636 Y4.9591  
G01 X-40.9307 Y4.7972  
G01 X-40.9464 Y4.7593  
G01 X-40.9627 Y4.7200  
G01 X-41.0136 Y4.6537  
G01 X-41.0799 Y4.6028  
G01 X-41.1112 Y4.5898  
G01 X-41.1571 Y4.5708  
G01 X-41.2400 Y4.5599  
G01 X-41.3229 Y4.5708  
G01 X-41.3675 Y4.5892  
G01 X-41.4001 Y4.6028  
G01 X-41.4664 Y4.6537  
G01 X-41.5173 Y4.7200  
G01 X-41.5368 Y4.7669  
G01 X-41.5493 Y4.7972  
G01 X-41.6164 Y4.9591  
G01 X-41.9129 Y5.2556  
G01 X-42.3003 Y5.4161  
G01 X-42.7197 Y5.4161  
G01 X-43.1071 Y5.2556  
G01 X-43.2664 Y5.0963  
G01 X-43.2771 Y5.0818  
G01 X-43.2959 Y5.0669  
G01 X-43.3128 Y5.0499  
G01 X-43.3284 Y5.0409  
G01 X-43.3425 Y5.0297  
G01 X-43.3645 Y5.0201  
G01 X-43.3852 Y5.0081  
G01 X-43.4026 Y5.0035  
G01 X-43.4191 Y4.9962  
G01 X-43.4428 Y4.9927  
G01 X-43.4659 Y4.9865  
G01 X-43.4840 Y4.9865  
G01 X-43.5018 Y4.9838  
G01 X-43.5256 Y4.9865  
G01 X-43.5495 Y4.9865  
G01 X-43.5670 Y4.9912  
G01 X-43.5849 Y4.9932  
G01 X-43.6072 Y5.0019  
G01 X-43.6303 Y5.0081  
G01 X-43.6459 Y5.0171  
G01 X-43.6627 Y5.0237  
G01 X-43.6819 Y5.0379  
G01 X-43.7027 Y5.0499  
G01 X-43.7154 Y5.0627  
G01 X-43.7299 Y5.0734  
G01 X-43.7449 Y5.0921  
G01 X-43.7618 Y5.1090  
G01 X-43.7708 Y5.1246  
G01 X-43.7821 Y5.1387  
G01 X-43.7916 Y5.1607  
G01 X-43.8036 Y5.1814  
G01 X-43.8083 Y5.1988  
G01 X-43.8155 Y5.2154  
G01 X-43.8190 Y5.2391  
G01 X-43.8252 Y5.2622  
G01 X-43.8252 Y5.2802  
G01 X-43.8279 Y5.2980  
G01 X-43.8252 Y5.3218  
G01 X-43.8252 Y5.3458  
G01 X-43.8206 Y5.3632  
G01 X-43.8186 Y5.3811  
G01 X-43.8098 Y5.4034  
G01 X-43.8036 Y5.4265  
G01 X-43.7946 Y5.4421  
G01 X-41.4574 Y11.3946 
G01 X-41.4513 Y11.4177 
G00 Z0.5000  
G00 X-30.5165 Y1.5134  
G01 Z-0.1778 F254   
G01 X-30.5138 Y1.5342  F508   
G01 X-30.5138 Y1.5552  
G01 X-30.5083 Y1.5755  
G01 X-30.5056 Y1.5963  
G01 X-30.4976 Y1.6157  
G01 X-30.4921 Y1.6359  
G01 X-30.4816 Y1.6541  
G01 X-30.4736 Y1.6735  
G01 X-30.4608 Y1.6902  
G01 X-30.4503 Y1.7083  
G01 X-30.4355 Y1.7232  
G01 X-30.4227 Y1.7398  
G01 X-30.4061 Y1.7526  
G01 X-30.3912 Y1.7675  
G01 X-30.3731 Y1.7779  
G01 X-30.3564 Y1.7907  
G01 X-30.3370 Y1.7988  
G01 X-30.3188 Y1.8093  
G01 X-30.2986 Y1.8147  
G01 X-30.2792 Y1.8227  
G01 X-30.2584 Y1.8255  
G01 X-30.2381 Y1.8309  
G01 X-30.2171 Y1.8309  
G01 X-30.1963 Y1.8336  
G01 X-30.1755 Y1.8309  
G01 X-30.1545 Y1.8309  
G01 X-30.1342 Y1.8255  
G01 X-30.1134 Y1.8227  
G01 X-30.0940 Y1.8147  
G01 X-30.0737 Y1.8093  
G01 X-30.0556 Y1.7988  
G01 X-30.0197 Y1.7839  
G01 X-29.6003 Y1.7839  
G01 X-29.5957 Y1.7858  
G01 X-29.5749 Y1.7886  
G01 X-29.5546 Y1.7940  
G01 X-29.5336 Y1.7940  
G01 X-29.5128 Y1.7967  
G01 X-29.4920 Y1.7940  
G01 X-29.4710 Y1.7940  
G01 X-29.4507 Y1.7886  
G01 X-29.4299 Y1.7858  
G01 X-29.4105 Y1.7778  
G01 X-29.3902 Y1.7724  
G01 X-29.3721 Y1.7619  
G01 X-29.3527 Y1.7538  
G01 X-29.3360 Y1.7410  
G01 X-29.3178 Y1.7306  
G01 X-29.3030 Y1.7157  
G01 X-29.2864 Y1.7029  
G01 X-29.2736 Y1.6863  
G01 X-29.2587 Y1.6714  
G01 X-29.2482 Y1.6533  
G01 X-29.2355 Y1.6366  
G01 X-29.2274 Y1.6172  
G01 X-29.2169 Y1.5990  
G01 X-29.2115 Y1.5788  
G01 X-29.2035 Y1.5594  
G01 X-29.2007 Y1.5386  
G01 X-29.1953 Y1.5183  
G01 X-29.1953 Y1.4973  
G01 X-29.1926 Y1.4765  
G01 X-29.1953 Y1.4557  
G01 X-29.1953 Y1.2804  
G01 X-29.1916 Y1.2478  
G01 X-29.1843 Y1.2158  
G01 X-29.1735 Y1.1848  
G01 X-29.1593 Y1.1554  
G01 X-29.1457 Y1.1338  
G01 X-29.1439 Y1.1279  
G01 X-29.1408 Y1.1226  
G01 X-29.1374 Y1.1099  
G01 X-29.1334 Y1.1016  
G01 X-29.1297 Y1.0820  
G01 X-29.1210 Y1.0539  
G01 X-29.1208 Y1.0478  
G01 X-29.1192 Y1.0418  
G01 X-29.1192 Y1.0264  
G01 X-29.1178 Y1.0194  
G01 X-29.1190 Y1.0033  
G01 X-29.1178 Y0.9704  
G01 X-29.1192 Y0.9644  
G01 X-29.1192 Y0.9582  
G01 X-29.1237 Y0.9413  
G01 X-29.1241 Y0.9360  
G01 X-29.1284 Y0.9238  
G01 X-29.1363 Y0.8889  
G01 X-29.1392 Y0.8834  
G01 X-29.1408 Y0.8774  
G01 X-29.1504 Y0.8607  
G01 X-29.1517 Y0.8571  
G01 X-29.1571 Y0.8493  
G01 X-29.1587 Y0.8465  
G01 X-29.1753 Y0.8149  
G01 X-29.1795 Y0.8104  
G01 X-29.1826 Y0.8051  
G01 X-29.1971 Y0.7905  
G01 X-29.2044 Y0.7832  
G01 X-29.2078 Y0.7798  
G01 X-29.2321 Y0.7536  
G01 X-29.2374 Y0.7503  
G01 X-29.2417 Y0.7459  
G01 X-29.2601 Y0.7353  
G01 X-29.2684 Y0.7306  
G01 X-29.2726 Y0.7281  
G01 X-29.3029 Y0.7090  
G01 X-29.3088 Y0.7072  
G01 X-29.3141 Y0.7041  
G01 X-29.3346 Y0.6986  
G01 X-29.3375 Y0.6973  
G01 X-29.3452 Y0.6958  
G01 X-29.3486 Y0.6949  
G01 X-29.3827 Y0.6843  
G01 X-29.3889 Y0.6841  
G01 X-29.3949 Y0.6825  
G01 X-29.4155 Y0.6825  
G01 X-29.4196 Y0.6817  
G01 X-29.4300 Y0.6825  
G01 X-29.4663 Y0.6811  
G01 X-29.4723 Y0.6825  
G01 X-30.2368 Y0.6825  
G01 X-30.2428 Y0.6811  
G01 X-30.2785 Y0.6825  
G01 X-30.2895 Y0.6817  
G01 X-30.2936 Y0.6825  
G01 X-30.3142 Y0.6825  
G01 X-30.3202 Y0.6841  
G01 X-30.3263 Y0.6843  
G01 X-30.3605 Y0.6949  
G01 X-30.3639 Y0.6958  
G01 X-30.3716 Y0.6973  
G01 X-30.3744 Y0.6986  
G01 X-30.3950 Y0.7041  
G01 X-30.4003 Y0.7072  
G01 X-30.4062 Y0.7090  
G01 X-30.4365 Y0.7281  
G01 X-30.4407 Y0.7305  
G01 X-30.4469 Y0.7335  
G01 X-30.4674 Y0.7459  
G01 X-30.4717 Y0.7503  
G01 X-30.4769 Y0.7536  
G01 X-30.5012 Y0.7798  
G01 X-30.5046 Y0.7832  
G01 X-30.5103 Y0.7881  
G01 X-30.5265 Y0.8051  
G01 X-30.5296 Y0.8104  
G01 X-30.5338 Y0.8149  
G01 X-30.5504 Y0.8465  
G01 X-30.5520 Y0.8493  
G01 X-30.5574 Y0.8571  
G01 X-30.5586 Y0.8608  
G01 X-30.5683 Y0.8774  
G01 X-30.5699 Y0.8834  
G01 X-30.5728 Y0.8889  
G01 X-30.5807 Y0.9237  
G01 X-30.5850 Y0.9360  
G01 X-30.5854 Y0.9413  
G01 X-30.5899 Y0.9582  
G01 X-30.5899 Y0.9644  
G01 X-30.5913 Y0.9704  
G01 X-30.5900 Y1.0032  
G01 X-30.5912 Y1.0194  
G01 X-30.5899 Y1.0264  
G01 X-30.5899 Y1.0418  
G01 X-30.5883 Y1.0478  
G01 X-30.5881 Y1.0539  
G01 X-30.5794 Y1.0820  
G01 X-30.5757 Y1.1016  
G01 X-30.5717 Y1.1099  
G01 X-30.5683 Y1.1226  
G01 X-30.5652 Y1.1279  
G01 X-30.5634 Y1.1338  
G01 X-30.5498 Y1.1554  
G01 X-30.5356 Y1.1848  
G01 X-30.5248 Y1.2158  
G01 X-30.5174 Y1.2478  
G01 X-30.5138 Y1.2804  
G01 X-30.5138 Y1.4926  
G01 X-30.5165 Y1.5134  
G00 Z0.5000  
G00 X-39.1413 Y5.0240  
G01 Z-0.1778 F254   
G01 X-39.1831 Y5.0964  F508   
G01 X-39.2047 Y5.1771  
G01 X-39.2047 Y5.4051  
G01 X-39.1831 Y5.4859  
G01 X-39.1413 Y5.5583  
G01 X-39.0821 Y5.6174  
G01 X-38.1583 Y6.5413  
G01 X-38.0859 Y6.5831  
G01 X-38.0051 Y6.6047  
G01 X-36.1015 Y6.6047  
G01 X-35.9194 Y6.6801  
G01 X-35.7059 Y6.8936  
G01 X-35.6801 Y6.9194  
G01 X-35.6047 Y7.1015  
G01 X-35.6047 Y16.3985 
G01 X-35.6801 Y16.5806 
G01 X-35.8878 Y16.7883 
G01 X-39.1949 Y20.0954 
G01 X-39.2008 Y20.1013 
G01 X-39.2541 Y20.1545 
G01 X-39.2959 Y20.2269 
G01 X-39.3175 Y20.3077 
G01 X-39.3175 Y24.3923 
G01 X-39.2959 Y24.4731 
G01 X-39.2541 Y24.5455 
G01 X-39.1949 Y24.6046 
G01 X-39.1226 Y24.6464 
G01 X-39.0418 Y24.6680 
G01 X-38.9582 Y24.6680 
G01 X-38.8774 Y24.6464 
G01 X-38.8051 Y24.6046 
G01 X-38.7459 Y24.5455 
G01 X-28.8806 Y14.6801 
G01 X-28.6985 Y14.6047 
G01 X-19.1949 Y14.6047 
G01 X-19.1141 Y14.5831 
G01 X-19.0417 Y14.5413 
G01 X-18.9826 Y14.4821 
G01 X-16.8587 Y12.3583 
G01 X-16.8169 Y12.2859 
G01 X-16.7953 Y12.2051 
G01 X-16.7953 Y5.6818  
G01 X-16.8169 Y5.6010  
G01 X-16.8587 Y5.5286  
G01 X-16.9178 Y5.4695  
G01 X-16.9902 Y5.4277  
G01 X-17.0710 Y5.4061  
G01 X-17.3197 Y5.4061  
G01 X-17.7071 Y5.2456  
G01 X-18.0036 Y4.9491  
G01 X-18.1641 Y4.5617  
G01 X-18.1641 Y2.6183  
G01 X-18.0036 Y2.2309  
G01 X-17.7071 Y1.9344  
G01 X-17.3197 Y1.7739  
G01 X-16.9003 Y1.7739  
G01 X-16.5129 Y1.9344  
G01 X-16.2164 Y2.2309  
G01 X-16.1493 Y2.3928  
G01 X-16.1173 Y2.4700  
G01 X-16.0664 Y2.5363  
G01 X-16.0294 Y2.5647  
G01 X-16.0001 Y2.5872  
G01 X-15.9229 Y2.6192  
G01 X-15.8400 Y2.6301  
G01 X-15.7571 Y2.6192  
G01 X-15.6799 Y2.5872  
G01 X-15.6136 Y2.5363  
G01 X-15.5852 Y2.4993  
G01 X-15.5627 Y2.4700  
G01 X-15.5307 Y2.3928  
G01 X-15.4636 Y2.2309  
G01 X-15.1819 Y1.9492  
G01 X-15.1516 Y1.9649  
G01 X-15.1226 Y1.9816  
G01 X-15.1144 Y1.9838  
G01 X-15.1069 Y1.9876  
G01 X-15.0742 Y1.9946  
G01 X-15.0418 Y2.0033  
G01 X-15.0334 Y2.0033  
G01 X-15.0251 Y2.0050  
G01 X-14.9917 Y2.0033  
G01 X-14.9582 Y2.0033  
G01 X-14.9501 Y2.0011  
G01 X-14.9416 Y2.0006  
G01 X-14.9383 Y1.9996  
G01 X-14.9383 Y2.0321  
G01 X-14.9851 Y2.0514  
G01 X-15.1286 Y2.1473  
G01 X-15.2507 Y2.2694  
G01 X-15.3466 Y2.4129  
G01 X-15.4126 Y2.5724  
G01 X-15.4463 Y2.7417  
G01 X-15.4463 Y4.4383  
G01 X-15.4126 Y4.6076  
G01 X-15.3466 Y4.7671  
G01 X-15.2507 Y4.9106  
G01 X-15.1286 Y5.0327  
G01 X-14.9851 Y5.1286  
G01 X-14.9383 Y5.1479  
G01 X-14.9383 Y5.1804  
G01 X-14.9416 Y5.1793  
G01 X-14.9501 Y5.1789  
G01 X-14.9582 Y5.1767  
G01 X-14.9917 Y5.1767  
G01 X-15.0251 Y5.1750  
G01 X-15.0334 Y5.1767  
G01 X-15.0418 Y5.1767  
G01 X-15.0742 Y5.1854  
G01 X-15.1069 Y5.1924  
G01 X-15.1144 Y5.1962  
G01 X-15.1226 Y5.1984  
G01 X-15.1516 Y5.2151  
G01 X-15.1814 Y5.2303  
G01 X-15.2922 Y5.1205  
G01 X-15.3646 Y5.0787  
G01 X-15.4454 Y5.0570  
G01 X-15.5290 Y5.0570  
G01 X-15.5497 Y5.0626  
G01 X-15.6097 Y5.0787  
G01 X-15.6821 Y5.1205  
G01 X-15.7413 Y5.1796  
G01 X-15.7831 Y5.2520  
G01 X-15.8047 Y5.3327  
G01 X-15.8047 Y12.5985 
G01 X-15.8801 Y12.7806 
G01 X-16.0936 Y12.9941 
G01 X-18.4650 Y15.3655 
G01 X-18.6194 Y15.5199 
G01 X-18.8015 Y15.5953 
G01 X-28.3051 Y15.5953 
G01 X-28.3859 Y15.6169 
G01 X-28.4583 Y15.6587 
G01 X-28.5174 Y15.7178 
G01 X-37.5455 Y24.7459 
G01 X-37.6046 Y24.8051 
G01 X-37.6464 Y24.8774 
G01 X-37.6680 Y24.9582 
G01 X-37.6680 Y25.0418 
G01 X-37.6464 Y25.1226 
G01 X-37.6046 Y25.1949 
G01 X-37.5455 Y25.2541 
G01 X-37.4731 Y25.2959 
G01 X-37.3923 Y25.3175 
G01 X-15.3175 Y25.3175 
G01 X-15.3175 Y25.3290 
G01 X-15.2959 Y25.4098 
G01 X-15.2541 Y25.4821 
G01 X-15.1949 Y25.5413 
G01 X-15.1226 Y25.5831 
G01 X-15.0418 Y25.6047 
G01 X-10.9289 Y25.6047 
G01 X-10.8482 Y25.5831 
G01 X-10.7758 Y25.5413 
G01 X-10.5903 Y25.3558 
G01 X-10.2029 Y25.1953 
G01 X-8.2595 Y25.1953 
G01 X-7.8721 Y25.3558 
G01 X-7.5756 Y25.6523 
G01 X-7.4151 Y26.0397 
G01 X-7.4151 Y26.4591 
G01 X-7.5756 Y26.8465 
G01 X-7.8721 Y27.1430 
G01 X-8.2595 Y27.3035 
G01 X-10.2029 Y27.3035 
G01 X-10.5903 Y27.1430 
G01 X-10.8868 Y26.8465 
G01 X-10.9017 Y26.8105 
G01 X-10.9072 Y26.7902 
G01 X-10.9176 Y26.7721 
G01 X-10.9257 Y26.7527 
G01 X-10.9385 Y26.7360 
G01 X-10.9490 Y26.7178 
G01 X-10.9638 Y26.7030 
G01 X-10.9766 Y26.6864 
G01 X-10.9932 Y26.6736 
G01 X-11.0081 Y26.6587 
G01 X-11.0262 Y26.6483 
G01 X-11.0429 Y26.6355 
G01 X-11.0623 Y26.6274 
G01 X-11.0805 Y26.6169 
G01 X-11.1007 Y26.6115 
G01 X-11.1201 Y26.6035 
G01 X-11.1409 Y26.6007 
G01 X-11.1612 Y26.5953 
G01 X-11.1822 Y26.5953 
G01 X-11.2030 Y26.5926 
G01 X-11.2238 Y26.5953 
G01 X-46.1985 Y26.5953 
G01 X-46.3806 Y26.5199 
G01 X-46.5941 Y26.3064 
G01 X-48.1199 Y24.7806 
G01 X-48.1825 Y24.6294 
G01 X-48.1825 Y22.9706 
G01 X-48.1199 Y22.8194 
G01 X-47.9064 Y22.6059 
G01 X-46.7806 Y21.4801 
G01 X-46.5998 Y21.4052 
G01 X-46.5899 Y21.4047 
G01 X-46.5564 Y21.4047 
G01 X-46.5483 Y21.4025 
G01 X-46.5399 Y21.4021 
G01 X-46.5080 Y21.3917 
G01 X-46.4757 Y21.3831 
G01 X-46.4684 Y21.3788 
G01 X-46.4604 Y21.3762 
G01 X-46.4323 Y21.3580 
G01 X-46.4033 Y21.3413 
G01 X-46.3973 Y21.3353 
G01 X-46.3902 Y21.3307 
G01 X-46.3678 Y21.3058 
G01 X-46.3442 Y21.2821 
G01 X-46.3400 Y21.2749 
G01 X-46.3343 Y21.2686 
G01 X-46.3191 Y21.2387 
G01 X-46.3024 Y21.2097 
G01 X-46.3002 Y21.2016 
G01 X-46.2964 Y21.1941 
G01 X-46.2894 Y21.1613 
G01 X-46.2807 Y21.1290 
G01 X-46.2807 Y21.1206 
G01 X-46.2790 Y21.1123 
G01 X-46.2807 Y21.0789 
G01 X-46.2807 Y21.0454 
G01 X-46.2829 Y21.0373 
G01 X-46.2833 Y21.0288 
G01 X-46.2913 Y21.0043 
G01 X-46.2589 Y21.0043 
G01 X-46.2395 Y21.0513 
G01 X-46.1444 Y21.1935 
G01 X-46.0235 Y21.3145 
G01 X-45.8813 Y21.4095 
G01 X-45.7233 Y21.4749 
G01 X-45.5555 Y21.5083 
G01 X-45.3845 Y21.5083 
G01 X-45.2167 Y21.4749 
G01 X-45.0587 Y21.4095 
G01 X-44.9165 Y21.3145 
G01 X-44.7955 Y21.1935 
G01 X-44.7005 Y21.0513 
G01 X-44.6351 Y20.8933 
G01 X-44.6017 Y20.7255 
G01 X-44.6017 Y20.5545 
G01 X-44.6351 Y20.3867 
G01 X-44.7005 Y20.2287 
G01 X-44.7955 Y20.0865 
G01 X-44.9165 Y19.9655 
G01 X-45.0587 Y19.8705 
G01 X-45.1057 Y19.8511 
G01 X-45.1057 Y19.8188 
G01 X-45.1030 Y19.8195 
G01 X-45.0712 Y19.8299 
G01 X-45.0627 Y19.8303 
G01 X-45.0546 Y19.8325 
G01 X-45.0211 Y19.8325 
G01 X-44.9877 Y19.8343 
G01 X-44.9794 Y19.8325 
G01 X-44.9710 Y19.8325 
G01 X-44.9387 Y19.8239 
G01 X-44.9059 Y19.8169 
G01 X-44.8984 Y19.8131 
G01 X-44.8902 Y19.8109 
G01 X-44.8613 Y19.7941 
G01 X-44.8314 Y19.7789 
G01 X-44.8251 Y19.7733 
G01 X-44.8178 Y19.7691 
G01 X-44.7942 Y19.7454 
G01 X-44.7693 Y19.7230 
G01 X-44.7647 Y19.7159 
G01 X-44.7587 Y19.7100 
G01 X-44.7420 Y19.6810 
G01 X-44.7238 Y19.6529 
G01 X-44.7212 Y19.6449 
G01 X-44.7169 Y19.6376 
G01 X-44.7083 Y19.6052 
G01 X-44.6979 Y19.5734 
G01 X-44.6975 Y19.5650 
G01 X-44.6953 Y19.5568 
G01 X-44.6953 Y19.5234 
G01 X-44.6935 Y19.4899 
G01 X-44.6953 Y19.4817 
G01 X-44.6953 Y19.2583 
G01 X-44.6935 Y19.2501 
G01 X-44.6953 Y19.2166 
G01 X-44.6953 Y19.1832 
G01 X-44.6975 Y19.1750 
G01 X-44.6979 Y19.1666 
G01 X-44.7083 Y19.1348 
G01 X-44.7169 Y19.1024 
G01 X-44.7212 Y19.0951 
G01 X-44.7238 Y19.0871 
G01 X-44.7420 Y19.0590 
G01 X-44.7587 Y19.0300 
G01 X-44.7647 Y19.0241 
G01 X-44.7693 Y19.0170 
G01 X-44.7942 Y18.9946 
G01 X-44.8178 Y18.9709 
G01 X-44.8251 Y18.9667 
G01 X-44.8314 Y18.9611 
G01 X-44.8613 Y18.9459 
G01 X-44.8902 Y18.9291 
G01 X-44.8984 Y18.9269 
G01 X-44.9059 Y18.9231 
G01 X-44.9387 Y18.9161 
G01 X-44.9710 Y18.9075 
G01 X-44.9794 Y18.9075 
G01 X-44.9877 Y18.9057 
G01 X-45.0211 Y18.9075 
G01 X-45.0546 Y18.9075 
G01 X-45.0627 Y18.9097 
G01 X-45.0712 Y18.9101 
G01 X-45.1030 Y18.9204 
G01 X-45.1057 Y18.9212 
G01 X-45.1057 Y18.8889 
G01 X-45.0587 Y18.8695 
G01 X-44.9165 Y18.7745 
G01 X-44.7955 Y18.6535 
G01 X-44.7005 Y18.5113 
G01 X-44.6351 Y18.3533 
G01 X-44.6017 Y18.1855 
G01 X-44.6017 Y18.0145 
G01 X-44.6351 Y17.8467 
G01 X-44.7005 Y17.6887 
G01 X-44.7955 Y17.5465 
G01 X-44.9165 Y17.4255 
G01 X-45.0587 Y17.3305 
G01 X-45.1057 Y17.3111 
G01 X-45.1057 Y17.2826 
G01 X-45.0016 Y17.3356 
G01 X-44.8878 Y17.4183 
G01 X-44.7883 Y17.5178 
G01 X-44.7056 Y17.6316 
G01 X-44.6834 Y17.6752 
G01 X-44.6722 Y17.7023 
G01 X-44.6645 Y17.7124 
G01 X-44.6588 Y17.7236 
G01 X-44.6418 Y17.7569 
G01 X-44.5996 Y17.8868 
G01 X-44.5979 Y17.8995 
G01 X-44.5965 Y17.9030 
G01 X-44.5959 Y17.9068 
G01 X-44.5854 Y17.9306 
G01 X-44.5777 Y17.9542 
G01 X-44.5710 Y17.9645 
G01 X-44.5659 Y17.9768 
G01 X-44.5636 Y17.9798 
G01 X-44.5621 Y17.9832 
G01 X-44.5453 Y18.0041 
G01 X-44.5321 Y18.0244 
G01 X-44.5233 Y18.0323 
G01 X-44.5150 Y18.0431 
G01 X-44.5120 Y18.0454 
G01 X-44.5097 Y18.0483 
G01 X-44.4876 Y18.0645 
G01 X-44.4700 Y18.0803 
G01 X-44.4597 Y18.0855 
G01 X-44.4487 Y18.0940 
G01 X-44.4452 Y18.0954 
G01 X-44.4422 Y18.0977 
G01 X-44.4162 Y18.1077 
G01 X-44.3955 Y18.1182 
G01 X-44.3845 Y18.1206 
G01 X-44.3715 Y18.1260 
G01 X-44.3677 Y18.1265 
G01 X-44.3642 Y18.1278 
G01 X-44.3361 Y18.1309 
G01 X-44.3137 Y18.1356 
G01 X-44.3026 Y18.1350 
G01 X-44.2886 Y18.1369 
G01 X-44.2848 Y18.1364 
G01 X-44.2811 Y18.1368 
G01 X-44.2530 Y18.1324 
G01 X-44.2303 Y18.1313 
G01 X-44.2197 Y18.1278 
G01 X-44.2057 Y18.1260 
G01 X-44.2022 Y18.1245 
G01 X-44.1985 Y18.1240 
G01 X-44.1725 Y18.1125 
G01 X-44.1508 Y18.1054 
G01 X-44.1414 Y18.0994 
G01 X-44.1285 Y18.0940 
G01 X-44.1255 Y18.0917 
G01 X-44.1220 Y18.0902 
G01 X-44.1001 Y18.0725 
G01 X-44.0806 Y18.0599 
G01 X-44.0731 Y18.0515 
G01 X-44.0621 Y18.0431 
G01 X-44.0598 Y18.0401 
G01 X-44.0569 Y18.0377 
G01 X-44.0405 Y18.0153 
G01 X-44.0247 Y17.9978 
G01 X-44.0195 Y17.9875 
G01 X-44.0112 Y17.9768 
G01 X-44.0098 Y17.9733 
G01 X-44.0076 Y17.9702 
G01 X-43.9977 Y17.9448 
G01 X-43.9868 Y17.9233 
G01 X-43.9843 Y17.9117 
G01 X-43.8168 Y17.5074 
G01 X-43.5226 Y17.2132 
G01 X-43.3443 Y17.1393 
G01 X-43.3066 Y17.1237 
G01 X-43.2671 Y17.1073 
G01 X-43.2458 Y17.0910 
G01 X-43.2008 Y17.0564 
G01 X-43.1499 Y16.9901 
G01 X-43.1369 Y16.9588 
G01 X-43.1179 Y16.9129 
G01 X-43.1070 Y16.8300 
G01 X-43.1179 Y16.7471 
G01 X-43.1363 Y16.7025 
G01 X-43.1499 Y16.6699 
G01 X-43.1662 Y16.6486 
G01 X-43.2008 Y16.6036 
G01 X-43.2671 Y16.5527 
G01 X-43.3138 Y16.5333 
G01 X-43.3443 Y16.5207 
G01 X-43.5226 Y16.4468 
G01 X-43.8168 Y16.1526 
G01 X-43.9843 Y15.7483 
G01 X-43.9868 Y15.7367 
G01 X-43.9977 Y15.7152 
G01 X-44.0076 Y15.6898 
G01 X-44.0098 Y15.6867 
G01 X-44.0112 Y15.6832 
G01 X-44.0195 Y15.6725 
G01 X-44.0247 Y15.6622 
G01 X-44.0405 Y15.6447 
G01 X-44.0569 Y15.6223 
G01 X-44.0598 Y15.6199 
G01 X-44.0621 Y15.6169 
G01 X-44.0731 Y15.6085 
G01 X-44.0806 Y15.6001 
G01 X-44.1001 Y15.5875 
G01 X-44.1220 Y15.5698 
G01 X-44.1255 Y15.5683 
G01 X-44.1285 Y15.5660 
G01 X-44.1414 Y15.5606 
G01 X-44.1285 Y15.5540 
G01 X-44.1255 Y15.5517 
G01 X-44.1220 Y15.5502 
G01 X-44.1001 Y15.5325 
G01 X-44.0806 Y15.5199 
G01 X-44.0731 Y15.5115 
G01 X-44.0621 Y15.5031 
G01 X-44.0598 Y15.5001 
G01 X-44.0569 Y15.4977 
G01 X-44.0405 Y15.4753 
G01 X-44.0247 Y15.4578 
G01 X-44.0195 Y15.4475 
G01 X-44.0112 Y15.4368 
G01 X-44.0098 Y15.4333 
G01 X-44.0076 Y15.4302 
G01 X-43.9977 Y15.4048 
G01 X-43.9868 Y15.3833 
G01 X-43.9843 Y15.3717 
G01 X-43.8168 Y14.9674 
G01 X-43.5226 Y14.6732 
G01 X-43.3443 Y14.5993 
G01 X-43.2671 Y14.5673 
G01 X-43.2388 Y14.5456 
G01 X-43.2008 Y14.5164 
G01 X-43.1610 Y14.4646 
G01 X-43.1499 Y14.4501 
G01 X-43.1315 Y14.4058 
G01 X-43.1179 Y14.3729 
G01 X-43.1070 Y14.2900 
G01 X-43.1179 Y14.2071 
G01 X-43.1499 Y14.1299 
G01 X-43.1716 Y14.1016 
G01 X-43.2008 Y14.0636 
G01 X-43.2526 Y14.0238 
G01 X-43.2671 Y14.0127 
G01 X-43.3249 Y13.9887 
G01 X-43.3443 Y13.9807 
G01 X-43.5226 Y13.9068 
G01 X-43.8168 Y13.6126 
G01 X-43.9843 Y13.2083 
G01 X-43.9868 Y13.1967 
G01 X-43.9976 Y13.1754 
G01 X-44.0073 Y13.1502 
G01 X-44.0097 Y13.1470 
G01 X-44.0112 Y13.1432 
G01 X-44.0195 Y13.1325 
G01 X-44.0247 Y13.1222 
G01 X-44.0404 Y13.1049 
G01 X-44.0565 Y13.0827 
G01 X-44.0597 Y13.0801 
G01 X-44.0621 Y13.0769 
G01 X-44.0731 Y13.0685 
G01 X-44.0806 Y13.0601 
G01 X-44.0999 Y13.0476 
G01 X-44.1215 Y13.0301 
G01 X-44.1252 Y13.0285 
G01 X-44.1285 Y13.0260 
G01 X-44.1414 Y13.0206 
G01 X-44.1285 Y13.0140 
G01 X-44.1252 Y13.0115 
G01 X-44.1215 Y13.0099 
G01 X-44.0999 Y12.9924 
G01 X-44.0806 Y12.9799 
G01 X-44.0731 Y12.9715 
G01 X-44.0621 Y12.9631 
G01 X-44.0597 Y12.9599 
G01 X-44.0565 Y12.9573 
G01 X-44.0404 Y12.9351 
G01 X-44.0247 Y12.9178 
G01 X-44.0195 Y12.9075 
G01 X-44.0112 Y12.8968 
G01 X-44.0097 Y12.8930 
G01 X-44.0073 Y12.8898 
G01 X-43.9976 Y12.8646 
G01 X-43.9868 Y12.8433 
G01 X-43.9843 Y12.8317 
G01 X-43.9227 Y12.6829 
G01 X-43.9069 Y12.6449 
G01 X-43.8907 Y12.6057 
G01 X-43.8168 Y12.4274 
G01 X-43.5226 Y12.1332 
G01 X-43.1381 Y11.9739 
G01 X-42.7837 Y11.9739 
G01 X-42.7659 Y11.9766 
G01 X-42.7421 Y11.9739 
G01 X-42.7182 Y11.9739 
G01 X-42.7007 Y11.9692 
G01 X-42.6828 Y11.9672 
G01 X-42.6605 Y11.9585 
G01 X-42.6374 Y11.9523 
G01 X-42.6218 Y11.9432 
G01 X-42.6050 Y11.9367 
G01 X-42.5857 Y11.9224 
G01 X-42.5650 Y11.9105 
G01 X-42.5523 Y11.8977 
G01 X-42.5378 Y11.8870 
G01 X-42.5228 Y11.8683 
G01 X-42.5059 Y11.8513 
G01 X-42.4969 Y11.8357 
G01 X-42.4856 Y11.8216 
G01 X-42.4761 Y11.7997 
G01 X-42.4641 Y11.7790 
G01 X-42.4594 Y11.7615 
G01 X-42.4522 Y11.7450 
G01 X-42.4487 Y11.7213 
G01 X-42.4425 Y11.6982 
G01 X-42.4425 Y11.6802 
G01 X-42.4398 Y11.6623 
G01 X-42.4425 Y11.6385 
G01 X-42.4425 Y11.6146 
G01 X-42.4471 Y11.5972 
G01 X-42.4491 Y11.5793 
G01 X-42.4579 Y11.5570 
G01 X-42.4641 Y11.5338 
G01 X-42.4731 Y11.5182 
G01 X-43.6979 Y8.3987  
G01 X-43.7041 Y8.3756  
G01 X-43.7131 Y8.3600  
G01 X-44.7834 Y5.6342  
G01 X-44.7896 Y5.6110  
G01 X-44.7986 Y5.5954  
G01 X-44.8052 Y5.5787  
G01 X-44.8194 Y5.5594  
G01 X-44.8314 Y5.5386  
G01 X-44.8442 Y5.5259  
G01 X-44.8549 Y5.5114  
G01 X-44.8736 Y5.4965  
G01 X-44.8905 Y5.4795  
G01 X-44.9061 Y5.4705  
G01 X-44.9202 Y5.4593  
G01 X-44.9422 Y5.4497  
G01 X-44.9629 Y5.4377  
G01 X-44.9803 Y5.4331  
G01 X-44.9969 Y5.4259  
G01 X-45.0205 Y5.4223  
G01 X-45.0437 Y5.4161  
G01 X-45.0617 Y5.4161  
G01 X-45.0795 Y5.4134  
G01 X-45.1033 Y5.4161  
G01 X-45.2597 Y5.4161  
G01 X-45.6471 Y5.2556  
G01 X-45.9436 Y4.9591  
G01 X-46.1041 Y4.5717  
G01 X-46.1041 Y2.8806  
G01 X-46.1257 Y2.7998  
G01 X-46.1675 Y2.7274  
G01 X-46.2266 Y2.6683  
G01 X-46.2990 Y2.6265  
G01 X-46.3798 Y2.6049  
G01 X-46.6196 Y2.6049  
G01 X-46.6522 Y2.6012  
G01 X-46.6842 Y2.5939  
G01 X-46.7152 Y2.5831  
G01 X-46.7447 Y2.5689  
G01 X-46.7725 Y2.5514  
G01 X-46.7981 Y2.5309  
G01 X-46.8213 Y2.5078  
G01 X-46.8418 Y2.4821  
G01 X-46.8593 Y2.4543  
G01 X-46.8735 Y2.4248  
G01 X-46.8843 Y2.3938  
G01 X-46.8916 Y2.3618  
G01 X-46.8953 Y2.3292  
G01 X-46.8953 Y1.2804  
G01 X-46.8916 Y1.2478  
G01 X-46.8843 Y1.2158  
G01 X-46.8735 Y1.1848  
G01 X-46.8593 Y1.1554  
G01 X-46.8457 Y1.1338  
G01 X-46.8418 Y1.1275  
G01 X-46.8213 Y1.1018  
G01 X-46.7981 Y1.0787  
G01 X-46.7725 Y1.0582  
G01 X-46.7447 Y1.0407  
G01 X-46.7152 Y1.0265  
G01 X-46.6863 Y1.0164  
G01 X-46.6574 Y1.0087  
G01 X-46.6470 Y1.0026  
G01 X-46.6356 Y0.9987  
G01 X-46.6109 Y0.9818  
G01 X-46.5850 Y0.9669  
G01 X-46.5765 Y0.9584  
G01 X-46.5665 Y0.9516  
G01 X-46.5470 Y0.9289  
G01 X-46.5259 Y0.9077  
G01 X-46.5198 Y0.8973  
G01 X-46.5120 Y0.8882  
G01 X-46.4990 Y0.8613  
G01 X-46.4841 Y0.8353  
G01 X-46.4809 Y0.8237  
G01 X-46.4757 Y0.8129  
G01 X-46.4702 Y0.7835  
G01 X-46.4624 Y0.7546  
G01 X-46.4624 Y0.7426  
G01 X-46.4602 Y0.7308  
G01 X-46.4624 Y0.7009  
G01 X-46.4624 Y0.6710  
G01 X-46.4655 Y0.6594  
G01 X-46.4664 Y0.6474  
G01 X-46.4763 Y0.6192  
G01 X-46.4841 Y0.5902  
G01 X-46.4901 Y0.5798  
G01 X-46.4940 Y0.5685  
G01 X-46.5109 Y0.5438  
G01 X-46.5259 Y0.5178  
G01 X-46.5343 Y0.5094  
G01 X-46.5411 Y0.4994  
G01 X-46.5638 Y0.4799  
G01 X-46.5850 Y0.4587  
G01 X-46.5954 Y0.4527  
G01 X-46.6045 Y0.4449  
G01 X-46.6314 Y0.4319  
G01 X-46.6574 Y0.4169  
G01 X-46.6690 Y0.4138  
G01 X-46.6798 Y0.4086  
G01 X-46.7092 Y0.4030  
G01 X-46.7381 Y0.3953  
G01 X-46.7501 Y0.3953  
G01 X-46.7619 Y0.3931  
G01 X-46.7918 Y0.3953  
G01 X-48.8886 Y0.3953  
G01 X-48.9304 Y0.3952  
G01 X-48.9711 Y0.4060  
G01 X-49.0112 Y0.4166  
G01 X-49.0478 Y0.4376  
G01 X-49.0837 Y0.4582  
G01 X-49.1134 Y0.4877  
G01 X-49.1430 Y0.5171  
G01 X-49.1641 Y0.5534  
G01 X-49.1850 Y0.5894  
G01 X-49.1961 Y0.6301  
G01 X-49.2069 Y0.6701  
G01 X-49.2070 Y0.7119  
G01 X-49.2077 Y0.9578  
G01 X-49.2078 Y0.9988  
G01 X-49.2258 Y7.3195  
G01 X-49.2307 Y9.0445  
G01 X-49.2308 Y9.0858  
G01 X-49.2309 Y9.1276  
G01 X-49.2645 Y20.9578 
G01 X-49.2646 Y20.9991 
G01 X-49.2648 Y21.0409 
G01 X-49.2540 Y21.0816 
G01 X-49.2433 Y21.1217 
G01 X-49.2224 Y21.1582 
G01 X-49.2018 Y21.1942 
G01 X-49.1723 Y21.2239 
G01 X-49.1428 Y21.2535 
G01 X-49.1066 Y21.2746 
G01 X-49.0705 Y21.2955 
G01 X-49.0623 Y21.2978 
G01 X-49.0980 Y33.8578 
G01 X-49.0981 Y33.8991 
G01 X-49.0982 Y33.9409 
G01 X-49.0874 Y33.9816 
G01 X-49.0768 Y34.0217 
G01 X-49.0558 Y34.0582 
G01 X-49.0352 Y34.0942 
G01 X-49.0057 Y34.1239 
G01 X-48.9763 Y34.1535 
G01 X-48.9400 Y34.1746 
G01 X-48.9040 Y34.1955 
G01 X-48.8633 Y34.2065 
G01 X-48.8233 Y34.2174 
G01 X-48.7972 Y34.2175 
G01 X-48.7959 Y34.2225 
G01 X-48.7541 Y34.2949 
G01 X-48.6949 Y34.3541 
G01 X-48.6226 Y34.3959 
G01 X-48.5418 Y34.4175 
G01 X-47.4710 Y34.4175 
G01 X-47.3902 Y34.3959 
G01 X-47.3178 Y34.3541 
G01 X-47.2587 Y34.2949 
G01 X-47.2169 Y34.2225 
G01 X-47.1953 Y34.1418 
G01 X-47.1953 Y33.2804 
G01 X-47.1916 Y33.2478 
G01 X-47.1843 Y33.2158 
G01 X-47.1735 Y33.1848 
G01 X-47.1593 Y33.1553 
G01 X-47.1418 Y33.1275 
G01 X-47.1213 Y33.1018 
G01 X-47.0981 Y33.0787 
G01 X-47.0725 Y33.0582 
G01 X-47.0447 Y33.0407 
G01 X-47.0152 Y33.0265 
G01 X-46.9842 Y33.0157 
G01 X-46.9522 Y33.0084 
G01 X-46.9196 Y33.0047 
G01 X-46.6607 Y33.0047 
G01 X-46.6399 Y33.0074 
G01 X-46.6191 Y33.0047 
G01 X-46.5981 Y33.0047 
G01 X-46.5778 Y32.9993 
G01 X-46.5570 Y32.9965 
G01 X-46.5376 Y32.9885 
G01 X-46.5174 Y32.9831 
G01 X-46.4992 Y32.9726 
G01 X-46.4798 Y32.9645 
G01 X-46.4631 Y32.9517 
G01 X-46.4450 Y32.9413 
G01 X-46.4301 Y32.9264 
G01 X-46.4135 Y32.9136 
G01 X-46.4007 Y32.8970 
G01 X-46.3858 Y32.8821 
G01 X-46.3754 Y32.8640 
G01 X-46.3626 Y32.8473 
G01 X-46.3545 Y32.8279 
G01 X-46.3440 Y32.8098 
G01 X-46.3386 Y32.7895 
G01 X-46.3306 Y32.7701 
G01 X-46.3278 Y32.7493 
G01 X-46.3224 Y32.7290 
G01 X-46.3224 Y32.7080 
G01 X-46.3197 Y32.6872 
G01 X-46.3224 Y32.6664 
G01 X-46.3224 Y32.6454 
G01 X-46.3278 Y32.6251 
G01 X-46.3306 Y32.6043 
G01 X-46.3386 Y32.5849 
G01 X-46.3440 Y32.5646 
G01 X-46.3441 Y30.6283 
G01 X-46.1836 Y30.2409 
G01 X-46.0899 Y30.1472 
G01 X-46.0636 Y30.1228 
G01 X-46.0604 Y30.1177 
G01 X-46.0562 Y30.1135 
G01 X-46.0383 Y30.0824 
G01 X-46.0192 Y30.0520 
G01 X-46.0174 Y30.0463 
G01 X-46.0144 Y30.0411 
G01 X-46.0051 Y30.0064 
G01 X-45.9945 Y29.9721 
G01 X-45.9943 Y29.9661 
G01 X-45.9928 Y29.9603 
G01 X-45.9928 Y29.9245 
G01 X-45.9914 Y29.8886 
G01 X-45.9928 Y29.8827 
G01 X-45.9928 Y29.8767 
G01 X-46.0020 Y29.8421 
G01 X-46.0100 Y29.8071 
G01 X-46.0128 Y29.8018 
G01 X-46.0144 Y29.7960 
G01 X-46.0323 Y29.7649 
G01 X-46.0491 Y29.7332 
G01 X-46.0532 Y29.7288 
G01 X-46.0562 Y29.7236 
G01 X-46.0815 Y29.6982 
G01 X-46.1059 Y29.6719 
G01 X-46.1110 Y29.6687 
G01 X-46.1153 Y29.6645 
G01 X-46.1464 Y29.6465 
G01 X-46.1539 Y29.6418 
G01 X-46.1795 Y29.6213 
G01 X-46.2027 Y29.5981 
G01 X-46.2232 Y29.5725 
G01 X-46.2406 Y29.5447 
G01 X-46.2549 Y29.5152 
G01 X-46.2657 Y29.4842 
G01 X-46.2730 Y29.4522 
G01 X-46.2767 Y29.4196 
G01 X-46.2767 Y28.3708 
G01 X-46.2730 Y28.3382 
G01 X-46.2657 Y28.3062 
G01 X-46.2549 Y28.2752 
G01 X-46.2406 Y28.2457 
G01 X-46.2232 Y28.2179 
G01 X-46.2027 Y28.1922 
G01 X-46.1795 Y28.1691 
G01 X-46.1539 Y28.1486 
G01 X-46.1261 Y28.1311 
G01 X-46.0966 Y28.1169 
G01 X-46.0656 Y28.1061 
G01 X-46.0336 Y28.0988 
G01 X-46.0010 Y28.0951 
G01 X-43.0804 Y28.0951 
G01 X-43.0478 Y28.0988 
G01 X-43.0158 Y28.1061 
G01 X-42.9848 Y28.1169 
G01 X-42.9553 Y28.1311 
G01 X-42.9275 Y28.1486 
G01 X-42.9018 Y28.1691 
G01 X-42.8787 Y28.1922 
G01 X-42.8582 Y28.2179 
G01 X-42.8407 Y28.2457 
G01 X-42.8265 Y28.2752 
G01 X-42.8157 Y28.3062 
G01 X-42.8084 Y28.3382 
G01 X-42.8047 Y28.3708 
G01 X-42.8047 Y29.4124 
G01 X-42.8080 Y29.4246 
G01 X-42.8080 Y29.4486 
G01 X-42.8106 Y29.4724 
G01 X-42.8080 Y29.4902 
G01 X-42.8080 Y29.5082 
G01 X-42.8018 Y29.5313 
G01 X-42.7982 Y29.5550 
G01 X-42.7910 Y29.5716 
G01 X-42.7863 Y29.5890 
G01 X-42.7744 Y29.6097 
G01 X-42.7648 Y29.6317 
G01 X-42.7535 Y29.6458 
G01 X-42.7445 Y29.6613 
G01 X-42.7276 Y29.6783 
G01 X-42.7127 Y29.6970 
G01 X-42.6981 Y29.7077 
G01 X-42.6854 Y29.7205 
G01 X-42.6647 Y29.7324 
G01 X-42.6454 Y29.7467 
G01 X-42.6286 Y29.7533 
G01 X-42.6130 Y29.7623 
G01 X-42.5899 Y29.7685 
G01 X-42.5676 Y29.7772 
G01 X-42.5523 Y29.7789 
G01 X-42.1529 Y29.9444 
G01 X-41.8564 Y30.2409 
G01 X-41.7893 Y30.4028 
G01 X-41.7573 Y30.4800 
G01 X-41.7356 Y30.5083 
G01 X-41.7064 Y30.5463 
G01 X-41.6401 Y30.5972 
G01 X-41.5629 Y30.6292 
G01 X-41.4800 Y30.6401 
G01 X-41.3971 Y30.6292 
G01 X-41.3199 Y30.5972 
G01 X-41.2916 Y30.5755 
G01 X-41.2536 Y30.5463 
G01 X-41.2027 Y30.4800 
G01 X-41.1707 Y30.4028 
G01 X-41.1036 Y30.2409 
G01 X-40.8071 Y29.9444 
G01 X-40.4197 Y29.7839 
G01 X-40.0003 Y29.7839 
G01 X-39.6129 Y29.9444 
G01 X-39.3164 Y30.2409 
G01 X-39.2493 Y30.4028 
G01 X-39.2173 Y30.4800 
G01 X-39.1956 Y30.5083 
G01 X-39.1664 Y30.5463 
G01 X-39.1001 Y30.5972 
G01 X-39.0229 Y30.6292 
G01 X-38.9400 Y30.6401 
G01 X-38.8571 Y30.6292 
G01 X-38.7799 Y30.5972 
G01 X-38.7516 Y30.5755 
G01 X-38.7136 Y30.5463 
G01 X-38.6627 Y30.4800 
G01 X-38.6307 Y30.4028 
G01 X-38.5636 Y30.2409 
G01 X-38.2671 Y29.9444 
G01 X-37.8797 Y29.7839 
G01 X-37.4603 Y29.7839 
G01 X-37.0729 Y29.9444 
G01 X-36.7764 Y30.2409 
G01 X-36.7093 Y30.4028 
G01 X-36.6773 Y30.4800 
G01 X-36.6264 Y30.5463 
G01 X-36.5894 Y30.5747 
G01 X-36.5601 Y30.5972 
G01 X-36.4829 Y30.6292 
G01 X-36.4000 Y30.6401 
G01 X-36.3171 Y30.6292 
G01 X-36.2399 Y30.5972 
G01 X-36.1735 Y30.5463 
G01 X-36.1452 Y30.5093 
G01 X-36.1227 Y30.4800 
G01 X-36.0907 Y30.4028 
G01 X-36.0236 Y30.2409 
G01 X-35.7271 Y29.9444 
G01 X-35.3397 Y29.7839 
G01 X-34.9203 Y29.7839 
G01 X-34.5329 Y29.9444 
G01 X-34.2364 Y30.2409 
G01 X-34.1693 Y30.4028 
G01 X-34.1536 Y30.4407 
G01 X-34.1373 Y30.4800 
G01 X-34.0864 Y30.5463 
G01 X-34.0201 Y30.5972 
G01 X-33.9888 Y30.6102 
G01 X-33.9429 Y30.6292 
G01 X-33.8600 Y30.6401 
G01 X-33.7771 Y30.6292 
G01 X-33.7325 Y30.6107 
G01 X-33.6999 Y30.5972 
G01 X-33.6336 Y30.5463 
G01 X-33.5827 Y30.4800 
G01 X-33.5632 Y30.4331 
G01 X-33.5507 Y30.4028 
G01 X-33.4836 Y30.2409 
G01 X-33.1871 Y29.9444 
G01 X-32.7997 Y29.7839 
G01 X-32.3803 Y29.7839 
G01 X-31.9929 Y29.9444 
G01 X-31.6964 Y30.2409 
G01 X-31.6293 Y30.4028 
G01 X-31.6136 Y30.4407 
G01 X-31.5973 Y30.4800 
G01 X-31.5464 Y30.5463 
G01 X-31.4801 Y30.5972 
G01 X-31.4488 Y30.6102 
G01 X-31.4029 Y30.6292 
G01 X-31.3200 Y30.6401 
G01 X-31.2371 Y30.6292 
G01 X-31.1925 Y30.6107 
G01 X-31.1599 Y30.5972 
G01 X-31.0936 Y30.5463 
G01 X-31.0427 Y30.4800 
G01 X-31.0232 Y30.4331 
G01 X-31.0107 Y30.4028 
G01 X-30.9436 Y30.2409 
G01 X-30.6471 Y29.9444 
G01 X-30.2597 Y29.7839 
G01 X-29.8403 Y29.7839 
G01 X-29.4529 Y29.9444 
G01 X-29.1564 Y30.2409 
G01 X-29.0893 Y30.4028 
G01 X-29.0736 Y30.4407 
G01 X-29.0573 Y30.4800 
G01 X-29.0064 Y30.5463 
G01 X-28.9401 Y30.5972 
G01 X-28.9088 Y30.6102 
G01 X-28.8629 Y30.6292 
G01 X-28.7800 Y30.6401 
G01 X-28.6971 Y30.6292 
G01 X-28.6525 Y30.6107 
G01 X-28.6199 Y30.5972 
G01 X-28.5536 Y30.5463 
G01 X-28.5027 Y30.4800 
G01 X-28.4832 Y30.4331 
G01 X-28.4707 Y30.4028 
G01 X-28.4036 Y30.2409 
G01 X-28.1071 Y29.9444 
G01 X-27.7197 Y29.7839 
G01 X-27.3003 Y29.7839 
G01 X-26.9129 Y29.9444 
G01 X-26.6164 Y30.2409 
G01 X-26.4373 Y30.6732 
G01 X-26.4248 Y30.6895 
G01 X-26.3864 Y30.7395 
G01 X-26.3201 Y30.7904 
G01 X-26.2758 Y30.8087 
G01 X-26.2429 Y30.8224 
G01 X-26.1600 Y30.8333 
G01 X-26.0771 Y30.8224 
G01 X-26.0460 Y30.8095 
G01 X-25.9999 Y30.7904 
G01 X-25.9835 Y30.7778 
G01 X-25.9336 Y30.7395 
G01 X-25.8827 Y30.6731 
G01 X-25.8634 Y30.6266 
G01 X-25.8507 Y30.5959 
G01 X-25.7036 Y30.2409 
G01 X-25.6855 Y30.2228 
G01 X-25.6710 Y30.2121 
G01 X-25.6561 Y30.1934 
G01 X-25.6392 Y30.1764 
G01 X-25.6301 Y30.1608 
G01 X-25.6189 Y30.1467 
G01 X-25.6093 Y30.1248 
G01 X-25.5974 Y30.1040 
G01 X-25.5927 Y30.0866 
G01 X-25.5855 Y30.0701 
G01 X-25.5819 Y30.0464 
G01 X-25.5757 Y30.0233 
G01 X-25.5757 Y30.0053 
G01 X-25.5730 Y29.9875 
G01 X-25.5757 Y29.9636 
G01 X-25.5757 Y29.9397 
G01 X-25.5804 Y29.9223 
G01 X-25.5824 Y29.9044 
G01 X-25.5911 Y29.8821 
G01 X-25.5973 Y29.8589 
G01 X-25.6064 Y29.8433 
G01 X-25.6129 Y29.8266 
G01 X-25.6272 Y29.8073 
G01 X-25.6391 Y29.7865 
G01 X-25.6519 Y29.7738 
G01 X-25.6626 Y29.7593 
G01 X-25.6813 Y29.7444 
G01 X-25.6983 Y29.7274 
G01 X-25.7063 Y29.7228 
G01 X-25.7213 Y29.7078 
G01 X-25.7418 Y29.6821 
G01 X-25.7593 Y29.6543 
G01 X-25.7735 Y29.6248 
G01 X-25.7843 Y29.5938 
G01 X-25.7916 Y29.5618 
G01 X-25.7953 Y29.5292 
G01 X-25.7953 Y28.4804 
G01 X-25.7916 Y28.4478 
G01 X-25.7843 Y28.4158 
G01 X-25.7735 Y28.3848 
G01 X-25.7593 Y28.3553 
G01 X-25.7418 Y28.3275 
G01 X-25.7213 Y28.3018 
G01 X-25.6981 Y28.2787 
G01 X-25.6725 Y28.2582 
G01 X-25.6447 Y28.2407 
G01 X-25.6152 Y28.2265 
G01 X-25.5842 Y28.2157 
G01 X-25.5522 Y28.2084 
G01 X-25.5196 Y28.2047 
G01 X-22.5990 Y28.2047 
G01 X-22.5664 Y28.2084 
G01 X-22.5344 Y28.2157 
G01 X-22.5034 Y28.2265 
G01 X-22.4739 Y28.2407 
G01 X-22.4461 Y28.2582 
G01 X-22.4205 Y28.2787 
G01 X-22.3973 Y28.3018 
G01 X-22.3768 Y28.3275 
G01 X-22.3593 Y28.3553 
G01 X-22.3451 Y28.3848 
G01 X-22.3343 Y28.4158 
G01 X-22.3270 Y28.4478 
G01 X-22.3233 Y28.4804 
G01 X-22.3233 Y29.5082 
G01 X-22.3017 Y29.5890 
G01 X-22.2599 Y29.6613 
G01 X-22.2008 Y29.7205 
G01 X-22.1284 Y29.7623 
G01 X-22.0836 Y29.7742 
G01 X-21.6729 Y29.9444 
G01 X-21.3764 Y30.2409 
G01 X-21.3093 Y30.4028 
G01 X-21.2936 Y30.4407 
G01 X-21.2773 Y30.4800 
G01 X-21.2264 Y30.5463 
G01 X-21.1601 Y30.5972 
G01 X-21.1288 Y30.6102 
G01 X-21.0829 Y30.6292 
G01 X-21.0000 Y30.6401 
G01 X-20.9171 Y30.6292 
G01 X-20.8725 Y30.6107 
G01 X-20.8399 Y30.5972 
G01 X-20.7736 Y30.5463 
G01 X-20.7227 Y30.4800 
G01 X-20.7032 Y30.4331 
G01 X-20.6907 Y30.4028 
G01 X-20.6236 Y30.2409 
G01 X-20.3271 Y29.9444 
G01 X-19.9397 Y29.7839 
G01 X-19.5203 Y29.7839 
G01 X-19.1329 Y29.9444 
G01 X-18.8364 Y30.2409 
G01 X-18.7693 Y30.4028 
G01 X-18.7536 Y30.4407 
G01 X-18.7373 Y30.4800 
G01 X-18.6864 Y30.5463 
G01 X-18.6201 Y30.5972 
G01 X-18.5888 Y30.6102 
G01 X-18.5429 Y30.6292 
G01 X-18.4600 Y30.6401 
G01 X-18.3771 Y30.6292 
G01 X-18.3325 Y30.6107 
G01 X-18.2999 Y30.5972 
G01 X-18.2336 Y30.5463 
G01 X-18.1827 Y30.4800 
G01 X-18.1632 Y30.4331 
G01 X-18.1507 Y30.4028 
G01 X-18.0836 Y30.2409 
G01 X-17.7871 Y29.9444 
G01 X-17.3997 Y29.7839 
G01 X-16.9803 Y29.7839 
G01 X-16.5929 Y29.9444 
G01 X-16.2964 Y30.2409 
G01 X-16.1359 Y30.6283 
G01 X-16.1359 Y32.5717 
G01 X-16.2964 Y32.9591 
G01 X-16.5929 Y33.2556 
G01 X-16.9803 Y33.4161 
G01 X-17.2381 Y33.4161 
G01 X-17.3188 Y33.4377 
G01 X-17.3912 Y33.4795 
G01 X-17.4503 Y33.5386 
G01 X-17.4921 Y33.6110 
G01 X-17.5138 Y33.6918 
G01 X-17.5138 Y34.1418 
G01 X-17.4921 Y34.2225 
G01 X-17.4503 Y34.2949 
G01 X-17.3912 Y34.3541 
G01 X-17.3188 Y34.3959 
G01 X-17.2381 Y34.4175 
G01 X-14.9582 Y34.4175 
G01 X-14.8774 Y34.3959 
G01 X-14.8051 Y34.3541 
G01 X-14.7685 Y34.3175 
G01 X-0.9582 Y34.3175 
G01 X-0.8774 Y34.2959 
G01 X-0.8051 Y34.2541 
G01 X-0.7459 Y34.1949 
G01 X-0.7041 Y34.1226 
G01 X-0.6825 Y34.0418 
G01 X-0.6825 Y31.7017 
G01 X-0.7041 Y31.6210 
G01 X-0.7459 Y31.5486 
G01 X-0.8051 Y31.4895 
G01 X-0.8775 Y31.4477 
G01 X-0.9356 Y31.4321 
G01 X-0.9582 Y31.4260 
G01 X-1.0418 Y31.4260 
G01 X-1.1226 Y31.4477 
G01 X-1.1949 Y31.4895 
G01 X-1.3697 Y31.6642 
G01 X-1.7571 Y31.8247 
G01 X-3.7005 Y31.8247 
G01 X-4.0879 Y31.6642 
G01 X-4.3844 Y31.3677 
G01 X-4.5449 Y30.9803 
G01 X-4.5449 Y30.5609 
G01 X-4.3844 Y30.1735 
G01 X-4.0879 Y29.8770 
G01 X-3.7005 Y29.7165 
G01 X-1.7571 Y29.7165 
G01 X-1.3697 Y29.8770 
G01 X-1.1949 Y30.0517 
G01 X-1.1226 Y30.0935 
G01 X-1.0418 Y30.1152 
G01 X-0.9582 Y30.1152 
G01 X-0.9375 Y30.1096 
G01 X-0.8775 Y30.0935 
G01 X-0.8051 Y30.0517 
G01 X-0.7459 Y29.9926 
G01 X-0.7041 Y29.9202 
G01 X-0.6825 Y29.8395 
G01 X-0.6825 Y27.1805 
G01 X-0.7041 Y27.0998 
G01 X-0.7459 Y27.0274 
G01 X-0.8051 Y26.9683 
G01 X-0.8775 Y26.9265 
G01 X-0.9356 Y26.9109 
G01 X-0.9582 Y26.9048 
G01 X-1.0418 Y26.9048 
G01 X-1.1226 Y26.9265 
G01 X-1.1949 Y26.9683 
G01 X-1.3697 Y27.1430 
G01 X-1.7571 Y27.3035 
G01 X-3.7005 Y27.3035 
G01 X-4.0879 Y27.1430 
G01 X-4.3844 Y26.8465 
G01 X-4.5449 Y26.4591 
G01 X-4.5449 Y26.0397 
G01 X-4.3844 Y25.6523 
G01 X-4.0879 Y25.3558 
G01 X-3.7005 Y25.1953 
G01 X-1.7571 Y25.1953 
G01 X-1.3697 Y25.3558 
G01 X-1.1949 Y25.5305 
G01 X-1.1226 Y25.5723 
G01 X-1.0418 Y25.5940 
G01 X-0.9582 Y25.5940 
G01 X-0.9375 Y25.5884 
G01 X-0.8775 Y25.5723 
G01 X-0.8051 Y25.5305 
G01 X-0.7459 Y25.4714 
G01 X-0.7041 Y25.3990 
G01 X-0.6825 Y25.3183 
G01 X-0.6825 Y0.6710  
G01 X-0.7041 Y0.5902  
G01 X-0.7459 Y0.5178  
G01 X-0.8051 Y0.4587  
G01 X-0.8774 Y0.4169  
G01 X-0.9582 Y0.3953  
G01 X-20.0173 Y0.3953  
G01 X-20.0471 Y0.3931  
G01 X-20.0589 Y0.3953  
G01 X-20.0710 Y0.3953  
G01 X-20.0999 Y0.4030  
G01 X-20.1293 Y0.4086  
G01 X-20.1401 Y0.4138  
G01 X-20.1517 Y0.4169  
G01 X-20.1776 Y0.4319  
G01 X-20.2046 Y0.4449  
G01 X-20.2137 Y0.4527  
G01 X-20.2241 Y0.4587  
G01 X-20.2453 Y0.4799  
G01 X-20.2680 Y0.4994  
G01 X-20.2747 Y0.5094  
G01 X-20.2832 Y0.5178  
G01 X-20.2982 Y0.5438  
G01 X-20.3150 Y0.5685  
G01 X-20.3190 Y0.5798  
G01 X-20.3250 Y0.5902  
G01 X-20.3328 Y0.6192  
G01 X-20.3426 Y0.6474  
G01 X-20.3435 Y0.6594  
G01 X-20.3467 Y0.6710  
G01 X-20.3467 Y0.7009  
G01 X-20.3489 Y0.7308  
G01 X-20.3467 Y0.7426  
G01 X-20.3467 Y0.7546  
G01 X-20.3389 Y0.7835  
G01 X-20.3333 Y0.8129  
G01 X-20.3281 Y0.8237  
G01 X-20.3250 Y0.8353  
G01 X-20.3101 Y0.8613  
G01 X-20.2971 Y0.8882  
G01 X-20.2892 Y0.8973  
G01 X-20.2832 Y0.9077  
G01 X-20.2621 Y0.9289  
G01 X-20.2425 Y0.9516  
G01 X-20.2326 Y0.9584  
G01 X-20.2241 Y0.9669  
G01 X-20.1982 Y0.9818  
G01 X-20.1735 Y0.9987  
G01 X-20.1621 Y1.0026  
G01 X-20.1517 Y1.0087  
G01 X-20.1228 Y1.0164  
G01 X-20.0939 Y1.0265  
G01 X-20.0644 Y1.0407  
G01 X-20.0366 Y1.0582  
G01 X-20.0109 Y1.0787  
G01 X-19.9877 Y1.1018  
G01 X-19.9673 Y1.1275  
G01 X-19.9634 Y1.1336  
G01 X-19.9498 Y1.1554  
G01 X-19.9356 Y1.1848  
G01 X-19.9247 Y1.2158  
G01 X-19.9174 Y1.2478  
G01 X-19.9138 Y1.2804  
G01 X-19.9138 Y2.3292  
G01 X-19.9174 Y2.3618  
G01 X-19.9247 Y2.3938  
G01 X-19.9356 Y2.4248  
G01 X-19.9498 Y2.4543  
G01 X-19.9673 Y2.4821  
G01 X-19.9877 Y2.5078  
G01 X-20.0109 Y2.5309  
G01 X-20.0366 Y2.5514  
G01 X-20.0644 Y2.5689  
G01 X-20.0939 Y2.5831  
G01 X-20.1249 Y2.5939  
G01 X-20.1569 Y2.6012  
G01 X-20.1895 Y2.6049  
G01 X-20.8602 Y2.6049  
G01 X-20.9410 Y2.6265  
G01 X-21.0133 Y2.6683  
G01 X-21.0725 Y2.7274  
G01 X-21.1143 Y2.7998  
G01 X-21.1359 Y2.8806  
G01 X-21.1359 Y4.5717  
G01 X-21.2964 Y4.9591  
G01 X-21.4295 Y5.0922  
G01 X-21.4713 Y5.1646  
G01 X-21.4930 Y5.2454  
G01 X-21.4930 Y5.3290  
G01 X-21.4874 Y5.3497  
G01 X-21.4713 Y5.4097  
G01 X-21.4295 Y5.4821  
G01 X-21.3704 Y5.5413  
G01 X-21.2980 Y5.5831  
G01 X-21.2173 Y5.6047  
G01 X-20.0081 Y5.6047  
G01 X-19.9755 Y5.6084  
G01 X-19.9435 Y5.6157  
G01 X-19.9125 Y5.6265  
G01 X-19.8830 Y5.6407  
G01 X-19.8552 Y5.6582  
G01 X-19.8295 Y5.6787  
G01 X-19.8063 Y5.7018  
G01 X-19.7859 Y5.7275  
G01 X-19.7684 Y5.7553  
G01 X-19.7542 Y5.7848  
G01 X-19.7434 Y5.8158  
G01 X-19.7361 Y5.8478  
G01 X-19.7324 Y5.8804  
G01 X-19.7324 Y6.9292  
G01 X-19.7361 Y6.9618  
G01 X-19.7434 Y6.9938  
G01 X-19.7542 Y7.0248  
G01 X-19.7684 Y7.0543  
G01 X-19.7859 Y7.0821  
G01 X-19.8063 Y7.1078  
G01 X-19.8295 Y7.1309  
G01 X-19.8552 Y7.1514  
G01 X-19.8830 Y7.1689  
G01 X-19.9125 Y7.1831  
G01 X-19.9435 Y7.1939  
G01 X-19.9755 Y7.2012  
G01 X-20.0081 Y7.2049  
G01 X-23.4196 Y7.2049  
G01 X-23.4522 Y7.2012  
G01 X-23.4842 Y7.1939  
G01 X-23.5152 Y7.1831  
G01 X-23.5447 Y7.1689  
G01 X-23.5725 Y7.1514  
G01 X-23.5981 Y7.1309  
G01 X-23.6213 Y7.1077  
G01 X-23.6418 Y7.0821  
G01 X-23.6593 Y7.0543  
G01 X-23.6735 Y7.0248  
G01 X-23.6843 Y6.9938  
G01 X-23.6916 Y6.9618  
G01 X-23.6953 Y6.9292  
G01 X-23.6953 Y5.8804  
G01 X-23.6916 Y5.8478  
G01 X-23.6843 Y5.8158  
G01 X-23.6735 Y5.7848  
G01 X-23.6593 Y5.7553  
G01 X-23.6418 Y5.7275  
G01 X-23.6213 Y5.7018  
G01 X-23.5981 Y5.6787  
G01 X-23.5725 Y5.6582  
G01 X-23.5447 Y5.6407  
G01 X-23.5152 Y5.6265  
G01 X-23.4842 Y5.6157  
G01 X-23.4522 Y5.6084  
G01 X-23.4196 Y5.6047  
G01 X-23.1627 Y5.6047  
G01 X-23.0820 Y5.5831  
G01 X-23.0096 Y5.5413  
G01 X-22.9514 Y5.4831  
G01 X-22.9087 Y5.4097  
G01 X-22.8931 Y5.3516  
G01 X-22.8870 Y5.3290  
G01 X-22.8870 Y5.2454  
G01 X-22.9087 Y5.1646  
G01 X-22.9505 Y5.0922  
G01 X-23.0836 Y4.9591  
G01 X-23.1507 Y4.7972  
G01 X-23.1827 Y4.7200  
G01 X-23.2044 Y4.6917  
G01 X-23.2336 Y4.6537  
G01 X-23.2999 Y4.6028  
G01 X-23.3771 Y4.5708  
G01 X-23.4600 Y4.5599  
G01 X-23.5429 Y4.5708  
G01 X-23.6201 Y4.6028  
G01 X-23.6484 Y4.6245  
G01 X-23.6864 Y4.6537  
G01 X-23.7373 Y4.7200  
G01 X-23.7693 Y4.7972  
G01 X-23.8364 Y4.9591  
G01 X-24.1329 Y5.2556  
G01 X-24.5203 Y5.4161  
G01 X-24.9397 Y5.4161  
G01 X-25.3271 Y5.2556  
G01 X-25.6236 Y4.9591  
G01 X-25.6907 Y4.7972  
G01 X-25.7227 Y4.7200  
G01 X-25.7444 Y4.6917  
G01 X-25.7736 Y4.6537  
G01 X-25.8399 Y4.6028  
G01 X-25.9171 Y4.5708  
G01 X-26.0000 Y4.5599  
G01 X-26.0829 Y4.5708  
G01 X-26.1601 Y4.6028  
G01 X-26.1884 Y4.6245  
G01 X-26.2264 Y4.6537  
G01 X-26.2773 Y4.7200  
G01 X-26.3093 Y4.7972  
G01 X-26.3764 Y4.9591  
G01 X-26.6729 Y5.2556  
G01 X-27.0603 Y5.4161  
G01 X-27.4797 Y5.4161  
G01 X-27.8671 Y5.2556  
G01 X-28.1636 Y4.9591  
G01 X-28.2307 Y4.7972  
G01 X-28.2627 Y4.7200  
G01 X-28.2844 Y4.6917  
G01 X-28.3136 Y4.6537  
G01 X-28.3799 Y4.6028  
G01 X-28.4571 Y4.5708  
G01 X-28.5400 Y4.5599  
G01 X-28.6229 Y4.5708  
G01 X-28.7001 Y4.6028  
G01 X-28.7284 Y4.6245  
G01 X-28.7664 Y4.6537  
G01 X-28.8173 Y4.7200  
G01 X-28.8493 Y4.7972  
G01 X-28.9164 Y4.9591  
G01 X-29.2129 Y5.2556  
G01 X-29.6003 Y5.4161  
G01 X-30.0197 Y5.4161  
G01 X-30.4071 Y5.2556  
G01 X-30.4448 Y5.2179  
G01 X-30.4598 Y5.1991  
G01 X-30.4743 Y5.1885  
G01 X-30.4870 Y5.1757  
G01 X-30.5077 Y5.1638  
G01 X-30.5240 Y5.1518  
G01 X-30.5359 Y5.1356  
G01 X-30.5479 Y5.1148  
G01 X-30.5606 Y5.1021  
G01 X-30.5713 Y5.0876  
G01 X-30.5901 Y5.0727  
G01 X-30.7036 Y4.9591  
G01 X-30.7707 Y4.7972  
G01 X-30.8027 Y4.7200  
G01 X-30.8536 Y4.6537  
G01 X-30.8906 Y4.6253  
G01 X-30.9199 Y4.6028  
G01 X-30.9971 Y4.5708  
G01 X-31.0800 Y4.5599  
G01 X-31.1629 Y4.5708  
G01 X-31.2401 Y4.6028  
G01 X-31.3064 Y4.6537  
G01 X-31.3348 Y4.6907  
G01 X-31.3573 Y4.7200  
G01 X-31.3893 Y4.7972  
G01 X-31.4564 Y4.9591  
G01 X-31.4895 Y4.9922  
G01 X-31.5002 Y5.0107  
G01 X-31.5313 Y5.0646  
G01 X-31.5353 Y5.0796  
G01 X-31.5530 Y5.1454  
G01 X-31.5530 Y5.2290  
G01 X-31.5349 Y5.2965  
G01 X-31.5313 Y5.3097  
G01 X-31.5123 Y5.3428  
G01 X-31.4895 Y5.3821  
G01 X-31.4304 Y5.4413  
G01 X-31.4120 Y5.4519  
G01 X-31.3580 Y5.4831  
G01 X-31.3431 Y5.4871  
G01 X-31.2773 Y5.5047  
G01 X-31.1526 Y5.5047  
G01 X-31.1200 Y5.5084  
G01 X-31.0880 Y5.5157  
G01 X-31.0570 Y5.5265  
G01 X-31.0274 Y5.5407  
G01 X-31.0074 Y5.5533  
G01 X-30.9969 Y5.5638  
G01 X-30.9813 Y5.5728  
G01 X-30.9673 Y5.5840  
G01 X-30.9596 Y5.5874  
G01 X-30.9562 Y5.5951  
G01 X-30.9450 Y5.6092  
G01 X-30.9360 Y5.6247  
G01 X-30.9255 Y5.6352  
G01 X-30.9129 Y5.6553  
G01 X-30.8987 Y5.6848  
G01 X-30.8878 Y5.7158  
G01 X-30.8805 Y5.7478  
G01 X-30.8769 Y5.7804  
G01 X-30.8769 Y6.8292  
G01 X-30.8805 Y6.8618  
G01 X-30.8878 Y6.8938  
G01 X-30.8987 Y6.9248  
G01 X-30.9129 Y6.9543  
G01 X-30.9304 Y6.9821  
G01 X-30.9508 Y7.0078  
G01 X-30.9740 Y7.0309  
G01 X-30.9997 Y7.0514  
G01 X-31.0275 Y7.0689  
G01 X-31.0570 Y7.0831  
G01 X-31.0880 Y7.0939  
G01 X-31.1200 Y7.1012  
G01 X-31.1526 Y7.1049  
G01 X-34.0196 Y7.1049  
G01 X-34.0522 Y7.1012  
G01 X-34.0842 Y7.0939  
G01 X-34.1152 Y7.0831  
G01 X-34.1447 Y7.0689  
G01 X-34.1725 Y7.0514  
G01 X-34.1981 Y7.0309  
G01 X-34.2213 Y7.0077  
G01 X-34.2418 Y6.9821  
G01 X-34.2593 Y6.9543  
G01 X-34.2735 Y6.9248  
G01 X-34.2843 Y6.8938  
G01 X-34.2916 Y6.8618  
G01 X-34.2953 Y6.8292  
G01 X-34.2953 Y5.7804  
G01 X-34.2940 Y5.7689  
G01 X-34.2889 Y5.7303  
G01 X-34.2893 Y5.7273  
G01 X-34.2890 Y5.7243  
G01 X-34.2948 Y5.6859  
G01 X-34.2998 Y5.6474  
G01 X-34.3010 Y5.6446  
G01 X-34.3014 Y5.6417  
G01 X-34.3170 Y5.6060  
G01 X-34.3318 Y5.5702  
G01 X-34.3348 Y5.5650  
G01 X-34.3591 Y5.5346  
G01 X-34.3827 Y5.5038  
G01 X-34.3870 Y5.4997  
G01 X-34.4183 Y5.4765  
G01 X-34.4490 Y5.4529  
G01 X-34.4518 Y5.4518  
G01 X-34.4904 Y5.4358  
G01 X-34.5263 Y5.4210  
G01 X-34.5293 Y5.4206  
G01 X-34.5320 Y5.4195  
G01 X-34.5706 Y5.4151  
G01 X-34.6092 Y5.4100  
G01 X-34.6121 Y5.4104  
G01 X-34.6151 Y5.4101  
G01 X-34.6535 Y5.4159  
G01 X-35.0997 Y5.4161  
G01 X-35.4871 Y5.2556  
G01 X-35.7836 Y4.9591  
G01 X-35.8507 Y4.7972  
G01 X-35.8664 Y4.7593  
G01 X-35.8827 Y4.7200  
G01 X-35.9336 Y4.6537  
G01 X-35.9999 Y4.6028  
G01 X-36.0312 Y4.5898  
G01 X-36.0771 Y4.5708  
G01 X-36.1600 Y4.5599  
G01 X-36.2429 Y4.5708  
G01 X-36.2875 Y4.5892  
G01 X-36.3201 Y4.6028  
G01 X-36.3864 Y4.6537  
G01 X-36.4373 Y4.7200  
G01 X-36.4568 Y4.7669  
G01 X-36.4693 Y4.7972  
G01 X-36.5364 Y4.9591  
G01 X-36.8329 Y5.2556  
G01 X-37.2203 Y5.4161  
G01 X-37.6397 Y5.4161  
G01 X-38.0271 Y5.2556  
G01 X-38.3236 Y4.9591  
G01 X-38.3907 Y4.7972  
G01 X-38.4064 Y4.7593  
G01 X-38.4227 Y4.7200  
G01 X-38.4736 Y4.6537  
G01 X-38.5399 Y4.6028  
G01 X-38.5712 Y4.5898  
G01 X-38.6171 Y4.5708  
G01 X-38.7000 Y4.5599  
G01 X-38.7829 Y4.5708  
G01 X-38.8275 Y4.5892  
G01 X-38.8601 Y4.6028  
G01 X-38.9264 Y4.6537  
G01 X-38.9773 Y4.7200  
G01 X-38.9968 Y4.7669  
G01 X-39.0093 Y4.7972  
G01 X-39.0764 Y4.9591  
G01 X-39.1413 Y5.0240  
G00 Z0.5000  
G00 X-41.6337 Y4.4483  
G01 Z-0.1778 F254   
G01 X-41.6337 Y2.7517  F508   
G01 X-41.6674 Y2.5824  
G01 X-41.7334 Y2.4229  
G01 X-41.8293 Y2.2794  
G01 X-41.9514 Y2.1573  
G01 X-42.0949 Y2.0614  
G01 X-42.2544 Y1.9954  
G01 X-42.4237 Y1.9617  
G01 X-42.5963 Y1.9617  
G01 X-42.7656 Y1.9954  
G01 X-42.9251 Y2.0614  
G01 X-43.0686 Y2.1573  
G01 X-43.1907 Y2.2794  
G01 X-43.2866 Y2.4229  
G01 X-43.3526 Y2.5824  
G01 X-43.3863 Y2.7517  
G01 X-43.3863 Y4.4483  
G01 X-43.3526 Y4.6176  
G01 X-43.2866 Y4.7771  
G01 X-43.1907 Y4.9206  
G01 X-43.0686 Y5.0427  
G01 X-42.9251 Y5.1386  
G01 X-42.7656 Y5.2046  
G01 X-42.5963 Y5.2383  
G01 X-42.4237 Y5.2383  
G01 X-42.2544 Y5.2046  
G01 X-42.0949 Y5.1386  
G01 X-41.9514 Y5.0427  
G01 X-41.8293 Y4.9206  
G01 X-41.7334 Y4.7771  
G01 X-41.6674 Y4.6176  
G01 X-41.6337 Y4.4483  
G00 Z0.5000  
G00 X-39.0937 Y4.4483  
G01 Z-0.1778 F254   
G01 X-39.0937 Y2.7517  F508   
G01 X-39.1274 Y2.5824  
G01 X-39.1934 Y2.4229  
G01 X-39.2893 Y2.2794  
G01 X-39.4114 Y2.1573  
G01 X-39.5549 Y2.0614  
G01 X-39.7144 Y1.9954  
G01 X-39.8837 Y1.9617  
G01 X-40.0563 Y1.9617  
G01 X-40.2256 Y1.9954  
G01 X-40.3851 Y2.0614  
G01 X-40.5286 Y2.1573  
G01 X-40.6507 Y2.2794  
G01 X-40.7466 Y2.4229  
G01 X-40.8126 Y2.5824  
G01 X-40.8463 Y2.7517  
G01 X-40.8463 Y4.4483  
G01 X-40.8126 Y4.6176  
G01 X-40.7466 Y4.7771  
G01 X-40.6507 Y4.9206  
G01 X-40.5286 Y5.0427  
G01 X-40.3851 Y5.1386  
G01 X-40.2256 Y5.2046  
G01 X-40.0563 Y5.2383  
G01 X-40.0175 Y5.2383  
G01 X-40.0175 Y5.7418  
G01 X-39.9959 Y5.8226  
G01 X-39.9541 Y5.8949  
G01 X-39.8949 Y5.9541  
G01 X-38.4949 Y7.3541  
G01 X-38.4226 Y7.3959  
G01 X-38.3418 Y7.4175  
G01 X-36.4175 Y7.4175  
G01 X-36.4175 Y16.1685 
G01 X-42.6183 Y22.3693 
G01 X-42.6767 Y22.3451 
G01 X-42.8445 Y22.3117 
G01 X-43.0155 Y22.3117 
G01 X-43.1833 Y22.3451 
G01 X-43.3413 Y22.4105 
G01 X-43.4835 Y22.5055 
G01 X-43.6044 Y22.6265 
G01 X-43.6995 Y22.7687 
G01 X-43.7649 Y22.9267 
G01 X-43.7983 Y23.0945 
G01 X-43.7983 Y23.2655 
G01 X-43.7649 Y23.4333 
G01 X-43.6995 Y23.5913 
G01 X-43.6044 Y23.7335 
G01 X-43.4835 Y23.8544 
G01 X-43.3413 Y23.9495 
G01 X-43.1833 Y24.0149 
G01 X-43.0155 Y24.0483 
G01 X-42.8445 Y24.0483 
G01 X-42.6767 Y24.0149 
G01 X-42.5187 Y23.9495 
G01 X-42.3765 Y23.8544 
G01 X-42.2555 Y23.7335 
G01 X-42.1605 Y23.5913 
G01 X-42.0951 Y23.4333 
G01 X-42.0617 Y23.2655 
G01 X-42.0617 Y23.0945 
G01 X-42.0951 Y22.9267 
G01 X-42.1486 Y22.7976 
G01 X-35.8459 Y16.4949 
G01 X-35.8041 Y16.4226 
G01 X-35.7825 Y16.3418 
G01 X-35.7825 Y7.1582  
G01 X-35.8041 Y7.0774  
G01 X-35.8459 Y7.0051  
G01 X-35.9459 Y6.9051  
G01 X-36.0051 Y6.8459  
G01 X-36.0774 Y6.8041  
G01 X-36.1582 Y6.7825  
G01 X-38.1685 Y6.7825  
G01 X-39.3825 Y5.5685  
G01 X-39.3825 Y5.0138  
G01 X-39.2893 Y4.9206  
G01 X-39.1934 Y4.7771  
G01 X-39.1274 Y4.6176  
G01 X-39.0937 Y4.4483  
G00 Z0.5000  
G00 X-36.5537 Y4.4483  
G01 Z-0.1778 F254   
G01 X-36.5537 Y2.7517  F508   
G01 X-36.5874 Y2.5824  
G01 X-36.6534 Y2.4229  
G01 X-36.7493 Y2.2794  
G01 X-36.8714 Y2.1573  
G01 X-37.0149 Y2.0614  
G01 X-37.1744 Y1.9954  
G01 X-37.3437 Y1.9617  
G01 X-37.5163 Y1.9617  
G01 X-37.6856 Y1.9954  
G01 X-37.8451 Y2.0614  
G01 X-37.9886 Y2.1573  
G01 X-38.1107 Y2.2794  
G01 X-38.2066 Y2.4229  
G01 X-38.2726 Y2.5824  
G01 X-38.3063 Y2.7517  
G01 X-38.3063 Y4.4483  
G01 X-38.2726 Y4.6176  
G01 X-38.2066 Y4.7771  
G01 X-38.1107 Y4.9206  
G01 X-37.9886 Y5.0427  
G01 X-37.8451 Y5.1386  
G01 X-37.6856 Y5.2046  
G01 X-37.5163 Y5.2383  
G01 X-37.3437 Y5.2383  
G01 X-37.1744 Y5.2046  
G01 X-37.0149 Y5.1386  
G01 X-36.8714 Y5.0427  
G01 X-36.7493 Y4.9206  
G01 X-36.6534 Y4.7771  
G01 X-36.5874 Y4.6176  
G01 X-36.5537 Y4.4483  
G00 Z0.5000  
G00 X-34.0137 Y4.4483  
G01 Z-0.1778 F254   
G01 X-34.0137 Y2.7517  F508   
G01 X-34.0474 Y2.5824  
G01 X-34.1134 Y2.4229  
G01 X-34.2093 Y2.2794  
G01 X-34.3314 Y2.1573  
G01 X-34.4749 Y2.0614  
G01 X-34.6344 Y1.9954  
G01 X-34.8037 Y1.9617  
G01 X-34.9763 Y1.9617  
G01 X-35.1456 Y1.9954  
G01 X-35.3051 Y2.0614  
G01 X-35.4486 Y2.1573  
G01 X-35.5707 Y2.2794  
G01 X-35.6666 Y2.4229  
G01 X-35.7326 Y2.5824  
G01 X-35.7663 Y2.7517  
G01 X-35.7663 Y4.4483  
G01 X-35.7326 Y4.6176  
G01 X-35.6666 Y4.7771  
G01 X-35.5707 Y4.9206  
G01 X-35.4486 Y5.0427  
G01 X-35.3051 Y5.1386  
G01 X-35.1456 Y5.2046  
G01 X-34.9763 Y5.2383  
G01 X-34.8037 Y5.2383  
G01 X-34.6344 Y5.2046  
G01 X-34.4749 Y5.1386  
G01 X-34.3314 Y5.0427  
G01 X-34.2093 Y4.9206  
G01 X-34.1134 Y4.7771  
G01 X-34.0474 Y4.6176  
G01 X-34.0137 Y4.4483  
G00 Z0.5000  
G00 X-16.2337 Y2.7417  
G01 Z-0.1778 F254   
G01 X-16.2674 Y2.5724  F508   
G01 X-16.3334 Y2.4129  
G01 X-16.4293 Y2.2694  
G01 X-16.5514 Y2.1473  
G01 X-16.6949 Y2.0514  
G01 X-16.8544 Y1.9854  
G01 X-17.0237 Y1.9517  
G01 X-17.1963 Y1.9517  
G01 X-17.3656 Y1.9854  
G01 X-17.5251 Y2.0514  
G01 X-17.6686 Y2.1473  
G01 X-17.7907 Y2.2694  
G01 X-17.8866 Y2.4129  
G01 X-17.9526 Y2.5724  
G01 X-17.9863 Y2.7417  
G01 X-17.9863 Y4.4383  
G01 X-17.9526 Y4.6076  
G01 X-17.8866 Y4.7671  
G01 X-17.7907 Y4.9106  
G01 X-17.6686 Y5.0327  
G01 X-17.5251 Y5.1286  
G01 X-17.3656 Y5.1946  
G01 X-17.1963 Y5.2283  
G01 X-17.0237 Y5.2283  
G01 X-16.8544 Y5.1946  
G01 X-16.6949 Y5.1286  
G01 X-16.6175 Y5.0768  
G01 X-16.6175 Y12.3685 
G01 X-19.0315 Y14.7825 
G01 X-28.6418 Y14.7825 
G01 X-28.7226 Y14.8041 
G01 X-28.7949 Y14.8459 
G01 X-38.8315 Y24.8825 
G01 X-43.3185 Y24.8825 
G01 X-44.6739 Y23.5271 
G01 X-44.6351 Y23.4333 
G01 X-44.6017 Y23.2655 
G01 X-44.6017 Y23.0945 
G01 X-44.6351 Y22.9267 
G01 X-44.7005 Y22.7687 
G01 X-44.7955 Y22.6265 
G01 X-44.9165 Y22.5055 
G01 X-45.0587 Y22.4105 
G01 X-45.2167 Y22.3451 
G01 X-45.3845 Y22.3117 
G01 X-45.5555 Y22.3117 
G01 X-45.7233 Y22.3451 
G01 X-45.8813 Y22.4105 
G01 X-46.0235 Y22.5055 
G01 X-46.1444 Y22.6265 
G01 X-46.2395 Y22.7687 
G01 X-46.3049 Y22.9267 
G01 X-46.3383 Y23.0945 
G01 X-46.3383 Y23.2655 
G01 X-46.3049 Y23.4333 
G01 X-46.2395 Y23.5913 
G01 X-46.1444 Y23.7335 
G01 X-46.0235 Y23.8544 
G01 X-45.8813 Y23.9495 
G01 X-45.7233 Y24.0149 
G01 X-45.5555 Y24.0483 
G01 X-45.3845 Y24.0483 
G01 X-45.2167 Y24.0149 
G01 X-45.1229 Y23.9761 
G01 X-43.6449 Y25.4541 
G01 X-43.5725 Y25.4959 
G01 X-43.4918 Y25.5175 
G01 X-38.6582 Y25.5175 
G01 X-38.5774 Y25.4959 
G01 X-38.5051 Y25.4541 
G01 X-38.4459 Y25.3949 
G01 X-28.4685 Y15.4175 
G01 X-18.8582 Y15.4175 
G01 X-18.7774 Y15.3959 
G01 X-18.7050 Y15.3541 
G01 X-18.6459 Y15.2949 
G01 X-16.1051 Y12.7541 
G01 X-16.0459 Y12.6949 
G01 X-16.0041 Y12.6226 
G01 X-15.9825 Y12.5418 
G01 X-15.9825 Y3.6198  
G01 X-15.9825 Y3.5781  
G01 X-15.9825 Y3.5382  
G01 X-15.9830 Y3.5343  
G01 X-15.9938 Y3.4959  
G01 X-16.0041 Y3.4574  
G01 X-16.0057 Y3.4538  
G01 X-16.0261 Y3.4195  
G01 X-16.0459 Y3.3851  
G01 X-16.0484 Y3.3819  
G01 X-16.0769 Y3.3540  
G01 X-16.1051 Y3.3259  
G01 X-16.1082 Y3.3236  
G01 X-16.1430 Y3.3040  
G01 X-16.1774 Y3.2841  
G01 X-16.1811 Y3.2826  
G01 X-16.2197 Y3.2728  
G01 X-16.2337 Y3.2691  
G01 X-16.2337 Y2.7417  
G00 Z0.5000  
G00 X-1.8805 Y29.8943 
G01 Z-0.1778 F254   
G01 X-3.5771 Y29.8943 F508   
G01 X-3.7464 Y29.9280 
G01 X-3.9059 Y29.9940 
G01 X-4.0494 Y30.0899 
G01 X-4.1715 Y30.2120 
G01 X-4.2674 Y30.3555 
G01 X-4.3334 Y30.5150 
G01 X-4.3671 Y30.6843 
G01 X-4.3671 Y30.8569 
G01 X-4.3334 Y31.0262 
G01 X-4.2674 Y31.1857 
G01 X-4.1715 Y31.3292 
G01 X-4.0494 Y31.4513 
G01 X-3.9059 Y31.5472 
G01 X-3.7464 Y31.6132 
G01 X-3.5771 Y31.6469 
G01 X-1.8805 Y31.6469 
G01 X-1.7112 Y31.6132 
G01 X-1.5517 Y31.5472 
G01 X-1.4082 Y31.4513 
G01 X-1.2861 Y31.3292 
G01 X-1.1902 Y31.1857 
G01 X-1.1242 Y31.0262 
G01 X-1.0905 Y30.8569 
G01 X-1.0905 Y30.6843 
G01 X-1.1242 Y30.5150 
G01 X-1.1902 Y30.3555 
G01 X-1.2861 Y30.2120 
G01 X-1.4082 Y30.0899 
G01 X-1.5517 Y29.9940 
G01 X-1.7112 Y29.9280 
G01 X-1.8805 Y29.8943 
G00 Z0.5000  
G00 X-1.8805 Y25.3731 
G01 Z-0.1778 F254   
G01 X-3.5771 Y25.3731 F508   
G01 X-3.7464 Y25.4068 
G01 X-3.9059 Y25.4728 
G01 X-4.0494 Y25.5687 
G01 X-4.1715 Y25.6908 
G01 X-4.2674 Y25.8343 
G01 X-4.3334 Y25.9938 
G01 X-4.3671 Y26.1631 
G01 X-4.3671 Y26.3357 
G01 X-4.3334 Y26.5050 
G01 X-4.2674 Y26.6645 
G01 X-4.1715 Y26.8080 
G01 X-4.0494 Y26.9301 
G01 X-3.9059 Y27.0260 
G01 X-3.7464 Y27.0920 
G01 X-3.5771 Y27.1257 
G01 X-1.8805 Y27.1257 
G01 X-1.7112 Y27.0920 
G01 X-1.5517 Y27.0260 
G01 X-1.4082 Y26.9301 
G01 X-1.2861 Y26.8080 
G01 X-1.1902 Y26.6645 
G01 X-1.1242 Y26.5050 
G01 X-1.0905 Y26.3357 
G01 X-1.0905 Y26.1631 
G01 X-1.1242 Y25.9938 
G01 X-1.1902 Y25.8343 
G01 X-1.2861 Y25.6908 
G01 X-1.4082 Y25.5687 
G01 X-1.5517 Y25.4728 
G01 X-1.7112 Y25.4068 
G01 X-1.8805 Y25.3731 
G00 Z0.5000  
G00 X-8.3829 Y25.3731 
G01 Z-0.1778 F254   
G01 X-10.0795 Y25.3731 F508   
G01 X-10.2488 Y25.4068 
G01 X-10.4083 Y25.4728 
G01 X-10.5518 Y25.5687 
G01 X-10.6739 Y25.6908 
G01 X-10.7351 Y25.7825 
G01 X-45.9685 Y25.7825 
G01 X-47.3825 Y24.3685 
G01 X-47.3825 Y23.2315 
G01 X-46.3685 Y22.2175 
G01 X-44.2582 Y22.2175 
G01 X-44.1774 Y22.1959 
G01 X-44.1051 Y22.1541 
G01 X-44.0459 Y22.0949 
G01 X-43.9459 Y21.9949 
G01 X-43.9041 Y21.9226 
G01 X-43.8825 Y21.8418 
G01 X-43.8825 Y19.0315 
G01 X-43.5545 Y18.7035 
G01 X-43.4835 Y18.7745 
G01 X-43.3413 Y18.8695 
G01 X-43.1833 Y18.9349 
G01 X-43.0155 Y18.9683 
G01 X-42.8445 Y18.9683 
G01 X-42.6767 Y18.9349 
G01 X-42.5187 Y18.8695 
G01 X-42.3765 Y18.7745 
G01 X-42.2555 Y18.6535 
G01 X-42.1605 Y18.5113 
G01 X-42.0951 Y18.3533 
G01 X-42.0617 Y18.1855 
G01 X-42.0617 Y18.0145 
G01 X-42.0951 Y17.8467 
G01 X-42.1605 Y17.6887 
G01 X-42.2555 Y17.5465 
G01 X-42.3765 Y17.4255 
G01 X-42.5187 Y17.3305 
G01 X-42.6767 Y17.2651 
G01 X-42.8445 Y17.2317 
G01 X-43.0155 Y17.2317 
G01 X-43.1833 Y17.2651 
G01 X-43.3413 Y17.3305 
G01 X-43.4835 Y17.4255 
G01 X-43.6044 Y17.5465 
G01 X-43.6995 Y17.6887 
G01 X-43.7649 Y17.8467 
G01 X-43.7983 Y18.0145 
G01 X-43.7983 Y18.0493 
G01 X-44.3949 Y18.6459 
G01 X-44.4541 Y18.7050 
G01 X-44.4959 Y18.7774 
G01 X-44.5175 Y18.8582 
G01 X-44.5175 Y21.5825 
G01 X-46.5418 Y21.5825 
G01 X-46.6226 Y21.6041 
G01 X-46.6949 Y21.6459 
G01 X-47.8949 Y22.8459 
G01 X-47.9541 Y22.9051 
G01 X-47.9959 Y22.9774 
G01 X-48.0175 Y23.0582 
G01 X-48.0175 Y24.5418 
G01 X-47.9959 Y24.6226 
G01 X-47.9541 Y24.6949 
G01 X-46.3541 Y26.2949 
G01 X-46.2949 Y26.3541 
G01 X-46.2226 Y26.3959 
G01 X-46.1418 Y26.4175 
G01 X-10.8532 Y26.4175 
G01 X-10.8358 Y26.5050 
G01 X-10.7698 Y26.6645 
G01 X-10.6739 Y26.8080 
G01 X-10.5518 Y26.9301 
G01 X-10.4083 Y27.0260 
G01 X-10.2488 Y27.0920 
G01 X-10.0795 Y27.1257 
G01 X-8.3829 Y27.1257 
G01 X-8.2136 Y27.0920 
G01 X-8.0541 Y27.0260 
G01 X-7.9106 Y26.9301 
G01 X-7.7885 Y26.8080 
G01 X-7.6926 Y26.6645 
G01 X-7.6266 Y26.5050 
G01 X-7.5929 Y26.3357 
G01 X-7.5929 Y26.1631 
G01 X-7.6266 Y25.9938 
G01 X-7.6926 Y25.8343 
G01 X-7.7885 Y25.6908 
G01 X-7.9106 Y25.5687 
G01 X-8.0541 Y25.4728 
G01 X-8.2136 Y25.4068 
G01 X-8.3829 Y25.3731 
G00 Z0.5000  
G00 X-30.6916 Y2.3278  
G01 Z-0.1778 F254   
G01 X-30.6916 Y1.2818  F508   
G01 X-30.6994 Y1.2527  
G01 X-30.7144 Y1.2266  
G01 X-30.7357 Y1.2053  
G01 X-30.7618 Y1.1903  
G01 X-30.7908 Y1.1825  
G01 X-31.7182 Y1.1825  
G01 X-31.7473 Y1.1903  
G01 X-31.7734 Y1.2053  
G01 X-31.7947 Y1.2266  
G01 X-31.8097 Y1.2527  
G01 X-31.8175 Y1.2818  
G01 X-31.8175 Y2.1399  
G01 X-31.9349 Y2.0614  
G01 X-32.0944 Y1.9954  
G01 X-32.2637 Y1.9617  
G01 X-32.4363 Y1.9617  
G01 X-32.6056 Y1.9954  
G01 X-32.7651 Y2.0614  
G01 X-32.9086 Y2.1573  
G01 X-33.0307 Y2.2794  
G01 X-33.1266 Y2.4229  
G01 X-33.1926 Y2.5824  
G01 X-33.2263 Y2.7517  
G01 X-33.2263 Y4.4483  
G01 X-33.1926 Y4.6176  
G01 X-33.1266 Y4.7771  
G01 X-33.0307 Y4.9206  
G01 X-32.9086 Y5.0427  
G01 X-32.7651 Y5.1386  
G01 X-32.6056 Y5.2046  
G01 X-32.4363 Y5.2383  
G01 X-32.2637 Y5.2383  
G01 X-32.0944 Y5.2046  
G01 X-31.9349 Y5.1386  
G01 X-31.7914 Y5.0427  
G01 X-31.6693 Y4.9206  
G01 X-31.5734 Y4.7771  
G01 X-31.5074 Y4.6176  
G01 X-31.4737 Y4.4483  
G01 X-31.4737 Y2.7517  
G01 X-31.5074 Y2.5824  
G01 X-31.5717 Y2.4271  
G01 X-30.7908 Y2.4271  
G01 X-30.7618 Y2.4193  
G01 X-30.7357 Y2.4043  
G01 X-30.7144 Y2.3830  
G01 X-30.6994 Y2.3569  
G01 X-30.6916 Y2.3278  
G00 Z0.5000  
G00 X-27.8916 Y1.2818  
G01 Z-0.1778 F254   
G01 X-27.8994 Y1.2527  F508   
G01 X-27.9144 Y1.2266  
G01 X-27.9357 Y1.2053  
G01 X-27.9618 Y1.1903  
G01 X-27.9908 Y1.1825  
G01 X-28.9182 Y1.1825  
G01 X-28.9473 Y1.1903  
G01 X-28.9734 Y1.2053  
G01 X-28.9947 Y1.2266  
G01 X-29.0097 Y1.2527  
G01 X-29.0175 Y1.2818  
G01 X-29.0175 Y2.3278  
G01 X-29.0097 Y2.3569  
G01 X-28.9947 Y2.3830  
G01 X-28.9734 Y2.4043  
G01 X-28.9473 Y2.4193  
G01 X-28.9182 Y2.4271  
G01 X-28.0483 Y2.4271  
G01 X-28.1126 Y2.5824  
G01 X-28.1463 Y2.7517  
G01 X-28.1463 Y4.4483  
G01 X-28.1126 Y4.6176  
G01 X-28.0466 Y4.7771  
G01 X-27.9507 Y4.9206  
G01 X-27.8286 Y5.0427  
G01 X-27.6851 Y5.1386  
G01 X-27.5256 Y5.2046  
G01 X-27.3563 Y5.2383  
G01 X-27.1837 Y5.2383  
G01 X-27.0144 Y5.2046  
G01 X-26.8549 Y5.1386  
G01 X-26.7114 Y5.0427  
G01 X-26.5893 Y4.9206  
G01 X-26.4934 Y4.7771  
G01 X-26.4274 Y4.6176  
G01 X-26.3937 Y4.4483  
G01 X-26.3937 Y2.7517  
G01 X-26.4274 Y2.5824  
G01 X-26.4934 Y2.4229  
G01 X-26.5893 Y2.2794  
G01 X-26.7114 Y2.1573  
G01 X-26.8549 Y2.0614  
G01 X-27.0144 Y1.9954  
G01 X-27.1837 Y1.9617  
G01 X-27.3563 Y1.9617  
G01 X-27.5256 Y1.9954  
G01 X-27.6851 Y2.0614  
G01 X-27.8286 Y2.1573  
G01 X-27.8916 Y2.2203  
G01 X-27.8916 Y1.2818  
G00 Z0.5000  
G00 X-20.0916 Y2.3278  
G01 Z-0.1778 F254   
G01 X-20.0916 Y1.2818  F508   
G01 X-20.0994 Y1.2527  
G01 X-20.1144 Y1.2266  
G01 X-20.1357 Y1.2053  
G01 X-20.1618 Y1.1903  
G01 X-20.1908 Y1.1825  
G01 X-21.1182 Y1.1825  
G01 X-21.1473 Y1.1903  
G01 X-21.1734 Y1.2053  
G01 X-21.1947 Y1.2266  
G01 X-21.2097 Y1.2527  
G01 X-21.2175 Y1.2818  
G01 X-21.2175 Y2.3278  
G01 X-21.2097 Y2.3569  
G01 X-21.1947 Y2.3830  
G01 X-21.1734 Y2.4043  
G01 X-21.1473 Y2.4193  
G01 X-21.1182 Y2.4271  
G01 X-20.1908 Y2.4271  
G01 X-20.1618 Y2.4193  
G01 X-20.1357 Y2.4043  
G01 X-20.1144 Y2.3830  
G01 X-20.0994 Y2.3569  
G01 X-20.0916 Y2.3278  
G00 Z0.5000  
G00 X-19.9102 Y6.9278  
G01 Z-0.1778 F254   
G01 X-19.9102 Y5.8818  F508   
G01 X-19.9180 Y5.8527  
G01 X-19.9330 Y5.8266  
G01 X-19.9543 Y5.8053  
G01 X-19.9804 Y5.7903  
G01 X-20.0094 Y5.7825  
G01 X-23.4182 Y5.7825  
G01 X-23.4473 Y5.7903  
G01 X-23.4734 Y5.8053  
G01 X-23.4947 Y5.8266  
G01 X-23.5097 Y5.8527  
G01 X-23.5175 Y5.8818  
G01 X-23.5175 Y6.9278  
G01 X-23.5097 Y6.9569  
G01 X-23.4947 Y6.9830  
G01 X-23.4734 Y7.0043  
G01 X-23.4473 Y7.0193  
G01 X-23.4182 Y7.0271  
G01 X-20.0094 Y7.0271  
G01 X-19.9804 Y7.0193  
G01 X-19.9543 Y7.0043  
G01 X-19.9330 Y6.9830  
G01 X-19.9180 Y6.9569  
G01 X-19.9102 Y6.9278  
G00 Z0.5000  
G00 X-17.6916 Y34.4278 
G01 Z-0.1778 F254   
G01 X-17.6916 Y33.3818 F508   
G01 X-17.6994 Y33.3527 
G01 X-17.7144 Y33.3266 
G01 X-17.7357 Y33.3053 
G01 X-17.7618 Y33.2903 
G01 X-17.7908 Y33.2825 
G01 X-18.7182 Y33.2825 
G01 X-18.7473 Y33.2903 
G01 X-18.7734 Y33.3053 
G01 X-18.7947 Y33.3266 
G01 X-18.8097 Y33.3527 
G01 X-18.8175 Y33.3818 
G01 X-18.8175 Y34.4278 
G01 X-18.8097 Y34.4569 
G01 X-18.7947 Y34.4830 
G01 X-18.7734 Y34.5043 
G01 X-18.7473 Y34.5193 
G01 X-18.7182 Y34.5271 
G01 X-17.7908 Y34.5271 
G01 X-17.7618 Y34.5193 
G01 X-17.7357 Y34.5043 
G01 X-17.7144 Y34.4830 
G01 X-17.6994 Y34.4569 
G01 X-17.6916 Y34.4278 
G00 Z0.5000  
G00 X-25.3916 Y34.4278 
G01 Z-0.1778 F254   
G01 X-25.3916 Y33.3818 F508   
G01 X-25.3994 Y33.3527 
G01 X-25.4144 Y33.3266 
G01 X-25.4357 Y33.3053 
G01 X-25.4618 Y33.2903 
G01 X-25.4908 Y33.2825 
G01 X-26.4182 Y33.2825 
G01 X-26.4473 Y33.2903 
G01 X-26.4734 Y33.3053 
G01 X-26.4947 Y33.3266 
G01 X-26.5097 Y33.3527 
G01 X-26.5175 Y33.3818 
G01 X-26.5175 Y34.4278 
G01 X-26.5097 Y34.4569 
G01 X-26.4947 Y34.4830 
G01 X-26.4734 Y34.5043 
G01 X-26.4473 Y34.5193 
G01 X-26.4182 Y34.5271 
G01 X-25.4908 Y34.5271 
G01 X-25.4618 Y34.5193 
G01 X-25.4357 Y34.5043 
G01 X-25.4144 Y34.4830 
G01 X-25.3994 Y34.4569 
G01 X-25.3916 Y34.4278 
G00 Z0.5000  
G00 X-28.0916 Y34.4278 
G01 Z-0.1778 F254   
G01 X-28.0916 Y33.3818 F508   
G01 X-28.0994 Y33.3527 
G01 X-28.1144 Y33.3266 
G01 X-28.1357 Y33.3053 
G01 X-28.1618 Y33.2903 
G01 X-28.1908 Y33.2825 
G01 X-29.1182 Y33.2825 
G01 X-29.1473 Y33.2903 
G01 X-29.1734 Y33.3053 
G01 X-29.1947 Y33.3266 
G01 X-29.2097 Y33.3527 
G01 X-29.2175 Y33.3818 
G01 X-29.2175 Y34.4278 
G01 X-29.2097 Y34.4569 
G01 X-29.1947 Y34.4830 
G01 X-29.1734 Y34.5043 
G01 X-29.1473 Y34.5193 
G01 X-29.1182 Y34.5271 
G01 X-28.1908 Y34.5271 
G01 X-28.1618 Y34.5193 
G01 X-28.1357 Y34.5043 
G01 X-28.1144 Y34.4830 
G01 X-28.0994 Y34.4569 
G01 X-28.0916 Y34.4278 
G00 Z0.5000  
G00 X-45.8916 Y34.3278 
G01 Z-0.1778 F254   
G01 X-45.8916 Y33.2818 F508   
G01 X-45.8994 Y33.2527 
G01 X-45.9144 Y33.2266 
G01 X-45.9357 Y33.2053 
G01 X-45.9618 Y33.1903 
G01 X-45.9908 Y33.1825 
G01 X-46.9182 Y33.1825 
G01 X-46.9473 Y33.1903 
G01 X-46.9734 Y33.2053 
G01 X-46.9947 Y33.2266 
G01 X-47.0097 Y33.2527 
G01 X-47.0175 Y33.2818 
G01 X-47.0175 Y34.3278 
G01 X-47.0097 Y34.3569 
G01 X-46.9947 Y34.3830 
G01 X-46.9734 Y34.4043 
G01 X-46.9473 Y34.4193 
G01 X-46.9182 Y34.4271 
G01 X-45.9908 Y34.4271 
G01 X-45.9618 Y34.4193 
G01 X-45.9357 Y34.4043 
G01 X-45.9144 Y34.3830 
G01 X-45.8994 Y34.3569 
G01 X-45.8916 Y34.3278 
G00 Z0.5000  
G00 X-22.5011 Y29.5278 
G01 Z-0.1778 F254   
G01 X-22.5011 Y28.4818 F508   
G01 X-22.5089 Y28.4527 
G01 X-22.5239 Y28.4266 
G01 X-22.5452 Y28.4053 
G01 X-22.5713 Y28.3903 
G01 X-22.6004 Y28.3825 
G01 X-25.5182 Y28.3825 
G01 X-25.5473 Y28.3903 
G01 X-25.5734 Y28.4053 
G01 X-25.5947 Y28.4266 
G01 X-25.6097 Y28.4527 
G01 X-25.6175 Y28.4818 
G01 X-25.6175 Y29.5278 
G01 X-25.6097 Y29.5569 
G01 X-25.5947 Y29.5830 
G01 X-25.5734 Y29.6043 
G01 X-25.5473 Y29.6193 
G01 X-25.5182 Y29.6271 
G01 X-22.6004 Y29.6271 
G01 X-22.5713 Y29.6193 
G01 X-22.5452 Y29.6043 
G01 X-22.5239 Y29.5830 
G01 X-22.5089 Y29.5569 
G01 X-22.5011 Y29.5278 
G00 Z0.5000  
G00 X-46.0989 Y28.3722 
G01 Z-0.1778 F254   
G01 X-46.0989 Y29.4182 F508   
G01 X-46.0911 Y29.4473 
G01 X-46.0760 Y29.4734 
G01 X-46.0548 Y29.4947 
G01 X-46.0287 Y29.5097 
G01 X-45.9996 Y29.5175 
G01 X-43.0817 Y29.5175 
G01 X-43.0527 Y29.5097 
G01 X-43.0266 Y29.4947 
G01 X-43.0053 Y29.4734 
G01 X-42.9903 Y29.4473 
G01 X-42.9825 Y29.4182 
G01 X-42.9825 Y28.3722 
G01 X-42.9903 Y28.3431 
G01 X-43.0053 Y28.3170 
G01 X-43.0266 Y28.2957 
G01 X-43.0527 Y28.2807 
G01 X-43.0817 Y28.2729 
G01 X-45.9996 Y28.2729 
G01 X-46.0287 Y28.2807 
G01 X-46.0548 Y28.2957 
G01 X-46.0760 Y28.3170 
G01 X-46.0911 Y28.3431 
G01 X-46.0989 Y28.3722 
G00 Z0.5000  
G00 X-31.0547 Y6.8278  
G01 Z-0.1778 F254   
G01 X-31.0547 Y5.7818  F508   
G01 X-31.0625 Y5.7527  
G01 X-31.0775 Y5.7266  
G01 X-31.0988 Y5.7053  
G01 X-31.1248 Y5.6903  
G01 X-31.1539 Y5.6825  
G01 X-34.0182 Y5.6825  
G01 X-34.0473 Y5.6903  
G01 X-34.0734 Y5.7053  
G01 X-34.0947 Y5.7266  
G01 X-34.1097 Y5.7527  
G01 X-34.1175 Y5.7818  
G01 X-34.1175 Y6.8278  
G01 X-34.1097 Y6.8569  
G01 X-34.0947 Y6.8830  
G01 X-34.0734 Y6.9043  
G01 X-34.0473 Y6.9193  
G01 X-34.0182 Y6.9271  
G01 X-31.1539 Y6.9271  
G01 X-31.1248 Y6.9193  
G01 X-31.0988 Y6.9043  
G01 X-31.0775 Y6.8830  
G01 X-31.0625 Y6.8569  
G01 X-31.0547 Y6.8278  
G00 Z0.5000  
G00 X-46.1663 Y30.7517 
G01 Z-0.1778 F254   
G01 X-46.1663 Y32.4483 F508   
G01 X-46.1326 Y32.6176 
G01 X-46.0666 Y32.7771 
G01 X-45.9707 Y32.9206 
G01 X-45.8486 Y33.0427 
G01 X-45.7051 Y33.1386 
G01 X-45.5456 Y33.2046 
G01 X-45.3763 Y33.2383 
G01 X-45.2037 Y33.2383 
G01 X-45.0344 Y33.2046 
G01 X-44.8749 Y33.1386 
G01 X-44.7314 Y33.0427 
G01 X-44.6093 Y32.9206 
G01 X-44.5134 Y32.7771 
G01 X-44.4474 Y32.6176 
G01 X-44.4137 Y32.4483 
G01 X-44.4137 Y30.7517 
G01 X-44.4474 Y30.5824 
G01 X-44.5134 Y30.4229 
G01 X-44.6093 Y30.2794 
G01 X-44.7314 Y30.1573 
G01 X-44.8749 Y30.0614 
G01 X-45.0344 Y29.9954 
G01 X-45.2037 Y29.9617 
G01 X-45.3763 Y29.9617 
G01 X-45.5456 Y29.9954 
G01 X-45.7051 Y30.0614 
G01 X-45.8486 Y30.1573 
G01 X-45.9707 Y30.2794 
G01 X-46.0666 Y30.4229 
G01 X-46.1326 Y30.5824 
G01 X-46.1663 Y30.7517 
G00 Z0.5000  
G00 X-43.6263 Y30.7517 
G01 Z-0.1778 F254   
G01 X-43.6263 Y32.4483 F508   
G01 X-43.5926 Y32.6176 
G01 X-43.5266 Y32.7771 
G01 X-43.4307 Y32.9206 
G01 X-43.3086 Y33.0427 
G01 X-43.1651 Y33.1386 
G01 X-43.0056 Y33.2046 
G01 X-42.8363 Y33.2383 
G01 X-42.6637 Y33.2383 
G01 X-42.4944 Y33.2046 
G01 X-42.3349 Y33.1386 
G01 X-42.1914 Y33.0427 
G01 X-42.0693 Y32.9206 
G01 X-41.9734 Y32.7771 
G01 X-41.9074 Y32.6176 
G01 X-41.8737 Y32.4483 
G01 X-41.8737 Y30.7517 
G01 X-41.9074 Y30.5824 
G01 X-41.9734 Y30.4229 
G01 X-42.0693 Y30.2794 
G01 X-42.1914 Y30.1573 
G01 X-42.3349 Y30.0614 
G01 X-42.4944 Y29.9954 
G01 X-42.6637 Y29.9617 
G01 X-42.8363 Y29.9617 
G01 X-43.0056 Y29.9954 
G01 X-43.1651 Y30.0614 
G01 X-43.3086 Y30.1573 
G01 X-43.4307 Y30.2794 
G01 X-43.5266 Y30.4229 
G01 X-43.5926 Y30.5824 
G01 X-43.6263 Y30.7517 
G00 Z0.5000  
G00 X-41.0863 Y30.7517 
G01 Z-0.1778 F254   
G01 X-41.0863 Y32.4483 F508   
G01 X-41.0526 Y32.6176 
G01 X-40.9866 Y32.7771 
G01 X-40.8907 Y32.9206 
G01 X-40.7686 Y33.0427 
G01 X-40.6251 Y33.1386 
G01 X-40.4656 Y33.2046 
G01 X-40.2963 Y33.2383 
G01 X-40.1237 Y33.2383 
G01 X-39.9544 Y33.2046 
G01 X-39.7949 Y33.1386 
G01 X-39.6514 Y33.0427 
G01 X-39.5293 Y32.9206 
G01 X-39.4334 Y32.7771 
G01 X-39.3674 Y32.6176 
G01 X-39.3337 Y32.4483 
G01 X-39.3337 Y30.7517 
G01 X-39.3674 Y30.5824 
G01 X-39.4334 Y30.4229 
G01 X-39.5293 Y30.2794 
G01 X-39.6514 Y30.1573 
G01 X-39.7949 Y30.0614 
G01 X-39.9544 Y29.9954 
G01 X-40.1237 Y29.9617 
G01 X-40.2963 Y29.9617 
G01 X-40.4656 Y29.9954 
G01 X-40.6251 Y30.0614 
G01 X-40.7686 Y30.1573 
G01 X-40.8907 Y30.2794 
G01 X-40.9866 Y30.4229 
G01 X-41.0526 Y30.5824 
G01 X-41.0863 Y30.7517 
G00 Z0.5000  
G00 X-38.5463 Y30.7517 
G01 Z-0.1778 F254   
G01 X-38.5463 Y32.4483 F508   
G01 X-38.5126 Y32.6176 
G01 X-38.4466 Y32.7771 
G01 X-38.3507 Y32.9206 
G01 X-38.2286 Y33.0427 
G01 X-38.0851 Y33.1386 
G01 X-37.9256 Y33.2046 
G01 X-37.7563 Y33.2383 
G01 X-37.5837 Y33.2383 
G01 X-37.4144 Y33.2046 
G01 X-37.2549 Y33.1386 
G01 X-37.1114 Y33.0427 
G01 X-36.9893 Y32.9206 
G01 X-36.8934 Y32.7771 
G01 X-36.8274 Y32.6176 
G01 X-36.7937 Y32.4483 
G01 X-36.7937 Y30.7517 
G01 X-36.8274 Y30.5824 
G01 X-36.8934 Y30.4229 
G01 X-36.9893 Y30.2794 
G01 X-37.1114 Y30.1573 
G01 X-37.2549 Y30.0614 
G01 X-37.4144 Y29.9954 
G01 X-37.5837 Y29.9617 
G01 X-37.7563 Y29.9617 
G01 X-37.9256 Y29.9954 
G01 X-38.0851 Y30.0614 
G01 X-38.2286 Y30.1573 
G01 X-38.3507 Y30.2794 
G01 X-38.4466 Y30.4229 
G01 X-38.5126 Y30.5824 
G01 X-38.5463 Y30.7517 
G00 Z0.5000  
G00 X-36.0063 Y30.7517 
G01 Z-0.1778 F254   
G01 X-36.0063 Y32.4483 F508   
G01 X-35.9726 Y32.6176 
G01 X-35.9066 Y32.7771 
G01 X-35.8107 Y32.9206 
G01 X-35.6886 Y33.0427 
G01 X-35.5451 Y33.1386 
G01 X-35.3856 Y33.2046 
G01 X-35.2163 Y33.2383 
G01 X-35.0437 Y33.2383 
G01 X-34.8744 Y33.2046 
G01 X-34.7149 Y33.1386 
G01 X-34.5714 Y33.0427 
G01 X-34.4493 Y32.9206 
G01 X-34.3534 Y32.7771 
G01 X-34.2874 Y32.6176 
G01 X-34.2537 Y32.4483 
G01 X-34.2537 Y30.7517 
G01 X-34.2874 Y30.5824 
G01 X-34.3534 Y30.4229 
G01 X-34.4493 Y30.2794 
G01 X-34.5714 Y30.1573 
G01 X-34.7149 Y30.0614 
G01 X-34.8744 Y29.9954 
G01 X-35.0437 Y29.9617 
G01 X-35.2163 Y29.9617 
G01 X-35.3856 Y29.9954 
G01 X-35.5451 Y30.0614 
G01 X-35.6886 Y30.1573 
G01 X-35.8107 Y30.2794 
G01 X-35.9066 Y30.4229 
G01 X-35.9726 Y30.5824 
G01 X-36.0063 Y30.7517 
G00 Z0.5000  
G00 X-33.4663 Y30.7517 
G01 Z-0.1778 F254   
G01 X-33.4663 Y32.4483 F508   
G01 X-33.4326 Y32.6176 
G01 X-33.3666 Y32.7771 
G01 X-33.2707 Y32.9206 
G01 X-33.1486 Y33.0427 
G01 X-33.0051 Y33.1386 
G01 X-32.8456 Y33.2046 
G01 X-32.6763 Y33.2383 
G01 X-32.5037 Y33.2383 
G01 X-32.3344 Y33.2046 
G01 X-32.1749 Y33.1386 
G01 X-32.0314 Y33.0427 
G01 X-31.9093 Y32.9206 
G01 X-31.8134 Y32.7771 
G01 X-31.7474 Y32.6176 
G01 X-31.7137 Y32.4483 
G01 X-31.7137 Y30.7517 
G01 X-31.7474 Y30.5824 
G01 X-31.8134 Y30.4229 
G01 X-31.9093 Y30.2794 
G01 X-32.0314 Y30.1573 
G01 X-32.1749 Y30.0614 
G01 X-32.3344 Y29.9954 
G01 X-32.5037 Y29.9617 
G01 X-32.6763 Y29.9617 
G01 X-32.8456 Y29.9954 
G01 X-33.0051 Y30.0614 
G01 X-33.1486 Y30.1573 
G01 X-33.2707 Y30.2794 
G01 X-33.3666 Y30.4229 
G01 X-33.4326 Y30.5824 
G01 X-33.4663 Y30.7517 
G00 Z0.5000  
G00 X-30.9263 Y30.7517 
G01 Z-0.1778 F254   
G01 X-30.9263 Y32.4483 F508   
G01 X-30.8926 Y32.6176 
G01 X-30.8266 Y32.7771 
G01 X-30.7307 Y32.9206 
G01 X-30.6086 Y33.0427 
G01 X-30.4651 Y33.1386 
G01 X-30.3056 Y33.2046 
G01 X-30.1363 Y33.2383 
G01 X-29.9637 Y33.2383 
G01 X-29.7944 Y33.2046 
G01 X-29.6349 Y33.1386 
G01 X-29.4914 Y33.0427 
G01 X-29.3693 Y32.9206 
G01 X-29.2734 Y32.7771 
G01 X-29.2074 Y32.6176 
G01 X-29.1737 Y32.4483 
G01 X-29.1737 Y30.7517 
G01 X-29.2074 Y30.5824 
G01 X-29.2734 Y30.4229 
G01 X-29.3693 Y30.2794 
G01 X-29.4914 Y30.1573 
G01 X-29.6349 Y30.0614 
G01 X-29.7944 Y29.9954 
G01 X-29.9637 Y29.9617 
G01 X-30.1363 Y29.9617 
G01 X-30.3056 Y29.9954 
G01 X-30.4651 Y30.0614 
G01 X-30.6086 Y30.1573 
G01 X-30.7307 Y30.2794 
G01 X-30.8266 Y30.4229 
G01 X-30.8926 Y30.5824 
G01 X-30.9263 Y30.7517 
G00 Z0.5000  
G00 X-28.3863 Y30.7517 
G01 Z-0.1778 F254   
G01 X-28.3863 Y32.4483 F508   
G01 X-28.3526 Y32.6176 
G01 X-28.2866 Y32.7771 
G01 X-28.1907 Y32.9206 
G01 X-28.0686 Y33.0427 
G01 X-27.9251 Y33.1386 
G01 X-27.7656 Y33.2046 
G01 X-27.5963 Y33.2383 
G01 X-27.4237 Y33.2383 
G01 X-27.2544 Y33.2046 
G01 X-27.0949 Y33.1386 
G01 X-26.9514 Y33.0427 
G01 X-26.8293 Y32.9206 
G01 X-26.7334 Y32.7771 
G01 X-26.6674 Y32.6176 
G01 X-26.6337 Y32.4483 
G01 X-26.6337 Y30.7517 
G01 X-26.6674 Y30.5824 
G01 X-26.7334 Y30.4229 
G01 X-26.8293 Y30.2794 
G01 X-26.9514 Y30.1573 
G01 X-27.0949 Y30.0614 
G01 X-27.2544 Y29.9954 
G01 X-27.4237 Y29.9617 
G01 X-27.5963 Y29.9617 
G01 X-27.7656 Y29.9954 
G01 X-27.9251 Y30.0614 
G01 X-28.0686 Y30.1573 
G01 X-28.1907 Y30.2794 
G01 X-28.2866 Y30.4229 
G01 X-28.3526 Y30.5824 
G01 X-28.3863 Y30.7517 
G00 Z0.5000  
G00 X-43.7983 Y20.5545 
G01 Z-0.1778 F254   
G01 X-43.7983 Y20.7255 F508   
G01 X-43.7649 Y20.8933 
G01 X-43.6995 Y21.0513 
G01 X-43.6044 Y21.1935 
G01 X-43.4835 Y21.3145 
G01 X-43.3413 Y21.4095 
G01 X-43.1833 Y21.4749 
G01 X-43.0155 Y21.5083 
G01 X-42.8445 Y21.5083 
G01 X-42.6767 Y21.4749 
G01 X-42.5187 Y21.4095 
G01 X-42.3765 Y21.3145 
G01 X-42.2555 Y21.1935 
G01 X-42.1605 Y21.0513 
G01 X-42.0951 Y20.8933 
G01 X-42.0617 Y20.7255 
G01 X-42.0617 Y20.5545 
G01 X-42.0951 Y20.3867 
G01 X-42.1605 Y20.2287 
G01 X-42.2555 Y20.0865 
G01 X-42.3765 Y19.9655 
G01 X-42.5187 Y19.8705 
G01 X-42.6767 Y19.8051 
G01 X-42.8445 Y19.7717 
G01 X-43.0155 Y19.7717 
G01 X-43.1833 Y19.8051 
G01 X-43.3413 Y19.8705 
G01 X-43.4835 Y19.9655 
G01 X-43.6044 Y20.0865 
G01 X-43.6995 Y20.2287 
G01 X-43.7649 Y20.3867 
G01 X-43.7983 Y20.5545 
G00 Z0.5000  
G00 X-43.7983 Y15.4745 
G01 Z-0.1778 F254   
G01 X-43.7983 Y15.6455 F508   
G01 X-43.7649 Y15.8133 
G01 X-43.6995 Y15.9713 
G01 X-43.6044 Y16.1135 
G01 X-43.4835 Y16.2345 
G01 X-43.3413 Y16.3295 
G01 X-43.1833 Y16.3949 
G01 X-43.0155 Y16.4283 
G01 X-42.8445 Y16.4283 
G01 X-42.6767 Y16.3949 
G01 X-42.5187 Y16.3295 
G01 X-42.3765 Y16.2345 
G01 X-42.2555 Y16.1135 
G01 X-42.1605 Y15.9713 
G01 X-42.0968 Y15.8175 
G01 X-41.2582 Y15.8175 
G01 X-41.1774 Y15.7959 
G01 X-41.1050 Y15.7541 
G01 X-41.0459 Y15.6949 
G01 X-39.9459 Y14.5949 
G01 X-39.9041 Y14.5226 
G01 X-39.8825 Y14.4418 
G01 X-39.8825 Y13.3582 
G01 X-39.9041 Y13.2774 
G01 X-39.9459 Y13.2050 
G01 X-40.0051 Y13.1459 
G01 X-41.5787 Y11.5723 
G01 X-44.2597 Y4.7440  
G01 X-44.2074 Y4.6176  
G01 X-44.1737 Y4.4483  
G01 X-44.1737 Y2.7517  
G01 X-44.2074 Y2.5824  
G01 X-44.2734 Y2.4229  
G01 X-44.3693 Y2.2794  
G01 X-44.4914 Y2.1573  
G01 X-44.6349 Y2.0614  
G01 X-44.7944 Y1.9954  
G01 X-44.9637 Y1.9617  
G01 X-45.1363 Y1.9617  
G01 X-45.3056 Y1.9954  
G01 X-45.4651 Y2.0614  
G01 X-45.5916 Y2.1460  
G01 X-45.5916 Y1.2818  
G01 X-45.5994 Y1.2527  
G01 X-45.6144 Y1.2266  
G01 X-45.6357 Y1.2053  
G01 X-45.6618 Y1.1903  
G01 X-45.6908 Y1.1825  
G01 X-46.6182 Y1.1825  
G01 X-46.6473 Y1.1903  
G01 X-46.6734 Y1.2053  
G01 X-46.6947 Y1.2266  
G01 X-46.7097 Y1.2527  
G01 X-46.7175 Y1.2818  
G01 X-46.7175 Y2.3278  
G01 X-46.7097 Y2.3569  
G01 X-46.6947 Y2.3830  
G01 X-46.6734 Y2.4043  
G01 X-46.6473 Y2.4193  
G01 X-46.6182 Y2.4271  
G01 X-45.8283 Y2.4271  
G01 X-45.8926 Y2.5824  
G01 X-45.9263 Y2.7517  
G01 X-45.9263 Y4.4483  
G01 X-45.8926 Y4.6176  
G01 X-45.8266 Y4.7771  
G01 X-45.7307 Y4.9206  
G01 X-45.6086 Y5.0427  
G01 X-45.4651 Y5.1386  
G01 X-45.3056 Y5.2046  
G01 X-45.1363 Y5.2383  
G01 X-44.9637 Y5.2383  
G01 X-44.7944 Y5.2046  
G01 X-44.7657 Y5.1927  
G01 X-42.1521 Y11.8494 
G01 X-42.1459 Y11.8726 
G01 X-42.1368 Y11.8882 
G01 X-42.1303 Y11.9049 
G01 X-42.1160 Y11.9242 
G01 X-42.1041 Y11.9449 
G01 X-42.0913 Y11.9577 
G01 X-42.0806 Y11.9722 
G01 X-42.0619 Y11.9871 
G01 X-40.5175 Y13.5315 
G01 X-40.5175 Y14.2685 
G01 X-41.4315 Y15.1825 
G01 X-42.1465 Y15.1825 
G01 X-42.1605 Y15.1487 
G01 X-42.2555 Y15.0065 
G01 X-42.3765 Y14.8855 
G01 X-42.5187 Y14.7905 
G01 X-42.6767 Y14.7251 
G01 X-42.8445 Y14.6917 
G01 X-43.0155 Y14.6917 
G01 X-43.1833 Y14.7251 
G01 X-43.3413 Y14.7905 
G01 X-43.4835 Y14.8855 
G01 X-43.6044 Y15.0065 
G01 X-43.6995 Y15.1487 
G01 X-43.7649 Y15.3067 
G01 X-43.7983 Y15.4745 
G00 Z0.5000  
G00 X-43.7983 Y12.9345 
G01 Z-0.1778 F254   
G01 X-43.7983 Y13.1055 F508   
G01 X-43.7649 Y13.2733 
G01 X-43.6995 Y13.4313 
G01 X-43.6044 Y13.5735 
G01 X-43.4835 Y13.6944 
G01 X-43.3413 Y13.7895 
G01 X-43.1833 Y13.8549 
G01 X-43.0155 Y13.8883 
G01 X-42.8445 Y13.8883 
G01 X-42.6767 Y13.8549 
G01 X-42.5187 Y13.7895 
G01 X-42.3765 Y13.6944 
G01 X-42.2555 Y13.5735 
G01 X-42.1605 Y13.4313 
G01 X-42.0951 Y13.2733 
G01 X-42.0617 Y13.1055 
G01 X-42.0617 Y12.9345 
G01 X-42.0951 Y12.7667 
G01 X-42.1605 Y12.6087 
G01 X-42.2555 Y12.4665 
G01 X-42.3765 Y12.3455 
G01 X-42.5187 Y12.2505 
G01 X-42.6767 Y12.1851 
G01 X-42.8445 Y12.1517 
G01 X-43.0155 Y12.1517 
G01 X-43.1833 Y12.1851 
G01 X-43.3413 Y12.2505 
G01 X-43.4835 Y12.3455 
G01 X-43.6044 Y12.4665 
G01 X-43.6995 Y12.6087 
G01 X-43.7649 Y12.7667 
G01 X-43.7983 Y12.9345 
G00 Z0.5000  
G00 X-25.6863 Y30.7517 
G01 Z-0.1778 F254   
G01 X-25.6863 Y32.4483 F508   
G01 X-25.6526 Y32.6176 
G01 X-25.5866 Y32.7771 
G01 X-25.4907 Y32.9206 
G01 X-25.3686 Y33.0427 
G01 X-25.2251 Y33.1386 
G01 X-25.0656 Y33.2046 
G01 X-24.8963 Y33.2383 
G01 X-24.7237 Y33.2383 
G01 X-24.5544 Y33.2046 
G01 X-24.3949 Y33.1386 
G01 X-24.2514 Y33.0427 
G01 X-24.1293 Y32.9206 
G01 X-24.0334 Y32.7771 
G01 X-23.9674 Y32.6176 
G01 X-23.9337 Y32.4483 
G01 X-23.9337 Y30.7517 
G01 X-23.9674 Y30.5824 
G01 X-24.0334 Y30.4229 
G01 X-24.1293 Y30.2794 
G01 X-24.2514 Y30.1573 
G01 X-24.3949 Y30.0614 
G01 X-24.5544 Y29.9954 
G01 X-24.7237 Y29.9617 
G01 X-24.8963 Y29.9617 
G01 X-25.0656 Y29.9954 
G01 X-25.2251 Y30.0614 
G01 X-25.3686 Y30.1573 
G01 X-25.4907 Y30.2794 
G01 X-25.5866 Y30.4229 
G01 X-25.6526 Y30.5824 
G01 X-25.6863 Y30.7517 
G00 Z0.5000  
G00 X-23.1463 Y30.7517 
G01 Z-0.1778 F254   
G01 X-23.1463 Y32.4483 F508   
G01 X-23.1126 Y32.6176 
G01 X-23.0466 Y32.7771 
G01 X-22.9507 Y32.9206 
G01 X-22.8286 Y33.0427 
G01 X-22.6851 Y33.1386 
G01 X-22.5256 Y33.2046 
G01 X-22.3563 Y33.2383 
G01 X-22.1837 Y33.2383 
G01 X-22.0144 Y33.2046 
G01 X-21.8549 Y33.1386 
G01 X-21.7114 Y33.0427 
G01 X-21.5893 Y32.9206 
G01 X-21.4934 Y32.7771 
G01 X-21.4274 Y32.6176 
G01 X-21.3937 Y32.4483 
G01 X-21.3937 Y30.7517 
G01 X-21.4274 Y30.5824 
G01 X-21.4934 Y30.4229 
G01 X-21.5893 Y30.2794 
G01 X-21.7114 Y30.1573 
G01 X-21.8549 Y30.0614 
G01 X-22.0144 Y29.9954 
G01 X-22.1837 Y29.9617 
G01 X-22.3563 Y29.9617 
G01 X-22.5256 Y29.9954 
G01 X-22.6851 Y30.0614 
G01 X-22.8286 Y30.1573 
G01 X-22.9507 Y30.2794 
G01 X-23.0466 Y30.4229 
G01 X-23.1126 Y30.5824 
G01 X-23.1463 Y30.7517 
G00 Z0.5000  
G00 X-20.6063 Y30.7517 
G01 Z-0.1778 F254   
G01 X-20.6063 Y32.4483 F508   
G01 X-20.5726 Y32.6176 
G01 X-20.5066 Y32.7771 
G01 X-20.4107 Y32.9206 
G01 X-20.2886 Y33.0427 
G01 X-20.1451 Y33.1386 
G01 X-19.9856 Y33.2046 
G01 X-19.8163 Y33.2383 
G01 X-19.6437 Y33.2383 
G01 X-19.4744 Y33.2046 
G01 X-19.3149 Y33.1386 
G01 X-19.1714 Y33.0427 
G01 X-19.0493 Y32.9206 
G01 X-18.9534 Y32.7771 
G01 X-18.8874 Y32.6176 
G01 X-18.8537 Y32.4483 
G01 X-18.8537 Y30.7517 
G01 X-18.8874 Y30.5824 
G01 X-18.9534 Y30.4229 
G01 X-19.0493 Y30.2794 
G01 X-19.1714 Y30.1573 
G01 X-19.3149 Y30.0614 
G01 X-19.4744 Y29.9954 
G01 X-19.6437 Y29.9617 
G01 X-19.8163 Y29.9617 
G01 X-19.9856 Y29.9954 
G01 X-20.1451 Y30.0614 
G01 X-20.2886 Y30.1573 
G01 X-20.4107 Y30.2794 
G01 X-20.5066 Y30.4229 
G01 X-20.5726 Y30.5824 
G01 X-20.6063 Y30.7517 
G00 Z0.5000  
G00 X-18.0663 Y30.7517 
G01 Z-0.1778 F254   
G01 X-18.0663 Y32.4483 F508   
G01 X-18.0326 Y32.6176 
G01 X-17.9666 Y32.7771 
G01 X-17.8707 Y32.9206 
G01 X-17.7486 Y33.0427 
G01 X-17.6051 Y33.1386 
G01 X-17.4456 Y33.2046 
G01 X-17.2763 Y33.2383 
G01 X-17.1037 Y33.2383 
G01 X-16.9344 Y33.2046 
G01 X-16.7749 Y33.1386 
G01 X-16.6314 Y33.0427 
G01 X-16.5093 Y32.9206 
G01 X-16.4134 Y32.7771 
G01 X-16.3474 Y32.6176 
G01 X-16.3137 Y32.4483 
G01 X-16.3137 Y30.7517 
G01 X-16.3474 Y30.5824 
G01 X-16.4134 Y30.4229 
G01 X-16.5093 Y30.2794 
G01 X-16.6314 Y30.1573 
G01 X-16.7749 Y30.0614 
G01 X-16.9344 Y29.9954 
G01 X-17.1037 Y29.9617 
G01 X-17.2763 Y29.9617 
G01 X-17.4456 Y29.9954 
G01 X-17.6051 Y30.0614 
G01 X-17.7486 Y30.1573 
G01 X-17.8707 Y30.2794 
G01 X-17.9666 Y30.4229 
G01 X-18.0326 Y30.5824 
G01 X-18.0663 Y30.7517 
G00 Z0.5000  
G00 X-21.3137 Y4.4483  
G01 Z-0.1778 F254   
G01 X-21.3137 Y2.7517  F508   
G01 X-21.3474 Y2.5824  
G01 X-21.4134 Y2.4229  
G01 X-21.5093 Y2.2794  
G01 X-21.6314 Y2.1573  
G01 X-21.7749 Y2.0614  
G01 X-21.9344 Y1.9954  
G01 X-22.1037 Y1.9617  
G01 X-22.2763 Y1.9617  
G01 X-22.4456 Y1.9954  
G01 X-22.6051 Y2.0614  
G01 X-22.7486 Y2.1573  
G01 X-22.8707 Y2.2794  
G01 X-22.9666 Y2.4229  
G01 X-23.0326 Y2.5824  
G01 X-23.0663 Y2.7517  
G01 X-23.0663 Y4.4483  
G01 X-23.0326 Y4.6176  
G01 X-22.9666 Y4.7771  
G01 X-22.8707 Y4.9206  
G01 X-22.7486 Y5.0427  
G01 X-22.6051 Y5.1386  
G01 X-22.4456 Y5.2046  
G01 X-22.2763 Y5.2383  
G01 X-22.1037 Y5.2383  
G01 X-21.9344 Y5.2046  
G01 X-21.7749 Y5.1386  
G01 X-21.6314 Y5.0427  
G01 X-21.5093 Y4.9206  
G01 X-21.4134 Y4.7771  
G01 X-21.3474 Y4.6176  
G01 X-21.3137 Y4.4483  
G00 Z0.5000  
G00 X-23.8537 Y4.4483  
G01 Z-0.1778 F254   
G01 X-23.8537 Y2.7517  F508   
G01 X-23.8874 Y2.5824  
G01 X-23.9534 Y2.4229  
G01 X-24.0493 Y2.2794  
G01 X-24.1714 Y2.1573  
G01 X-24.3149 Y2.0614  
G01 X-24.4744 Y1.9954  
G01 X-24.6437 Y1.9617  
G01 X-24.8163 Y1.9617  
G01 X-24.9856 Y1.9954  
G01 X-25.1451 Y2.0614  
G01 X-25.2886 Y2.1573  
G01 X-25.4107 Y2.2794  
G01 X-25.5066 Y2.4229  
G01 X-25.5726 Y2.5824  
G01 X-25.6063 Y2.7517  
G01 X-25.6063 Y4.4483  
G01 X-25.5726 Y4.6176  
G01 X-25.5066 Y4.7771  
G01 X-25.4107 Y4.9206  
G01 X-25.2886 Y5.0427  
G01 X-25.1451 Y5.1386  
G01 X-24.9856 Y5.2046  
G01 X-24.8163 Y5.2383  
G01 X-24.6437 Y5.2383  
G01 X-24.4744 Y5.2046  
G01 X-24.3149 Y5.1386  
G01 X-24.1714 Y5.0427  
G01 X-24.0493 Y4.9206  
G01 X-23.9534 Y4.7771  
G01 X-23.8874 Y4.6176  
G01 X-23.8537 Y4.4483  
G00 Z0.5000  
G00 X-28.9337 Y4.4483  
G01 Z-0.1778 F254   
G01 X-28.9337 Y2.7517  F508   
G01 X-28.9674 Y2.5824  
G01 X-29.0334 Y2.4229  
G01 X-29.1293 Y2.2794  
G01 X-29.2514 Y2.1573  
G01 X-29.3949 Y2.0614  
G01 X-29.5544 Y1.9954  
G01 X-29.7237 Y1.9617  
G01 X-29.8963 Y1.9617  
G01 X-30.0656 Y1.9954  
G01 X-30.2251 Y2.0614  
G01 X-30.3686 Y2.1573  
G01 X-30.4907 Y2.2794  
G01 X-30.5866 Y2.4229  
G01 X-30.6526 Y2.5824  
G01 X-30.6863 Y2.7517  
G01 X-30.6863 Y4.4483  
G01 X-30.6526 Y4.6176  
G01 X-30.5866 Y4.7771  
G01 X-30.4907 Y4.9206  
G01 X-30.3686 Y5.0427  
G01 X-30.2251 Y5.1386  
G01 X-30.0656 Y5.2046  
G01 X-29.8963 Y5.2383  
G01 X-29.7237 Y5.2383  
G01 X-29.5544 Y5.2046  
G01 X-29.3949 Y5.1386  
G01 X-29.2514 Y5.0427  
G01 X-29.1293 Y4.9206  
G01 X-29.0334 Y4.7771  
G01 X-28.9674 Y4.6176  
G01 X-28.9337 Y4.4483  
G00 Z0.5000  
G00 X-27.0603 Y1.7839  
G01 Z-0.1778 F254   
G01 X-26.6729 Y1.9444  F508   
G01 X-26.3764 Y2.2409  
G01 X-26.3093 Y2.4028  
G01 X-26.2773 Y2.4800  
G01 X-26.2264 Y2.5463  
G01 X-26.1894 Y2.5747  
G01 X-26.1601 Y2.5972  
G01 X-26.0829 Y2.6292  
G01 X-26.0000 Y2.6401  
G01 X-25.9171 Y2.6292  
G01 X-25.8399 Y2.5972  
G01 X-25.7736 Y2.5463  
G01 X-25.7452 Y2.5093  
G01 X-25.7227 Y2.4800  
G01 X-25.6907 Y2.4028  
G01 X-25.6236 Y2.2409  
G01 X-25.3271 Y1.9444  
G01 X-24.9397 Y1.7839  
G01 X-24.5203 Y1.7839  
G01 X-24.1329 Y1.9444  
G01 X-23.8364 Y2.2409  
G01 X-23.7693 Y2.4028  
G01 X-23.7373 Y2.4800  
G01 X-23.6864 Y2.5463  
G01 X-23.6494 Y2.5747  
G01 X-23.6201 Y2.5972  
G01 X-23.5429 Y2.6292  
G01 X-23.4600 Y2.6401  
G01 X-23.3771 Y2.6292  
G01 X-23.2999 Y2.5972  
G01 X-23.2336 Y2.5463  
G01 X-23.2052 Y2.5093  
G01 X-23.1827 Y2.4800  
G01 X-23.1507 Y2.4028  
G01 X-23.0836 Y2.2409  
G01 X-22.7871 Y1.9444  
G01 X-22.3997 Y1.7839  
G01 X-21.9803 Y1.7839  
G01 X-21.8535 Y1.8364  
G01 X-21.8353 Y1.8469  
G01 X-21.8151 Y1.8523  
G01 X-21.7957 Y1.8604  
G01 X-21.7749 Y1.8631  
G01 X-21.7546 Y1.8686  
G01 X-21.7336 Y1.8686  
G01 X-21.7128 Y1.8713  
G01 X-21.6920 Y1.8686  
G01 X-21.6710 Y1.8686  
G01 X-21.6507 Y1.8631  
G01 X-21.6299 Y1.8604  
G01 X-21.6105 Y1.8523  
G01 X-21.5902 Y1.8469  
G01 X-21.5721 Y1.8364  
G01 X-21.5527 Y1.8284  
G01 X-21.5360 Y1.8156  
G01 X-21.5178 Y1.8051  
G01 X-21.5030 Y1.7903  
G01 X-21.4864 Y1.7775  
G01 X-21.4736 Y1.7608  
G01 X-21.4587 Y1.7460  
G01 X-21.4482 Y1.7278  
G01 X-21.4355 Y1.7112  
G01 X-21.4274 Y1.6918  
G01 X-21.4169 Y1.6736  
G01 X-21.4115 Y1.6533  
G01 X-21.4035 Y1.6339  
G01 X-21.4007 Y1.6131  
G01 X-21.3953 Y1.5929  
G01 X-21.3953 Y1.5719  
G01 X-21.3926 Y1.5511  
G01 X-21.3953 Y1.5302  
G01 X-21.3953 Y1.2804  
G01 X-21.3916 Y1.2478  
G01 X-21.3843 Y1.2158  
G01 X-21.3735 Y1.1848  
G01 X-21.3593 Y1.1554  
G01 X-21.3457 Y1.1338  
G01 X-21.3439 Y1.1279  
G01 X-21.3408 Y1.1226  
G01 X-21.3374 Y1.1099  
G01 X-21.3334 Y1.1016  
G01 X-21.3297 Y1.0820  
G01 X-21.3210 Y1.0539  
G01 X-21.3208 Y1.0478  
G01 X-21.3192 Y1.0418  
G01 X-21.3192 Y1.0264  
G01 X-21.3178 Y1.0194  
G01 X-21.3190 Y1.0033  
G01 X-21.3178 Y0.9704  
G01 X-21.3192 Y0.9644  
G01 X-21.3192 Y0.9582  
G01 X-21.3237 Y0.9413  
G01 X-21.3241 Y0.9360  
G01 X-21.3284 Y0.9238  
G01 X-21.3363 Y0.8889  
G01 X-21.3392 Y0.8834  
G01 X-21.3408 Y0.8774  
G01 X-21.3504 Y0.8607  
G01 X-21.3517 Y0.8571  
G01 X-21.3571 Y0.8493  
G01 X-21.3587 Y0.8465  
G01 X-21.3753 Y0.8149  
G01 X-21.3795 Y0.8104  
G01 X-21.3826 Y0.8051  
G01 X-21.3971 Y0.7905  
G01 X-21.4044 Y0.7832  
G01 X-21.4078 Y0.7798  
G01 X-21.4321 Y0.7536  
G01 X-21.4374 Y0.7503  
G01 X-21.4417 Y0.7459  
G01 X-21.4601 Y0.7353  
G01 X-21.4684 Y0.7306  
G01 X-21.4726 Y0.7281  
G01 X-21.5029 Y0.7090  
G01 X-21.5088 Y0.7072  
G01 X-21.5141 Y0.7041  
G01 X-21.5346 Y0.6986  
G01 X-21.5375 Y0.6973  
G01 X-21.5452 Y0.6958  
G01 X-21.5486 Y0.6949  
G01 X-21.5827 Y0.6843  
G01 X-21.5889 Y0.6841  
G01 X-21.5949 Y0.6825  
G01 X-21.6155 Y0.6825  
G01 X-21.6196 Y0.6817  
G01 X-21.6300 Y0.6825  
G01 X-21.6663 Y0.6811  
G01 X-21.6723 Y0.6825  
G01 X-27.4368 Y0.6825  
G01 X-27.4428 Y0.6811  
G01 X-27.4785 Y0.6825  
G01 X-27.4895 Y0.6817  
G01 X-27.4936 Y0.6825  
G01 X-27.5142 Y0.6825  
G01 X-27.5202 Y0.6841  
G01 X-27.5263 Y0.6843  
G01 X-27.5605 Y0.6949  
G01 X-27.5639 Y0.6958  
G01 X-27.5716 Y0.6973  
G01 X-27.5744 Y0.6986  
G01 X-27.5950 Y0.7041  
G01 X-27.6003 Y0.7072  
G01 X-27.6062 Y0.7090  
G01 X-27.6365 Y0.7281  
G01 X-27.6407 Y0.7306  
G01 X-27.6469 Y0.7335  
G01 X-27.6674 Y0.7459  
G01 X-27.6717 Y0.7503  
G01 X-27.6769 Y0.7536  
G01 X-27.7012 Y0.7798  
G01 X-27.7047 Y0.7832  
G01 X-27.7103 Y0.7881  
G01 X-27.7265 Y0.8051  
G01 X-27.7296 Y0.8104  
G01 X-27.7338 Y0.8149  
G01 X-27.7504 Y0.8465  
G01 X-27.7520 Y0.8493  
G01 X-27.7574 Y0.8571  
G01 X-27.7586 Y0.8607  
G01 X-27.7683 Y0.8774  
G01 X-27.7699 Y0.8834  
G01 X-27.7728 Y0.8889  
G01 X-27.7807 Y0.9237  
G01 X-27.7850 Y0.9360  
G01 X-27.7854 Y0.9413  
G01 X-27.7899 Y0.9582  
G01 X-27.7899 Y0.9644  
G01 X-27.7913 Y0.9704  
G01 X-27.7900 Y1.0033  
G01 X-27.7912 Y1.0194  
G01 X-27.7899 Y1.0264  
G01 X-27.7899 Y1.0418  
G01 X-27.7883 Y1.0478  
G01 X-27.7881 Y1.0539  
G01 X-27.7794 Y1.0820  
G01 X-27.7757 Y1.1016  
G01 X-27.7717 Y1.1099  
G01 X-27.7683 Y1.1226  
G01 X-27.7652 Y1.1279  
G01 X-27.7634 Y1.1338  
G01 X-27.7498 Y1.1554  
G01 X-27.7356 Y1.1848  
G01 X-27.7248 Y1.2158  
G01 X-27.7174 Y1.2478  
G01 X-27.7138 Y1.2804  
G01 X-27.7138 Y1.5082  
G01 X-27.6921 Y1.5890  
G01 X-27.6503 Y1.6613  
G01 X-27.5912 Y1.7205  
G01 X-27.5188 Y1.7623  
G01 X-27.4381 Y1.7839  
G01 X-27.3545 Y1.7839  
G01 X-27.0603 Y1.7839  
G00 Z0.5000  
G00 X-33.2105 Y4.9922  
G01 Z-0.1778 F254   
G01 X-33.2436 Y4.9591  F508   
G01 X-33.3107 Y4.7972  
G01 X-33.3264 Y4.7593  
G01 X-33.3427 Y4.7200  
G01 X-33.3936 Y4.6537  
G01 X-33.4599 Y4.6028  
G01 X-33.4912 Y4.5898  
G01 X-33.5371 Y4.5708  
G01 X-33.6200 Y4.5599  
G01 X-33.7029 Y4.5708  
G01 X-33.7475 Y4.5892  
G01 X-33.7801 Y4.6028  
G01 X-33.8464 Y4.6537  
G01 X-33.8973 Y4.7200  
G01 X-33.9168 Y4.7669  
G01 X-33.9293 Y4.7972  
G01 X-33.9964 Y4.9591  
G01 X-34.0295 Y4.9922  
G01 X-34.0402 Y5.0107  
G01 X-34.0713 Y5.0646  
G01 X-34.0753 Y5.0796  
G01 X-34.0930 Y5.1454  
G01 X-34.0930 Y5.2290  
G01 X-34.0749 Y5.2965  
G01 X-34.0713 Y5.3097  
G01 X-34.0523 Y5.3428  
G01 X-34.0295 Y5.3821  
G01 X-33.9704 Y5.4413  
G01 X-33.9520 Y5.4519  
G01 X-33.8980 Y5.4831  
G01 X-33.8831 Y5.4871  
G01 X-33.8173 Y5.5047  
G01 X-33.4227 Y5.5047  
G01 X-33.3587 Y5.4875  
G01 X-33.3420 Y5.4831  
G01 X-33.2899 Y5.4530  
G01 X-33.2696 Y5.4413  
G01 X-33.2114 Y5.3831  
G01 X-33.1884 Y5.3439  
G01 X-33.1687 Y5.3098  
G01 X-33.1655 Y5.2980  
G01 X-33.1470 Y5.2290  
G01 X-33.1470 Y5.1454  
G01 X-33.1642 Y5.0814  
G01 X-33.1687 Y5.0646  
G01 X-33.1987 Y5.0126  
G01 X-33.2105 Y4.9923  
G00 Z0.5000  
G00 X-44.8403 Y1.7839  
G01 Z-0.1778 F254   
G01 X-44.4529 Y1.9444  F508   
G01 X-44.1564 Y2.2409  
G01 X-44.0893 Y2.4028  
G01 X-44.0776 Y2.4311  
G01 X-44.0573 Y2.4800  
G01 X-44.0064 Y2.5463  
G01 X-43.9401 Y2.5972  
G01 X-43.9088 Y2.6102  
G01 X-43.8629 Y2.6292  
G01 X-43.7800 Y2.6401  
G01 X-43.6971 Y2.6292  
G01 X-43.6525 Y2.6107  
G01 X-43.6199 Y2.5972  
G01 X-43.5536 Y2.5463  
G01 X-43.5027 Y2.4800  
G01 X-43.4870 Y2.4423  
G01 X-43.4707 Y2.4028  
G01 X-43.4036 Y2.2409  
G01 X-43.1071 Y1.9444  
G01 X-42.7197 Y1.7839  
G01 X-42.3003 Y1.7839  
G01 X-41.9129 Y1.9444  
G01 X-41.6164 Y2.2409  
G01 X-41.5493 Y2.4028  
G01 X-41.5376 Y2.4311  
G01 X-41.5173 Y2.4800  
G01 X-41.4664 Y2.5463  
G01 X-41.4001 Y2.5972  
G01 X-41.3688 Y2.6102  
G01 X-41.3229 Y2.6292  
G01 X-41.2400 Y2.6401  
G01 X-41.1571 Y2.6292  
G01 X-41.1125 Y2.6107  
G01 X-41.0799 Y2.5972  
G01 X-41.0136 Y2.5463  
G01 X-40.9627 Y2.4800  
G01 X-40.9470 Y2.4423  
G01 X-40.9307 Y2.4028  
G01 X-40.8636 Y2.2409  
G01 X-40.5671 Y1.9444  
G01 X-40.1797 Y1.7839  
G01 X-39.7603 Y1.7839  
G01 X-39.3729 Y1.9444  
G01 X-39.2541 Y2.0632  
G01 X-39.2382 Y2.0791  
G01 X-39.1949 Y2.1223  
G01 X-39.0764 Y2.2409  
