(.../Program Files (x86)/EAGLE-6.5.0/ulp/pcb-gcode.ulp)
(Copyright 2005 - 2012 by John Johnson)
(See readme.txt for licensing terms.)
(This file generated from the board:)
(.../Eagle Designs/Atmega8/Atmega.brd)
(Current profile is .../EAGLE-6.5.0/ulp/profiles/mach.pp  )
(This file generated 31/10/2013 2:30:24 PM)
(Settings from pcb-machine.h)
(  Tool Size)
(0.1000  )
(Z Axis Settings)
(  High     Up        Down     Drill)
(1.2000  	1.2000  	-0.1778 	-0.8128 )
(spindle on time = 3.0000)
(milling depth = -0.2540)
(text depth = -0.1270)
(tool change at 12.7000 15.2400 25.4000 )
(feed rate xy = F508   )
(feed rate z  = F254   )
(Settings from pcb-defaults.h)
(isolate min = 0.0254)
(isolate max = 0.5080)
(isolate step = 0.1270)
(Generated top outlines, top drill, )
(Unit of measure: mm)
(Metric Mode)
G21
(Absolute Coordinates)
G90
G00 X0.0000  Y0.0000  
M03
G04 P3.000000
G00 Z1.2000  
G00 X10.4889 Y32.0901 
G01 Z-0.1778 F254   
G01 X10.4889 Y34.6099 F508   
G01 X10.4837 Y34.6291 
G01 X10.4738 Y34.6463 
G01 X10.4598 Y34.6603 
G01 X10.4426 Y34.6703 
G01 X10.4234 Y34.6754 
G01 X0.7901  Y34.6754 
G01 X0.7709  Y34.6703 
G01 X0.7537  Y34.6603 
G01 X0.7397  Y34.6463 
G01 X0.7297  Y34.6291 
G01 X0.7246  Y34.6099 
G01 X0.7246  Y32.0901 
G01 X0.7297  Y32.0709 
G01 X0.7397  Y32.0537 
G01 X0.7537  Y32.0397 
G01 X0.7709  Y32.0297 
G01 X0.7901  Y32.0246 
G01 X10.4234 Y32.0246 
G01 X10.4426 Y32.0297 
G01 X10.4598 Y32.0397 
G01 X10.4738 Y32.0537 
G01 X10.4837 Y32.0709 
G01 X10.4889 Y32.0901 
G00 Z1.2000  
G00 X8.3867  Y29.9332 
G01 Z-0.1778 F254   
G01 X10.0757 Y29.9332 F508   
G01 X10.2375 Y29.9654 
G01 X10.3899 Y30.0285 
G01 X10.5270 Y30.1201 
G01 X10.6437 Y30.2368 
G01 X10.7353 Y30.3739 
G01 X10.7984 Y30.5263 
G01 X10.8306 Y30.6881 
G01 X10.8306 Y30.8531 
G01 X10.7984 Y31.0149 
G01 X10.7353 Y31.1673 
G01 X10.6437 Y31.3044 
G01 X10.5270 Y31.4211 
G01 X10.3899 Y31.5127 
G01 X10.2375 Y31.5758 
G01 X10.0757 Y31.6080 
G01 X8.3867  Y31.6080 
G01 X8.2249  Y31.5758 
G01 X8.0725  Y31.5127 
G01 X7.9354  Y31.4211 
G01 X7.8187  Y31.3044 
G01 X7.7271  Y31.1673 
G01 X7.6640  Y31.0149 
G01 X7.6318  Y30.8531 
G01 X7.6318  Y30.6881 
G01 X7.6640  Y30.5263 
G01 X7.7271  Y30.3739 
G01 X7.8187  Y30.2368 
G01 X7.9354  Y30.1201 
G01 X8.0725  Y30.0285 
G01 X8.2249  Y29.9654 
G01 X8.3867  Y29.9332 
G00 Z1.2000  
G00 X1.8843  Y25.4120 
G01 Z-0.1778 F254   
G01 X3.5733  Y25.4120 F508   
G01 X3.7351  Y25.4442 
G01 X3.8875  Y25.5073 
G01 X4.0246  Y25.5989 
G01 X4.1413  Y25.7156 
G01 X4.2329  Y25.8527 
G01 X4.2960  Y26.0051 
G01 X4.3282  Y26.1669 
G01 X4.3282  Y26.3319 
G01 X4.2960  Y26.4937 
G01 X4.2329  Y26.6461 
G01 X4.1413  Y26.7832 
G01 X4.0246  Y26.8999 
G01 X3.8875  Y26.9915 
G01 X3.7351  Y27.0546 
G01 X3.5733  Y27.0868 
G01 X1.8843  Y27.0868 
G01 X1.7225  Y27.0546 
G01 X1.5701  Y26.9915 
G01 X1.4330  Y26.8999 
G01 X1.3163  Y26.7832 
G01 X1.2247  Y26.6461 
G01 X1.1616  Y26.4937 
G01 X1.1294  Y26.3319 
G01 X1.1294  Y26.1669 
G01 X1.1616  Y26.0051 
G01 X1.2247  Y25.8527 
G01 X1.3163  Y25.7156 
G01 X1.4330  Y25.5989 
G01 X1.5701  Y25.5073 
G01 X1.7225  Y25.4442 
G01 X1.8843  Y25.4120 
G00 Z1.2000  
G00 X1.8843  Y29.9332 
G01 Z-0.1778 F254   
G01 X3.5733  Y29.9332 F508   
G01 X3.7351  Y29.9654 
G01 X3.8875  Y30.0285 
G01 X4.0246  Y30.1201 
G01 X4.1413  Y30.2368 
G01 X4.2329  Y30.3739 
G01 X4.2960  Y30.5263 
G01 X4.3282  Y30.6881 
G01 X4.3282  Y30.8531 
G01 X4.2960  Y31.0149 
G01 X4.2329  Y31.1673 
G01 X4.1413  Y31.3044 
G01 X4.0246  Y31.4211 
G01 X3.8875  Y31.5127 
G01 X3.7351  Y31.5758 
G01 X3.5733  Y31.6080 
G01 X1.8843  Y31.6080 
G01 X1.7225  Y31.5758 
G01 X1.5701  Y31.5127 
G01 X1.4330  Y31.4211 
G01 X1.3163  Y31.3044 
G01 X1.2247  Y31.1673 
G01 X1.1616  Y31.0149 
G01 X1.1294  Y30.8531 
G01 X1.1294  Y30.6881 
G01 X1.1616  Y30.5263 
G01 X1.2247  Y30.3739 
G01 X1.3163  Y30.2368 
G01 X1.4330  Y30.1201 
G01 X1.5701  Y30.0285 
G01 X1.7225  Y29.9654 
G01 X1.8843  Y29.9332 
G00 Z1.2000  
G00 X9.8154  Y10.9950 
G01 Z-0.1778 F254   
G01 X9.8154  Y13.0250 F508   
G01 X9.8039  Y13.0527 
G01 X9.7827  Y13.0739 
G01 X9.7550  Y13.0854 
G01 X6.4250  Y13.0854 
G01 X6.3973  Y13.0739 
G01 X6.3761  Y13.0527 
G01 X6.3646  Y13.0250 
G01 X6.3646  Y12.2886 
G01 X3.5154  Y12.2886 
G01 X3.5154  Y13.0250 
G01 X3.5039  Y13.0527 
G01 X3.4827  Y13.0739 
G01 X3.4550  Y13.0854 
G01 X2.4686  Y13.0854 
G01 X2.4686  Y18.8746 
G01 X3.0950  Y18.8746 
G01 X3.1227  Y18.8861 
G01 X3.1439  Y18.9073 
G01 X3.1554  Y18.9350 
G01 X3.1554  Y20.5650 
G01 X3.1439  Y20.5927 
G01 X3.1227  Y20.6139 
G01 X3.0950  Y20.6254 
G01 X1.7650  Y20.6254 
G01 X1.7373  Y20.6139 
G01 X1.7161  Y20.5927 
G01 X1.7046  Y20.5650 
G01 X1.7046  Y18.9350 
G01 X1.7161  Y18.9073 
G01 X1.7373  Y18.8861 
G01 X1.7650  Y18.8746 
G01 X1.9114  Y18.8746 
G01 X1.9114  Y13.0854 
G01 X0.9250  Y13.0854 
G01 X0.8973  Y13.0739 
G01 X0.8761  Y13.0527 
G01 X0.8646  Y13.0250 
G01 X0.8646  Y10.9950 
G01 X0.8761  Y10.9673 
G01 X0.8973  Y10.9461 
G01 X0.9250  Y10.9346 
G01 X1.9114  Y10.9346 
G01 X1.9114  Y4.1854  
G01 X0.9250  Y4.1854  
G01 X0.8973  Y4.1739  
G01 X0.8761  Y4.1527  
G01 X0.8646  Y4.1250  
G01 X0.8646  Y2.0950  
G01 X0.8761  Y2.0673  
G01 X0.8973  Y2.0461  
G01 X0.9250  Y2.0346  
G01 X3.4550  Y2.0346  
G01 X3.4827  Y2.0461  
G01 X3.5039  Y2.0673  
G01 X3.5154  Y2.0950  
G01 X3.5154  Y2.8314  
G01 X6.3646  Y2.8314  
G01 X6.3646  Y2.0950  
G01 X6.3761  Y2.0673  
G01 X6.3973  Y2.0461  
G01 X6.4250  Y2.0346  
G01 X9.7550  Y2.0346  
G01 X9.7827  Y2.0461  
G01 X9.8039  Y2.0673  
G01 X9.8154  Y2.0950  
G01 X9.8154  Y2.8314  
G01 X13.7326 Y2.8314  
G01 X13.7326 Y2.7455  
G01 X13.7648 Y2.5837  
G01 X13.8279 Y2.4313  
G01 X13.9195 Y2.2942  
G01 X14.0362 Y2.1775  
G01 X14.1733 Y2.0859  
G01 X14.3257 Y2.0228  
G01 X14.4875 Y1.9906  
G01 X14.6525 Y1.9906  
G01 X14.8143 Y2.0228  
G01 X14.9667 Y2.0859  
G01 X15.1038 Y2.1775  
G01 X15.2205 Y2.2942  
G01 X15.3121 Y2.4313  
G01 X15.3752 Y2.5837  
G01 X15.4074 Y2.7455  
G01 X15.4074 Y4.4345  
G01 X15.3752 Y4.5963  
G01 X15.3121 Y4.7487  
G01 X15.2205 Y4.8858  
G01 X15.1038 Y5.0025  
G01 X14.9667 Y5.0941  
G01 X14.8486 Y5.1430  
G01 X14.8486 Y5.2667  
G01 X14.8296 Y5.3375  
G01 X14.7929 Y5.4011  
G01 X14.0786 Y6.1154  
G01 X14.0786 Y6.6146  
G01 X14.3750 Y6.6146  
G01 X14.4027 Y6.6261  
G01 X14.4239 Y6.6473  
G01 X14.4354 Y6.6750  
G01 X14.4354 Y7.9050  
G01 X14.4239 Y7.9327  
G01 X14.4027 Y7.9539  
G01 X14.3750 Y7.9654  
G01 X13.3450 Y7.9654  
G01 X13.3173 Y7.9539  
G01 X13.2961 Y7.9327  
G01 X13.2846 Y7.9050  
G01 X13.2846 Y6.6750  
G01 X13.2961 Y6.6473  
G01 X13.3173 Y6.6261  
G01 X13.3450 Y6.6146  
G01 X13.5214 Y6.6146  
G01 X13.5214 Y5.9633  
G01 X13.5404 Y5.8925  
G01 X13.5771 Y5.8289  
G01 X13.6289 Y5.7771  
G01 X14.2713 Y5.1347  
G01 X14.1733 Y5.0941  
G01 X14.0362 Y5.0025  
G01 X13.9195 Y4.8858  
G01 X13.8279 Y4.7487  
G01 X13.7648 Y4.5963  
G01 X13.7326 Y4.4345  
G01 X13.7326 Y3.3886  
G01 X9.8154  Y3.3886  
G01 X9.8154  Y4.1250  
G01 X9.8039  Y4.1527  
G01 X9.7827  Y4.1739  
G01 X9.7550  Y4.1854  
G01 X8.3686  Y4.1854  
G01 X8.3686  Y5.6346  
G01 X9.7550  Y5.6346  
G01 X9.7827  Y5.6461  
G01 X9.8039  Y5.6673  
G01 X9.8154  Y5.6950  
G01 X9.8154  Y6.2250  
G01 X9.8039  Y6.2527  
G01 X9.7827  Y6.2739  
G01 X9.7550  Y6.2854  
G01 X6.6250  Y6.2854  
G01 X6.5973  Y6.2739  
G01 X6.5761  Y6.2527  
G01 X6.5646  Y6.2250  
G01 X6.5646  Y5.6950  
G01 X6.5761  Y5.6673  
G01 X6.5973  Y5.6461  
G01 X6.6250  Y5.6346  
G01 X7.8114  Y5.6346  
G01 X7.8114  Y4.1854  
G01 X6.4250  Y4.1854  
G01 X6.3973  Y4.1739  
G01 X6.3761  Y4.1527  
G01 X6.3646  Y4.1250  
G01 X6.3646  Y3.3886  
G01 X3.5154  Y3.3886  
G01 X3.5154  Y4.1250  
G01 X3.5039  Y4.1527  
G01 X3.4827  Y4.1739  
G01 X3.4550  Y4.1854  
G01 X2.4686  Y4.1854  
G01 X2.4686  Y10.9346 
G01 X3.4550  Y10.9346 
G01 X3.4827  Y10.9461 
G01 X3.5039  Y10.9673 
G01 X3.5154  Y10.9950 
G01 X3.5154  Y11.7314 
G01 X6.3646  Y11.7314 
G01 X6.3646  Y10.9950 
G01 X6.3761  Y10.9673 
G01 X6.3973  Y10.9461 
G01 X6.4250  Y10.9346 
G01 X9.7550  Y10.9346 
G01 X9.7827  Y10.9461 
G01 X9.8039  Y10.9673 
G01 X9.8154  Y10.9950 
G00 Z1.2000  
G00 X9.8154  Y8.8950  
G01 Z-0.1778 F254   
G01 X9.8154  Y9.4250  F508   
G01 X9.8039  Y9.4527  
G01 X9.7827  Y9.4739  
G01 X9.7550  Y9.4854  
G01 X6.6250  Y9.4854  
G01 X6.5973  Y9.4739  
G01 X6.5761  Y9.4527  
G01 X6.5646  Y9.4250  
G01 X6.5646  Y8.8950  
G01 X6.5761  Y8.8673  
G01 X6.5973  Y8.8461  
G01 X6.6250  Y8.8346  
G01 X9.7550  Y8.8346  
G01 X9.7827  Y8.8461  
G01 X9.8039  Y8.8673  
G01 X9.8154  Y8.8950  
G00 Z1.2000  
G00 X9.8154  Y8.0950  
G01 Z-0.1778 F254   
G01 X9.8154  Y8.6250  F508   
G01 X9.8039  Y8.6527  
G01 X9.7827  Y8.6739  
G01 X9.7550  Y8.6854  
G01 X6.6250  Y8.6854  
G01 X6.5973  Y8.6739  
G01 X6.5761  Y8.6527  
G01 X6.5646  Y8.6250  
G01 X6.5646  Y8.0950  
G01 X6.5761  Y8.0673  
G01 X6.5973  Y8.0461  
G01 X6.6250  Y8.0346  
G01 X9.7550  Y8.0346  
G01 X9.7827  Y8.0461  
G01 X9.8039  Y8.0673  
G01 X9.8154  Y8.0950  
G00 Z1.2000  
G00 X9.8154  Y7.2950  
G01 Z-0.1778 F254   
G01 X9.8154  Y7.8250  F508   
G01 X9.8039  Y7.8527  
G01 X9.7827  Y7.8739  
G01 X9.7550  Y7.8854  
G01 X6.6250  Y7.8854  
G01 X6.5973  Y7.8739  
G01 X6.5761  Y7.8527  
G01 X6.5646  Y7.8250  
G01 X6.5646  Y7.2950  
G01 X6.5761  Y7.2673  
G01 X6.5973  Y7.2461  
G01 X6.6250  Y7.2346  
G01 X9.7550  Y7.2346  
G01 X9.7827  Y7.2461  
G01 X9.8039  Y7.2673  
G01 X9.8154  Y7.2950  
G00 Z1.2000  
G00 X15.0650 Y12.4454 
G01 Z-0.1778 F254   
G01 X13.8350 Y12.4454 F508   
G01 X13.8073 Y12.4339 
G01 X13.7861 Y12.4127 
G01 X13.7746 Y12.3850 
G01 X13.7746 Y11.3550 
G01 X13.7861 Y11.3273 
G01 X13.8073 Y11.3061 
G01 X13.8350 Y11.2946 
G01 X15.0650 Y11.2946 
G01 X15.0927 Y11.3061 
G01 X15.1139 Y11.3273 
G01 X15.1254 Y11.3550 
G01 X15.1254 Y11.6354 
G01 X16.9594 Y11.6354 
G01 X16.9594 Y9.2320  
G01 X16.9709 Y9.2043  
G01 X16.9921 Y9.1831  
G01 X17.0198 Y9.1716  
G01 X18.9802 Y9.1716  
G01 X19.0079 Y9.1831  
G01 X19.0291 Y9.2043  
G01 X19.0406 Y9.2320  
G01 X19.0406 Y11.6354 
G01 X21.9581 Y11.6354 
G01 X22.0289 Y11.6544 
G01 X22.0925 Y11.6911 
G01 X24.3466 Y13.9452 
G01 X24.9574 Y13.9452 
G01 X24.9851 Y13.9567 
G01 X25.0063 Y13.9779 
G01 X25.0178 Y14.0056 
G01 X25.0178 Y14.5944 
G01 X25.0063 Y14.6221 
G01 X24.9851 Y14.6433 
G01 X24.9574 Y14.6548 
G01 X23.6574 Y14.6548 
G01 X23.6297 Y14.6433 
G01 X23.6085 Y14.6221 
G01 X23.5970 Y14.5944 
G01 X23.5970 Y14.0056 
G01 X23.6034 Y13.9900 
G01 X21.8060 Y12.1926 
G01 X19.0406 Y12.1926 
G01 X19.0406 Y14.5960 
G01 X19.0291 Y14.6237 
G01 X19.0079 Y14.6449 
G01 X18.9802 Y14.6564 
G01 X17.0198 Y14.6564 
G01 X16.9921 Y14.6449 
G01 X16.9709 Y14.6237 
G01 X16.9594 Y14.5960 
G01 X16.9594 Y12.1926 
G01 X15.1254 Y12.1926 
G01 X15.1254 Y12.3850 
G01 X15.1139 Y12.4127 
G01 X15.0927 Y12.4339 
G01 X15.0650 Y12.4454 
G00 Z1.2000  
G00 X15.2846 Y7.9050  
G01 Z-0.1778 F254   
G01 X15.2846 Y6.6750  F508   
G01 X15.2961 Y6.6473  
G01 X15.3173 Y6.6261  
G01 X15.3450 Y6.6146  
G01 X15.7914 Y6.6146  
G01 X16.8214 Y5.5846  
G01 X16.8214 Y5.1389  
G01 X16.7133 Y5.0941  
G01 X16.5762 Y5.0025  
G01 X16.4595 Y4.8858  
G01 X16.3679 Y4.7487  
G01 X16.3048 Y4.5963  
G01 X16.2726 Y4.4345  
G01 X16.2726 Y2.7455  
G01 X16.3048 Y2.5837  
G01 X16.3679 Y2.4313  
G01 X16.4595 Y2.2942  
G01 X16.5762 Y2.1775  
G01 X16.7133 Y2.0859  
G01 X16.8657 Y2.0228  
G01 X17.0275 Y1.9906  
G01 X17.1925 Y1.9906  
G01 X17.3543 Y2.0228  
G01 X17.5067 Y2.0859  
G01 X17.6438 Y2.1775  
G01 X17.7605 Y2.2942  
G01 X17.8521 Y2.4313  
G01 X17.9152 Y2.5837  
G01 X17.9474 Y2.7455  
G01 X17.9474 Y4.4345  
G01 X17.9152 Y4.5963  
G01 X17.8521 Y4.7487  
G01 X17.7605 Y4.8858  
G01 X17.6438 Y5.0025  
G01 X17.5067 Y5.0941  
G01 X17.3786 Y5.1471  
G01 X17.3786 Y5.7367  
G01 X17.3596 Y5.8075  
G01 X17.3229 Y5.8711  
G01 X17.2711 Y5.9229  
G01 X16.4354 Y6.7586  
G01 X16.4354 Y7.9050  
G01 X16.4239 Y7.9327  
G01 X16.4027 Y7.9539  
G01 X16.3750 Y7.9654  
G01 X16.1386 Y7.9654  
G01 X16.1386 Y8.4767  
G01 X16.1196 Y8.5475  
G01 X16.0829 Y8.6111  
G01 X16.0311 Y8.6629  
G01 X15.9229 Y8.7711  
G01 X15.8711 Y8.8229  
G01 X15.8075 Y8.8596  
G01 X15.7367 Y8.8786  
G01 X11.2786 Y8.8786  
G01 X11.2786 Y13.6367 
G01 X11.2596 Y13.7075 
G01 X11.2229 Y13.7711 
G01 X11.1711 Y13.8229 
G01 X10.5686 Y14.4254 
G01 X10.5686 Y17.4346 
G01 X11.0550 Y17.4346 
G01 X11.0827 Y17.4461 
G01 X11.1039 Y17.4673 
G01 X11.1154 Y17.4950 
G01 X11.1154 Y20.1250 
G01 X11.1039 Y20.1527 
G01 X11.0827 Y20.1739 
G01 X11.0550 Y20.1854 
G01 X9.5250  Y20.1854 
G01 X9.4973  Y20.1739 
G01 X9.4761  Y20.1527 
G01 X9.4646  Y20.1250 
G01 X9.4646  Y17.4950 
G01 X9.4761  Y17.4673 
G01 X9.4973  Y17.4461 
G01 X9.5250  Y17.4346 
G01 X10.0114 Y17.4346 
G01 X10.0114 Y14.2733 
G01 X10.0304 Y14.2025 
G01 X10.0671 Y14.1389 
G01 X10.7214 Y13.4846 
G01 X10.7214 Y7.3154  
G01 X10.4846 Y7.0786  
G01 X9.7714  Y7.0786  
G01 X9.7550  Y7.0854  
G01 X6.6250  Y7.0854  
G01 X6.5973  Y7.0739  
G01 X6.5761  Y7.0527  
G01 X6.5646  Y7.0250  
G01 X6.5646  Y6.4950  
G01 X6.5761  Y6.4673  
G01 X6.5973  Y6.4461  
G01 X6.6250  Y6.4346  
G01 X9.7550  Y6.4346  
G01 X9.7827  Y6.4461  
G01 X9.8039  Y6.4673  
G01 X9.8154  Y6.4950  
G01 X9.8154  Y6.5214  
G01 X10.6367 Y6.5214  
G01 X10.7075 Y6.5404  
G01 X10.7711 Y6.5771  
G01 X10.8229 Y6.6289  
G01 X11.2229 Y7.0289  
G01 X11.2596 Y7.0925  
G01 X11.2786 Y7.1633  
G01 X11.2786 Y8.3214  
G01 X15.5814 Y8.3214  
G01 X15.5814 Y7.9654  
G01 X15.3450 Y7.9654  
G01 X15.3173 Y7.9539  
G01 X15.2961 Y7.9327  
G01 X15.2846 Y7.9050  
G00 Z1.2000  
G00 X5.0554  Y18.9350 
G01 Z-0.1778 F254   
G01 X5.0554  Y20.5650 F508   
G01 X5.0439  Y20.5927 
G01 X5.0227  Y20.6139 
G01 X4.9950  Y20.6254 
G01 X3.6650  Y20.6254 
G01 X3.6373  Y20.6139 
G01 X3.6161  Y20.5927 
G01 X3.6046  Y20.5650 
G01 X3.6046  Y18.9350 
G01 X3.6161  Y18.9073 
G01 X3.6373  Y18.8861 
G01 X3.6650  Y18.8746 
G01 X4.0514  Y18.8746 
G01 X4.0514  Y18.1333 
G01 X4.0704  Y18.0625 
G01 X4.1071  Y17.9989 
G01 X4.6771  Y17.4289 
G01 X4.7289  Y17.3771 
G01 X4.7925  Y17.3404 
G01 X4.8633  Y17.3214 
G01 X5.7167  Y17.3214 
G01 X5.7875  Y17.3404 
G01 X5.8511  Y17.3771 
G01 X6.0646  Y17.5906 
G01 X6.0646  Y17.4950 
G01 X6.0761  Y17.4673 
G01 X6.0973  Y17.4461 
G01 X6.1250  Y17.4346 
G01 X7.6550  Y17.4346 
G01 X7.6827  Y17.4461 
G01 X7.7039  Y17.4673 
G01 X7.7154  Y17.4950 
G01 X7.7154  Y20.1250 
G01 X7.7039  Y20.1527 
G01 X7.6827  Y20.1739 
G01 X7.6550  Y20.1854 
G01 X6.1250  Y20.1854 
G01 X6.0973  Y20.1739 
G01 X6.0761  Y20.1527 
G01 X6.0646  Y20.1250 
G01 X6.0646  Y18.3786 
G01 X5.5646  Y17.8786 
G01 X5.0154  Y17.8786 
G01 X4.6086  Y18.2854 
G01 X4.6086  Y18.8746 
G01 X4.9950  Y18.8746 
G01 X5.0227  Y18.8861 
G01 X5.0439  Y18.9073 
G01 X5.0554  Y18.9350 
G00 Z1.2000  
G00 X46.1274 Y30.7555 
G01 Z-0.1778 F254   
G01 X46.1274 Y32.4445 F508   
G01 X46.0952 Y32.6063 
G01 X46.0321 Y32.7587 
G01 X45.9405 Y32.8958 
G01 X45.8238 Y33.0125 
G01 X45.6867 Y33.1041 
G01 X45.5343 Y33.1672 
G01 X45.3725 Y33.1994 
G01 X45.2075 Y33.1994 
G01 X45.0457 Y33.1672 
G01 X44.8933 Y33.1041 
G01 X44.7562 Y33.0125 
G01 X44.6395 Y32.8958 
G01 X44.5479 Y32.7587 
G01 X44.4848 Y32.6063 
G01 X44.4526 Y32.4445 
G01 X44.4526 Y30.7555 
G01 X44.4848 Y30.5937 
G01 X44.4892 Y30.5832 
G01 X42.9846 Y29.0786 
G01 X41.4633 Y29.0786 
G01 X41.3925 Y29.0596 
G01 X41.3289 Y29.0229 
G01 X36.3846 Y24.0786 
G01 X35.4633 Y24.0786 
G01 X35.3925 Y24.0596 
G01 X35.3289 Y24.0229 
G01 X33.6289 Y22.3229 
G01 X33.5771 Y22.2711 
G01 X33.5404 Y22.2075 
G01 X33.5214 Y22.1367 
G01 X33.5214 Y21.0633 
G01 X33.5404 Y20.9925 
G01 X33.5771 Y20.9289 
G01 X34.3214 Y20.1846 
G01 X34.3214 Y19.7154 
G01 X33.9846 Y19.3786 
G01 X33.6030 Y19.3786 
G01 X33.6030 Y19.3944 
G01 X33.5915 Y19.4221 
G01 X33.5703 Y19.4433 
G01 X33.5426 Y19.4548 
G01 X32.2426 Y19.4548 
G01 X32.2149 Y19.4433 
G01 X32.1937 Y19.4221 
G01 X32.1822 Y19.3944 
G01 X32.1822 Y18.8056 
G01 X32.1937 Y18.7779 
G01 X32.2149 Y18.7567 
G01 X32.2426 Y18.7452 
G01 X33.5426 Y18.7452 
G01 X33.5703 Y18.7567 
G01 X33.5915 Y18.7779 
G01 X33.6030 Y18.8056 
G01 X33.6030 Y18.8214 
G01 X34.1367 Y18.8214 
G01 X34.2075 Y18.8404 
G01 X34.2711 Y18.8771 
G01 X34.3229 Y18.9289 
G01 X34.8229 Y19.4289 
G01 X34.8596 Y19.4925 
G01 X34.8786 Y19.5633 
G01 X34.8786 Y20.3367 
G01 X34.8596 Y20.4075 
G01 X34.8229 Y20.4711 
G01 X34.7711 Y20.5229 
G01 X34.0786 Y21.2154 
G01 X34.0786 Y21.9846 
G01 X35.6154 Y23.5214 
G01 X36.5367 Y23.5214 
G01 X36.6075 Y23.5404 
G01 X36.6711 Y23.5771 
G01 X36.7229 Y23.6289 
G01 X41.6154 Y28.5214 
G01 X43.1367 Y28.5214 
G01 X43.2075 Y28.5404 
G01 X43.2711 Y28.5771 
G01 X43.3229 Y28.6289 
G01 X44.8313 Y30.1373 
G01 X44.8933 Y30.0959 
G01 X45.0457 Y30.0328 
G01 X45.2075 Y30.0006 
G01 X45.3725 Y30.0006 
G01 X45.5343 Y30.0328 
G01 X45.6867 Y30.0959 
G01 X45.8238 Y30.1875 
G01 X45.9405 Y30.3042 
G01 X46.0321 Y30.4413 
G01 X46.0952 Y30.5937 
G01 X46.1274 Y30.7555 
G00 Z1.2000  
G00 X43.5874 Y30.7555 
G01 Z-0.1778 F254   
G01 X43.5874 Y32.4445 F508   
G01 X43.5552 Y32.6063 
G01 X43.4921 Y32.7587 
G01 X43.4004 Y32.8958 
G01 X43.2838 Y33.0125 
G01 X43.1467 Y33.1041 
G01 X42.9943 Y33.1672 
G01 X42.8325 Y33.1994 
G01 X42.6675 Y33.1994 
G01 X42.5057 Y33.1672 
G01 X42.3533 Y33.1041 
G01 X42.2162 Y33.0125 
G01 X42.0995 Y32.8958 
G01 X42.0079 Y32.7587 
G01 X41.9448 Y32.6063 
G01 X41.9126 Y32.4445 
G01 X41.9126 Y31.0066 
G01 X36.4846 Y25.5786 
G01 X35.5633 Y25.5786 
G01 X35.4925 Y25.5596 
G01 X35.4289 Y25.5229 
G01 X32.6771 Y22.7711 
G01 X32.6404 Y22.7075 
G01 X32.6214 Y22.6367 
G01 X32.6214 Y20.2548 
G01 X32.2426 Y20.2548 
G01 X32.2149 Y20.2433 
G01 X32.1937 Y20.2221 
G01 X32.1822 Y20.1944 
G01 X32.1822 Y19.6056 
G01 X32.1937 Y19.5779 
G01 X32.2149 Y19.5567 
G01 X32.2426 Y19.5452 
G01 X33.5426 Y19.5452 
G01 X33.5703 Y19.5567 
G01 X33.5915 Y19.5779 
G01 X33.6030 Y19.6056 
G01 X33.6030 Y20.1944 
G01 X33.5915 Y20.2221 
G01 X33.5703 Y20.2433 
G01 X33.5426 Y20.2548 
G01 X33.1786 Y20.2548 
G01 X33.1786 Y22.4846 
G01 X35.7154 Y25.0214 
G01 X36.6367 Y25.0214 
G01 X36.7075 Y25.0404 
G01 X36.7711 Y25.0771 
G01 X36.8229 Y25.1289 
G01 X42.0590 Y30.3650 
G01 X42.0995 Y30.3042 
G01 X42.2162 Y30.1875 
G01 X42.3533 Y30.0959 
G01 X42.5057 Y30.0328 
G01 X42.6675 Y30.0006 
G01 X42.8325 Y30.0006 
G01 X42.9943 Y30.0328 
G01 X43.1467 Y30.0959 
G01 X43.2838 Y30.1875 
G01 X43.4004 Y30.3042 
G01 X43.4921 Y30.4413 
G01 X43.5552 Y30.5937 
G01 X43.5874 Y30.7555 
G00 Z1.2000  
G00 X35.9674 Y30.7555 
G01 Z-0.1778 F254   
G01 X35.9674 Y32.4445 F508   
G01 X35.9352 Y32.6063 
G01 X35.8721 Y32.7587 
G01 X35.7805 Y32.8958 
G01 X35.6638 Y33.0125 
G01 X35.5267 Y33.1041 
G01 X35.3743 Y33.1672 
G01 X35.2125 Y33.1994 
G01 X35.0475 Y33.1994 
G01 X34.8857 Y33.1672 
G01 X34.7333 Y33.1041 
G01 X34.5962 Y33.0125 
G01 X34.4795 Y32.8958 
G01 X34.3879 Y32.7587 
G01 X34.3248 Y32.6063 
G01 X34.2926 Y32.4445 
G01 X34.2926 Y30.7555 
G01 X34.3248 Y30.5937 
G01 X34.3879 Y30.4413 
G01 X34.4795 Y30.3042 
G01 X34.5962 Y30.1875 
G01 X34.7333 Y30.0959 
G01 X34.8857 Y30.0328 
G01 X34.9300 Y30.0240 
G01 X34.7846 Y29.8786 
G01 X33.9633 Y29.8786 
G01 X33.8925 Y29.8596 
G01 X33.8289 Y29.8229 
G01 X33.7771 Y29.7711 
G01 X29.5771 Y25.5711 
G01 X29.5404 Y25.5075 
G01 X29.5214 Y25.4367 
G01 X29.5214 Y22.1030 
G01 X29.5056 Y22.1030 
G01 X29.4779 Y22.0915 
G01 X29.4567 Y22.0703 
G01 X29.4452 Y22.0426 
G01 X29.4452 Y20.7426 
G01 X29.4567 Y20.7149 
G01 X29.4779 Y20.6937 
G01 X29.5056 Y20.6822 
G01 X30.0944 Y20.6822 
G01 X30.1221 Y20.6937 
G01 X30.1433 Y20.7149 
G01 X30.1548 Y20.7426 
G01 X30.1548 Y22.0426 
G01 X30.1433 Y22.0703 
G01 X30.1221 Y22.0915 
G01 X30.0944 Y22.1030 
G01 X30.0786 Y22.1030 
G01 X30.0786 Y25.2846 
G01 X34.1154 Y29.3214 
G01 X34.9367 Y29.3214 
G01 X35.0075 Y29.3404 
G01 X35.0711 Y29.3771 
G01 X35.4711 Y29.7771 
G01 X35.5229 Y29.8289 
G01 X35.5596 Y29.8925 
G01 X35.5786 Y29.9633 
G01 X35.5786 Y30.1306 
G01 X35.6638 Y30.1875 
G01 X35.7805 Y30.3042 
G01 X35.8721 Y30.4413 
G01 X35.9352 Y30.5937 
G01 X35.9674 Y30.7555 
G00 Z1.2000  
G00 X33.4274 Y30.7555 
G01 Z-0.1778 F254   
G01 X33.4274 Y32.4445 F508   
G01 X33.3952 Y32.6063 
G01 X33.3321 Y32.7587 
G01 X33.2405 Y32.8958 
G01 X33.1238 Y33.0125 
G01 X32.9867 Y33.1041 
G01 X32.8343 Y33.1672 
G01 X32.6725 Y33.1994 
G01 X32.5075 Y33.1994 
G01 X32.3457 Y33.1672 
G01 X32.1933 Y33.1041 
G01 X32.0562 Y33.0125 
G01 X31.9395 Y32.8958 
G01 X31.8479 Y32.7587 
G01 X31.7848 Y32.6063 
G01 X31.7526 Y32.4445 
G01 X31.7526 Y30.7555 
G01 X31.7848 Y30.5937 
G01 X31.8479 Y30.4413 
G01 X31.9395 Y30.3042 
G01 X32.0158 Y30.2279 
G01 X31.8450 Y29.4390 
G01 X28.7771 Y26.3711 
G01 X28.7404 Y26.3075 
G01 X28.7214 Y26.2367 
G01 X28.7214 Y22.1030 
G01 X28.7056 Y22.1030 
G01 X28.6779 Y22.0915 
G01 X28.6567 Y22.0703 
G01 X28.6452 Y22.0426 
G01 X28.6452 Y20.7426 
G01 X28.6567 Y20.7149 
G01 X28.6779 Y20.6937 
G01 X28.7056 Y20.6822 
G01 X29.2944 Y20.6822 
G01 X29.3221 Y20.6937 
G01 X29.3433 Y20.7149 
G01 X29.3548 Y20.7426 
G01 X29.3548 Y22.0426 
G01 X29.3433 Y22.0703 
G01 X29.3221 Y22.0915 
G01 X29.2944 Y22.1030 
G01 X29.2786 Y22.1030 
G01 X29.2786 Y26.0846 
G01 X32.2759 Y29.0819 
G01 X32.2817 Y29.0856 
G01 X32.3018 Y29.1078 
G01 X32.3229 Y29.1289 
G01 X32.3264 Y29.1349 
G01 X32.3310 Y29.1400 
G01 X32.3447 Y29.1666 
G01 X32.3596 Y29.1925 
G01 X32.3614 Y29.1991 
G01 X32.3645 Y29.2052 
G01 X32.3709 Y29.2344 
G01 X32.3786 Y29.2633 
G01 X32.3786 Y29.2702 
G01 X32.5367 Y30.0006 
G01 X32.6725 Y30.0006 
G01 X32.8343 Y30.0328 
G01 X32.9867 Y30.0959 
G01 X33.1238 Y30.1875 
G01 X33.2405 Y30.3042 
G01 X33.3321 Y30.4413 
G01 X33.3952 Y30.5937 
G01 X33.4274 Y30.7555 
G00 Z1.2000  
G00 X30.8874 Y30.7555 
G01 Z-0.1778 F254   
G01 X30.8874 Y32.4445 F508   
G01 X30.8552 Y32.6063 
G01 X30.7921 Y32.7587 
G01 X30.7005 Y32.8958 
G01 X30.5838 Y33.0125 
G01 X30.4467 Y33.1041 
G01 X30.3416 Y33.1476 
G01 X31.1154 Y33.9214 
G01 X47.8825 Y33.9214 
G01 X48.2180 Y32.5795 
G01 X48.0327 Y30.7267 
G01 X43.9771 Y26.6711 
G01 X43.9404 Y26.6075 
G01 X43.9214 Y26.5367 
G01 X43.9214 Y22.2633 
G01 X43.9404 Y22.1925 
G01 X43.9771 Y22.1289 
G01 X44.0289 Y22.0771 
G01 X44.5289 Y21.5771 
G01 X44.5925 Y21.5404 
G01 X44.6633 Y21.5214 
G01 X46.2846 Y21.5214 
G01 X46.4214 Y21.3846 
G01 X46.4214 Y20.3154 
G01 X45.7846 Y19.6786 
G01 X41.8633 Y19.6786 
G01 X41.7925 Y19.6596 
G01 X41.7289 Y19.6229 
G01 X41.6771 Y19.5711 
G01 X40.4846 Y18.3786 
G01 X39.9633 Y18.3786 
G01 X39.8925 Y18.3596 
G01 X39.8289 Y18.3229 
G01 X39.7771 Y18.2711 
G01 X39.4846 Y17.9786 
G01 X37.3633 Y17.9786 
G01 X37.2925 Y17.9596 
G01 X37.2289 Y17.9229 
G01 X37.1771 Y17.8711 
G01 X35.4846 Y16.1786 
G01 X33.6030 Y16.1786 
G01 X33.6030 Y16.1944 
G01 X33.5915 Y16.2221 
G01 X33.5703 Y16.2433 
G01 X33.5426 Y16.2548 
G01 X32.2426 Y16.2548 
G01 X32.2149 Y16.2433 
G01 X32.1937 Y16.2221 
G01 X32.1822 Y16.1944 
G01 X32.1822 Y15.6056 
G01 X32.1937 Y15.5779 
G01 X32.2149 Y15.5567 
G01 X32.2426 Y15.5452 
G01 X33.5426 Y15.5452 
G01 X33.5703 Y15.5567 
G01 X33.5915 Y15.5779 
G01 X33.6030 Y15.6056 
G01 X33.6030 Y15.6214 
G01 X35.6367 Y15.6214 
G01 X35.7075 Y15.6404 
G01 X35.7711 Y15.6771 
G01 X37.5154 Y17.4214 
G01 X39.6367 Y17.4214 
G01 X39.7075 Y17.4404 
G01 X39.7711 Y17.4771 
G01 X40.1154 Y17.8214 
G01 X40.6367 Y17.8214 
G01 X40.7075 Y17.8404 
G01 X40.7711 Y17.8771 
G01 X40.8229 Y17.9289 
G01 X42.0154 Y19.1214 
G01 X45.9367 Y19.1214 
G01 X46.0075 Y19.1404 
G01 X46.0711 Y19.1771 
G01 X46.8711 Y19.9771 
G01 X46.9229 Y20.0289 
G01 X46.9596 Y20.0925 
G01 X46.9786 Y20.1633 
G01 X46.9786 Y21.5367 
G01 X46.9596 Y21.6075 
G01 X46.9229 Y21.6711 
G01 X46.6229 Y21.9711 
G01 X46.5711 Y22.0229 
G01 X46.5075 Y22.0596 
G01 X46.4367 Y22.0786 
G01 X44.8154 Y22.0786 
G01 X44.4786 Y22.4154 
G01 X44.4786 Y26.3846 
G01 X48.4872 Y30.3932 
G01 X48.5048 Y30.4076 
G01 X48.5130 Y30.4190 
G01 X48.5229 Y30.4289 
G01 X48.5343 Y30.4487 
G01 X48.5476 Y30.4672 
G01 X48.5526 Y30.4803 
G01 X48.5596 Y30.4925 
G01 X48.5655 Y30.5145 
G01 X48.5736 Y30.5358 
G01 X48.5750 Y30.5498 
G01 X48.5786 Y30.5633 
G01 X48.5786 Y30.5861 
G01 X48.7747 Y32.5474 
G01 X48.7779 Y32.5586 
G01 X48.7784 Y32.5838 
G01 X48.7809 Y32.6088 
G01 X48.7790 Y32.6203 
G01 X48.7792 Y32.6320 
G01 X48.7731 Y32.6564 
G01 X48.7690 Y32.6812 
G01 X48.7642 Y32.6918 
G01 X48.3786 Y34.2343 
G01 X48.3697 Y34.2698 
G01 X48.3614 Y34.3032 
G01 X48.3596 Y34.3075 
G01 X48.3424 Y34.3373 
G01 X48.3258 Y34.3673 
G01 X48.3229 Y34.3711 
G01 X48.2986 Y34.3954 
G01 X48.2748 Y34.4200 
G01 X48.2711 Y34.4229 
G01 X48.2413 Y34.4401 
G01 X48.2119 Y34.4578 
G01 X48.2075 Y34.4596 
G01 X48.1743 Y34.4685 
G01 X48.1414 Y34.4779 
G01 X48.1367 Y34.4786 
G01 X48.1024 Y34.4786 
G01 X48.0680 Y34.4792 
G01 X30.9633 Y34.4786 
G01 X30.8925 Y34.4596 
G01 X30.8289 Y34.4229 
G01 X29.8289 Y33.4229 
G01 X29.7771 Y33.3711 
G01 X29.7404 Y33.3075 
G01 X29.7214 Y33.2367 
G01 X29.7214 Y33.1323 
G01 X29.6533 Y33.1041 
G01 X29.5162 Y33.0125 
G01 X29.3995 Y32.8958 
G01 X29.3079 Y32.7587 
G01 X29.2448 Y32.6063 
G01 X29.2126 Y32.4445 
G01 X29.2126 Y30.7555 
G01 X29.2448 Y30.5937 
G01 X29.3079 Y30.4413 
G01 X29.3995 Y30.3042 
G01 X29.5162 Y30.1875 
G01 X29.6533 Y30.0959 
G01 X29.8057 Y30.0328 
G01 X29.9675 Y30.0006 
G01 X30.1325 Y30.0006 
G01 X30.2943 Y30.0328 
G01 X30.4467 Y30.0959 
G01 X30.5838 Y30.1875 
G01 X30.7005 Y30.3042 
G01 X30.7921 Y30.4413 
G01 X30.8552 Y30.5937 
G01 X30.8874 Y30.7555 
G00 Z1.2000  
G00 X28.3474 Y30.7555 
G01 Z-0.1778 F254   
G01 X28.3474 Y32.4445 F508   
G01 X28.3152 Y32.6063 
G01 X28.2521 Y32.7587 
G01 X28.1605 Y32.8958 
G01 X28.0438 Y33.0125 
G01 X27.9067 Y33.1041 
G01 X27.7543 Y33.1672 
G01 X27.5925 Y33.1994 
G01 X27.4275 Y33.1994 
G01 X27.2657 Y33.1672 
G01 X27.1133 Y33.1041 
G01 X26.9762 Y33.0125 
G01 X26.8595 Y32.8958 
G01 X26.7679 Y32.7587 
G01 X26.7048 Y32.6063 
G01 X26.6726 Y32.4445 
G01 X26.6726 Y30.7555 
G01 X26.7048 Y30.5937 
G01 X26.7679 Y30.4413 
G01 X26.8595 Y30.3042 
G01 X26.9762 Y30.1875 
G01 X27.1133 Y30.0959 
G01 X27.2657 Y30.0328 
G01 X27.4214 Y30.0018 
G01 X27.4214 Y29.8633 
G01 X27.4404 Y29.7925 
G01 X27.4771 Y29.7289 
G01 X27.5289 Y29.6771 
G01 X28.0289 Y29.1771 
G01 X28.0925 Y29.1404 
G01 X28.1633 Y29.1214 
G01 X30.3707 Y29.1214 
G01 X30.3780 Y29.1199 
G01 X30.4073 Y29.1214 
G01 X30.4367 Y29.1214 
G01 X30.4439 Y29.1233 
G01 X30.4513 Y29.1237 
G01 X30.4792 Y29.1328 
G01 X30.5075 Y29.1404 
G01 X30.5140 Y29.1441 
G01 X30.5210 Y29.1464 
G01 X30.5456 Y29.1624 
G01 X30.5711 Y29.1771 
G01 X30.5763 Y29.1823 
G01 X30.5825 Y29.1864 
G01 X30.6022 Y29.2082 
G01 X30.6229 Y29.2289 
G01 X30.6266 Y29.2354 
G01 X31.5022 Y30.2082 
G01 X31.5229 Y30.2289 
G01 X31.5267 Y30.2354 
G01 X31.5316 Y30.2409 
G01 X31.5449 Y30.2670 
G01 X31.5596 Y30.2925 
G01 X31.5615 Y30.2996 
G01 X31.5649 Y30.3063 
G01 X31.5710 Y30.3350 
G01 X31.5786 Y30.3633 
G01 X31.5786 Y30.3707 
G01 X31.5801 Y30.3780 
G01 X31.5786 Y30.4073 
G01 X31.5786 Y32.8695 
G01 X32.0009 Y33.2214 
G01 X47.2846 Y33.2214 
G01 X47.4214 Y33.0846 
G01 X47.4214 Y31.2246 
G01 X45.7689 Y29.7460 
G01 X45.7645 Y29.7435 
G01 X45.7362 Y29.7283 
G01 X45.7329 Y29.7252 
G01 X45.7289 Y29.7229 
G01 X45.7061 Y29.7001 
G01 X44.1898 Y28.2786 
G01 X42.2633 Y28.2786 
G01 X42.1925 Y28.2596 
G01 X42.1289 Y28.2229 
G01 X42.0771 Y28.1711 
G01 X36.2771 Y22.3711 
G01 X36.2404 Y22.3075 
G01 X36.2214 Y22.2367 
G01 X36.2214 Y20.5154 
G01 X34.2846 Y18.5786 
G01 X33.6030 Y18.5786 
G01 X33.6030 Y18.5944 
G01 X33.5915 Y18.6221 
G01 X33.5703 Y18.6433 
G01 X33.5426 Y18.6548 
G01 X32.2426 Y18.6548 
G01 X32.2149 Y18.6433 
G01 X32.1937 Y18.6221 
G01 X32.1822 Y18.5944 
G01 X32.1822 Y18.0056 
G01 X32.1937 Y17.9779 
G01 X32.2149 Y17.9567 
G01 X32.2426 Y17.9452 
G01 X33.5426 Y17.9452 
G01 X33.5703 Y17.9567 
G01 X33.5915 Y17.9779 
G01 X33.6030 Y18.0056 
G01 X33.6030 Y18.0214 
G01 X34.4367 Y18.0214 
G01 X34.5075 Y18.0404 
G01 X34.5711 Y18.0771 
G01 X36.6711 Y20.1771 
G01 X36.7229 Y20.2289 
G01 X36.7596 Y20.2925 
G01 X36.7786 Y20.3633 
G01 X36.7786 Y22.0846 
G01 X42.4154 Y27.7214 
G01 X44.2955 Y27.7214 
G01 X44.3277 Y27.7204 
G01 X44.3321 Y27.7214 
G01 X44.3367 Y27.7214 
G01 X44.3678 Y27.7297 
G01 X44.3991 Y27.7371 
G01 X44.4031 Y27.7392 
G01 X44.4075 Y27.7404 
G01 X44.4355 Y27.7565 
G01 X44.4638 Y27.7717 
G01 X44.4671 Y27.7748 
G01 X44.4711 Y27.7771 
G01 X44.4939 Y27.7999 
G01 X45.9469 Y29.1621 
G01 X45.9584 Y29.1679 
G01 X45.9643 Y29.1731 
G01 X45.9711 Y29.1771 
G01 X45.9915 Y29.1975 
G01 X47.8643 Y30.8731 
G01 X47.8711 Y30.8771 
G01 X47.8915 Y30.8975 
G01 X47.9131 Y30.9168 
G01 X47.9174 Y30.9234 
G01 X47.9229 Y30.9289 
G01 X47.9374 Y30.9540 
G01 X47.9532 Y30.9782 
G01 X47.9557 Y30.9857 
G01 X47.9596 Y30.9925 
G01 X47.9671 Y31.0204 
G01 X47.9761 Y31.0479 
G01 X47.9766 Y31.0558 
G01 X47.9786 Y31.0633 
G01 X47.9786 Y31.0923 
G01 X47.9802 Y31.1212 
G01 X47.9786 Y31.1288 
G01 X47.9786 Y33.2367 
G01 X47.9596 Y33.3075 
G01 X47.9229 Y33.3711 
G01 X47.6229 Y33.6711 
G01 X47.5711 Y33.7229 
G01 X47.5075 Y33.7596 
G01 X47.4367 Y33.7786 
G01 X31.9126 Y33.7786 
G01 X31.8887 Y33.7808 
G01 X31.8761 Y33.7786 
G01 X31.8633 Y33.7786 
G01 X31.8401 Y33.7724 
G01 X31.8164 Y33.7683 
G01 X31.8048 Y33.7629 
G01 X31.7925 Y33.7596 
G01 X31.7716 Y33.7476 
G01 X31.7498 Y33.7375 
G01 X31.7400 Y33.7293 
G01 X31.7289 Y33.7229 
G01 X31.7119 Y33.7059 
G01 X31.1400 Y33.2293 
G01 X31.1289 Y33.2229 
G01 X31.1119 Y33.2059 
G01 X31.0935 Y33.1905 
G01 X31.0861 Y33.1801 
G01 X31.0771 Y33.1711 
G01 X31.0650 Y33.1502 
G01 X31.0512 Y33.1306 
G01 X31.0468 Y33.1186 
G01 X31.0404 Y33.1075 
G01 X31.0342 Y33.0843 
G01 X31.0259 Y33.0618 
G01 X31.0247 Y33.0490 
G01 X31.0214 Y33.0367 
G01 X31.0214 Y33.0126 
G01 X31.0192 Y32.9887 
G01 X31.0214 Y32.9761 
G01 X31.0214 Y30.5069 
G01 X30.2759 Y29.6786 
G01 X28.3154 Y29.6786 
G01 X27.9786 Y30.0154 
G01 X27.9786 Y30.1440 
G01 X28.0438 Y30.1875 
G01 X28.1605 Y30.3042 
G01 X28.2521 Y30.4413 
G01 X28.3152 Y30.5937 
G01 X28.3474 Y30.7555 
G00 Z1.2000  
G00 X39.2150 Y19.4754 
G01 Z-0.1778 F254   
G01 X37.9850 Y19.4754 F508   
G01 X37.9573 Y19.4639 
G01 X37.9361 Y19.4427 
G01 X37.9246 Y19.4150 
G01 X37.9246 Y19.1786 
G01 X37.4633 Y19.1786 
G01 X37.3925 Y19.1596 
G01 X37.3289 Y19.1229 
G01 X35.1846 Y16.9786 
G01 X33.6030 Y16.9786 
G01 X33.6030 Y16.9944 
G01 X33.5915 Y17.0221 
G01 X33.5703 Y17.0433 
G01 X33.5426 Y17.0548 
G01 X32.2426 Y17.0548 
G01 X32.2149 Y17.0433 
G01 X32.1937 Y17.0221 
G01 X32.1822 Y16.9944 
G01 X32.1822 Y16.4056 
G01 X32.1937 Y16.3779 
G01 X32.2149 Y16.3567 
G01 X32.2426 Y16.3452 
G01 X33.5426 Y16.3452 
G01 X33.5703 Y16.3567 
G01 X33.5915 Y16.3779 
G01 X33.6030 Y16.4056 
G01 X33.6030 Y16.4214 
G01 X35.3367 Y16.4214 
G01 X35.4075 Y16.4404 
G01 X35.4711 Y16.4771 
G01 X35.5229 Y16.5289 
G01 X37.6154 Y18.6214 
G01 X37.9246 Y18.6214 
G01 X37.9246 Y18.3850 
G01 X37.9361 Y18.3573 
G01 X37.9573 Y18.3361 
G01 X37.9850 Y18.3246 
G01 X39.2150 Y18.3246 
G01 X39.2427 Y18.3361 
G01 X39.2639 Y18.3573 
G01 X39.2754 Y18.3850 
G01 X39.2754 Y19.4150 
G01 X39.2639 Y19.4427 
G01 X39.2427 Y19.4639 
G01 X39.2150 Y19.4754 
G00 Z1.2000  
G00 X43.7594 Y23.0983 
G01 Z-0.1778 F254   
G01 X43.7594 Y23.2617 F508   
G01 X43.7275 Y23.4219 
G01 X43.6650 Y23.5729 
G01 X43.5742 Y23.7087 
G01 X43.4587 Y23.8242 
G01 X43.3229 Y23.9150 
G01 X43.1719 Y23.9775 
G01 X43.0117 Y24.0094 
G01 X42.8483 Y24.0094 
G01 X42.6881 Y23.9775 
G01 X42.5371 Y23.9150 
G01 X42.4013 Y23.8242 
G01 X42.2858 Y23.7087 
G01 X42.1950 Y23.5729 
G01 X42.1325 Y23.4219 
G01 X42.1006 Y23.2617 
G01 X42.1006 Y23.0983 
G01 X42.1325 Y22.9381 
G01 X42.1950 Y22.7871 
G01 X42.2858 Y22.6513 
G01 X42.4013 Y22.5358 
G01 X42.5371 Y22.4450 
G01 X42.6881 Y22.3825 
G01 X42.8483 Y22.3506 
G01 X43.0117 Y22.3506 
G01 X43.1719 Y22.3825 
G01 X43.3229 Y22.4450 
G01 X43.4587 Y22.5358 
G01 X43.5742 Y22.6513 
G01 X43.6650 Y22.7871 
G01 X43.7275 Y22.9381 
G01 X43.7594 Y23.0983 
G00 Z1.2000  
G00 X46.2050 Y23.5729 
G01 Z-0.1778 F254   
G01 X46.1142 Y23.7087 F508   
G01 X45.9987 Y23.8242 
G01 X45.8629 Y23.9150 
G01 X45.7119 Y23.9775 
G01 X45.5517 Y24.0094 
G01 X45.3883 Y24.0094 
G01 X45.2281 Y23.9775 
G01 X45.0771 Y23.9150 
G01 X44.9413 Y23.8242 
G01 X44.8258 Y23.7087 
G01 X44.7350 Y23.5729 
G01 X44.6725 Y23.4219 
G01 X44.6406 Y23.2617 
G01 X44.6406 Y23.0983 
G01 X44.6725 Y22.9381 
G01 X44.7350 Y22.7871 
G01 X44.8258 Y22.6513 
G01 X44.9413 Y22.5358 
G01 X45.0771 Y22.4450 
G01 X45.2281 Y22.3825 
G01 X45.3883 Y22.3506 
G01 X45.5517 Y22.3506 
G01 X45.7119 Y22.3825 
G01 X45.8629 Y22.4450 
G01 X45.9987 Y22.5358 
G01 X46.1142 Y22.6513 
G01 X46.2050 Y22.7871 
G01 X46.2091 Y22.7969 
G01 X47.1214 Y21.8846 
G01 X47.1214 Y11.2154 
G01 X46.1846 Y10.2786 
G01 X45.2154 Y10.2786 
G01 X44.4786 Y11.0154 
G01 X44.4786 Y16.9367 
G01 X44.4596 Y17.0075 
G01 X44.4229 Y17.0711 
G01 X44.3711 Y17.1229 
G01 X44.3075 Y17.1596 
G01 X44.2367 Y17.1786 
G01 X44.1633 Y17.1786 
G01 X44.0925 Y17.1596 
G01 X44.0289 Y17.1229 
G01 X43.9846 Y17.0786 
G01 X37.4326 Y17.0786 
G01 X37.4287 Y17.0795 
G01 X37.3960 Y17.0786 
G01 X37.3633 Y17.0786 
G01 X37.3594 Y17.0776 
G01 X37.3554 Y17.0774 
G01 X37.3241 Y17.0681 
G01 X37.2925 Y17.0596 
G01 X37.2890 Y17.0576 
G01 X37.2851 Y17.0564 
G01 X37.2573 Y17.0393 
G01 X37.2289 Y17.0229 
G01 X37.2261 Y17.0201 
G01 X37.2226 Y17.0180 
G01 X37.2002 Y16.9942 
G01 X37.1771 Y16.9711 
G01 X37.1750 Y16.9676 
G01 X35.5799 Y15.2786 
G01 X33.6030 Y15.2786 
G01 X33.6030 Y15.3944 
G01 X33.5915 Y15.4221 
G01 X33.5703 Y15.4433 
G01 X33.5426 Y15.4548 
G01 X32.9085 Y15.4548 
G01 X32.9001 Y15.4596 
G01 X32.8293 Y15.4786 
G01 X30.3154 Y15.4786 
G01 X29.6711 Y16.1229 
G01 X29.6075 Y16.1596 
G01 X29.5367 Y16.1786 
G01 X25.7726 Y16.1786 
G01 X25.8711 Y16.2771 
G01 X25.9229 Y16.3289 
G01 X25.9596 Y16.3925 
G01 X25.9786 Y16.4633 
G01 X25.9786 Y17.3367 
G01 X25.9596 Y17.4075 
G01 X25.9229 Y17.4711 
G01 X25.8229 Y17.5711 
G01 X25.7711 Y17.6229 
G01 X25.7075 Y17.6596 
G01 X25.6367 Y17.6786 
G01 X25.0178 Y17.6786 
G01 X25.0178 Y17.7944 
G01 X25.0063 Y17.8221 
G01 X24.9851 Y17.8433 
G01 X24.9574 Y17.8548 
G01 X23.6574 Y17.8548 
G01 X23.6297 Y17.8433 
G01 X23.6085 Y17.8221 
G01 X23.5970 Y17.7944 
G01 X23.5970 Y17.2056 
G01 X23.6085 Y17.1779 
G01 X23.6297 Y17.1567 
G01 X23.6574 Y17.1452 
G01 X24.2915 Y17.1452 
G01 X24.2999 Y17.1404 
G01 X24.3707 Y17.1214 
G01 X25.4214 Y17.1214 
G01 X25.4214 Y16.6154 
G01 X25.0127 Y16.2067 
G01 X25.0063 Y16.2221 
G01 X24.9851 Y16.2433 
G01 X24.9574 Y16.2548 
G01 X23.6574 Y16.2548 
G01 X23.6297 Y16.2433 
G01 X23.6085 Y16.2221 
G01 X23.5970 Y16.1944 
G01 X23.5970 Y15.6056 
G01 X23.6085 Y15.5779 
G01 X23.6297 Y15.5567 
G01 X23.6574 Y15.5452 
G01 X24.9574 Y15.5452 
G01 X24.9851 Y15.5567 
G01 X25.0063 Y15.5779 
G01 X25.0178 Y15.6056 
G01 X25.0178 Y15.6214 
G01 X29.3846 Y15.6214 
G01 X29.9771 Y15.0289 
G01 X30.0289 Y14.9771 
G01 X30.0925 Y14.9404 
G01 X30.1633 Y14.9214 
G01 X32.1822 Y14.9214 
G01 X32.1822 Y14.8056 
G01 X32.1937 Y14.7779 
G01 X32.2149 Y14.7567 
G01 X32.2426 Y14.7452 
G01 X32.8767 Y14.7452 
G01 X32.8851 Y14.7404 
G01 X32.9559 Y14.7214 
G01 X35.6674 Y14.7214 
G01 X35.6713 Y14.7205 
G01 X35.7040 Y14.7214 
G01 X35.7367 Y14.7214 
G01 X35.7406 Y14.7224 
G01 X35.7446 Y14.7226 
G01 X35.7759 Y14.7319 
G01 X35.8075 Y14.7404 
G01 X35.8110 Y14.7424 
G01 X35.8149 Y14.7436 
G01 X35.8427 Y14.7607 
G01 X35.8711 Y14.7771 
G01 X35.8739 Y14.7799 
G01 X35.8774 Y14.7820 
G01 X35.8998 Y14.8058 
G01 X35.9229 Y14.8289 
G01 X35.9250 Y14.8324 
G01 X37.5201 Y16.5214 
G01 X43.9214 Y16.5214 
G01 X43.9214 Y10.8633 
G01 X43.9404 Y10.7925 
G01 X43.9771 Y10.7289 
G01 X44.0289 Y10.6771 
G01 X44.9289 Y9.7771  
G01 X44.9925 Y9.7404  
G01 X45.0633 Y9.7214  
G01 X46.3367 Y9.7214  
G01 X46.4075 Y9.7404  
G01 X46.4711 Y9.7771  
G01 X46.5229 Y9.8289  
G01 X47.6229 Y10.9289 
G01 X47.6596 Y10.9925 
G01 X47.6786 Y11.0633 
G01 X47.6786 Y22.0367 
G01 X47.6596 Y22.1075 
G01 X47.6229 Y22.1711 
G01 X47.5711 Y22.2229 
G01 X46.3911 Y23.4029 
G01 X46.3275 Y23.4396 
G01 X46.2567 Y23.4586 
G01 X46.2523 Y23.4586 
G01 X46.2050 Y23.5729 
G00 Z1.2000  
G00 X43.7594 Y20.5583 
G01 Z-0.1778 F254   
G01 X43.7594 Y20.7217 F508   
G01 X43.7275 Y20.8819 
G01 X43.6650 Y21.0329 
G01 X43.5742 Y21.1687 
G01 X43.4587 Y21.2842 
G01 X43.3229 Y21.3750 
G01 X43.1719 Y21.4375 
G01 X43.0117 Y21.4694 
G01 X42.8483 Y21.4694 
G01 X42.6881 Y21.4375 
G01 X42.5371 Y21.3750 
G01 X42.4013 Y21.2842 
G01 X42.2858 Y21.1687 
G01 X42.1950 Y21.0329 
G01 X42.1325 Y20.8819 
G01 X42.1006 Y20.7217 
G01 X42.1006 Y20.5583 
G01 X42.1325 Y20.3981 
G01 X42.1950 Y20.2471 
G01 X42.2858 Y20.1113 
G01 X42.4013 Y19.9958 
G01 X42.5371 Y19.9050 
G01 X42.6881 Y19.8425 
G01 X42.8483 Y19.8106 
G01 X43.0117 Y19.8106 
G01 X43.1719 Y19.8425 
G01 X43.3229 Y19.9050 
G01 X43.4587 Y19.9958 
G01 X43.5742 Y20.1113 
G01 X43.6650 Y20.2471 
G01 X43.7275 Y20.3981 
G01 X43.7594 Y20.5583 
G00 Z1.2000  
G00 X46.2994 Y20.5583 
G01 Z-0.1778 F254   
G01 X46.2994 Y20.7217 F508   
G01 X46.2675 Y20.8819 
G01 X46.2050 Y21.0329 
G01 X46.1142 Y21.1687 
G01 X45.9987 Y21.2842 
G01 X45.8629 Y21.3750 
G01 X45.7119 Y21.4375 
G01 X45.5517 Y21.4694 
G01 X45.3883 Y21.4694 
G01 X45.2281 Y21.4375 
G01 X45.0771 Y21.3750 
G01 X44.9413 Y21.2842 
G01 X44.8357 Y21.1786 
G01 X44.6154 Y21.1786 
G01 X43.7711 Y22.0229 
G01 X43.7075 Y22.0596 
G01 X43.6367 Y22.0786 
G01 X41.6633 Y22.0786 
G01 X41.5925 Y22.0596 
G01 X41.5289 Y22.0229 
G01 X41.4771 Y21.9711 
G01 X40.6846 Y21.1786 
G01 X39.2754 Y21.1786 
G01 X39.2754 Y21.4150 
G01 X39.2639 Y21.4427 
G01 X39.2427 Y21.4639 
G01 X39.2150 Y21.4754 
G01 X37.9850 Y21.4754 
G01 X37.9573 Y21.4639 
G01 X37.9361 Y21.4427 
G01 X37.9246 Y21.4150 
G01 X37.9246 Y20.9186 
G01 X34.7846 Y17.7786 
G01 X33.6030 Y17.7786 
G01 X33.6030 Y17.7944 
G01 X33.5915 Y17.8221 
G01 X33.5703 Y17.8433 
G01 X33.5426 Y17.8548 
G01 X32.2426 Y17.8548 
G01 X32.2149 Y17.8433 
G01 X32.1937 Y17.8221 
G01 X32.1822 Y17.7944 
G01 X32.1822 Y17.7786 
G01 X27.4154 Y17.7786 
G01 X26.7229 Y18.4711 
G01 X26.6711 Y18.5229 
G01 X26.6075 Y18.5596 
G01 X26.5367 Y18.5786 
G01 X25.0178 Y18.5786 
G01 X25.0178 Y18.5944 
G01 X25.0063 Y18.6221 
G01 X24.9851 Y18.6433 
G01 X24.9574 Y18.6548 
G01 X23.6574 Y18.6548 
G01 X23.6297 Y18.6433 
G01 X23.6085 Y18.6221 
G01 X23.5970 Y18.5944 
G01 X23.5970 Y18.5786 
G01 X22.7154 Y18.5786 
G01 X22.5786 Y18.7154 
G01 X22.5786 Y19.7367 
G01 X22.5596 Y19.8075 
G01 X22.5229 Y19.8711 
G01 X22.4711 Y19.9229 
G01 X21.2847 Y21.1093 
G01 X21.3768 Y22.8582 
G01 X21.3791 Y22.8674 
G01 X21.3787 Y22.8947 
G01 X21.3801 Y22.9220 
G01 X21.3782 Y22.9312 
G01 X21.3780 Y22.9407 
G01 X21.3706 Y22.9670 
G01 X21.3649 Y22.9937 
G01 X21.3606 Y23.0022 
G01 X21.3580 Y23.0113 
G01 X21.3440 Y23.0348 
G01 X21.3316 Y23.0591 
G01 X21.3253 Y23.0661 
G01 X21.3204 Y23.0743 
G01 X21.3008 Y23.0933 
G01 X21.2825 Y23.1136 
G01 X21.2746 Y23.1188 
G01 X17.7957 Y26.4983 
G01 X17.7711 Y26.5229 
G01 X17.7678 Y26.5254 
G01 X17.7377 Y26.5422 
G01 X17.7075 Y26.5596 
G01 X17.7038 Y26.5611 
G01 X17.6702 Y26.5696 
G01 X17.6367 Y26.5786 
G01 X17.6326 Y26.5791 
G01 X17.5979 Y26.5786 
G01 X16.7061 Y26.5786 
G01 X16.6755 Y26.5799 
G01 X16.6695 Y26.5786 
G01 X16.6633 Y26.5786 
G01 X16.6337 Y26.5707 
G01 X16.6038 Y26.5640 
G01 X16.5984 Y26.5612 
G01 X16.5925 Y26.5596 
G01 X16.5659 Y26.5443 
G01 X16.5388 Y26.5302 
G01 X16.5343 Y26.5260 
G01 X16.5289 Y26.5229 
G01 X16.5073 Y26.5013 
G01 X12.9343 Y23.2260 
G01 X12.9289 Y23.2229 
G01 X12.9072 Y23.2012 
G01 X12.8847 Y23.1806 
G01 X12.8814 Y23.1754 
G01 X12.8771 Y23.1711 
G01 X12.8617 Y23.1445 
G01 X12.8453 Y23.1187 
G01 X12.8435 Y23.1129 
G01 X12.8404 Y23.1075 
G01 X12.8325 Y23.0779 
G01 X12.8233 Y23.0487 
G01 X12.8230 Y23.0426 
G01 X12.8214 Y23.0367 
G01 X12.8214 Y23.0061 
G01 X12.8201 Y22.9755 
G01 X12.8214 Y22.9695 
G01 X12.8214 Y20.3633 
G01 X12.8404 Y20.2925 
G01 X12.8771 Y20.2289 
G01 X12.9289 Y20.1771 
G01 X13.7289 Y19.3771 
G01 X13.7925 Y19.3404 
G01 X13.8633 Y19.3214 
G01 X13.9046 Y19.3214 
G01 X13.9046 Y19.1850 
G01 X13.9161 Y19.1573 
G01 X13.9373 Y19.1361 
G01 X13.9650 Y19.1246 
G01 X14.1714 Y19.1246 
G01 X14.1714 Y14.4454 
G01 X13.8350 Y14.4454 
G01 X13.8073 Y14.4339 
G01 X13.7861 Y14.4127 
G01 X13.7746 Y14.3850 
G01 X13.7746 Y13.3550 
G01 X13.7861 Y13.3273 
G01 X13.8073 Y13.3061 
G01 X13.8350 Y13.2946 
G01 X15.0650 Y13.2946 
G01 X15.0927 Y13.3061 
G01 X15.1139 Y13.3273 
G01 X15.1254 Y13.3550 
G01 X15.1254 Y14.3850 
G01 X15.1139 Y14.4127 
G01 X15.0927 Y14.4339 
G01 X15.0650 Y14.4454 
G01 X14.8586 Y14.4454 
G01 X14.8586 Y19.1246 
G01 X15.1950 Y19.1246 
G01 X15.2227 Y19.1361 
G01 X15.2439 Y19.1573 
G01 X15.2554 Y19.1850 
G01 X15.2554 Y20.2150 
G01 X15.2439 Y20.2427 
G01 X15.2227 Y20.2639 
G01 X15.1950 Y20.2754 
G01 X13.9650 Y20.2754 
G01 X13.9373 Y20.2639 
G01 X13.9161 Y20.2427 
G01 X13.9046 Y20.2150 
G01 X13.9046 Y19.9894 
G01 X13.3786 Y20.5154 
G01 X13.3786 Y22.8774 
G01 X16.8084 Y26.0214 
G01 X17.4870 Y26.0214 
G01 X20.8151 Y22.7883 
G01 X20.7233 Y21.0438 
G01 X20.7214 Y21.0367 
G01 X20.7214 Y21.0073 
G01 X20.7199 Y20.9780 
G01 X20.7214 Y20.9707 
G01 X20.7214 Y20.9633 
G01 X20.7290 Y20.9350 
G01 X20.7351 Y20.9063 
G01 X20.7385 Y20.8996 
G01 X20.7404 Y20.8925 
G01 X20.7551 Y20.8670 
G01 X20.7684 Y20.8409 
G01 X20.7733 Y20.8354 
G01 X20.7771 Y20.8289 
G01 X20.7978 Y20.8082 
G01 X20.8175 Y20.7864 
G01 X20.8237 Y20.7823 
G01 X22.0214 Y19.5846 
G01 X22.0214 Y18.5633 
G01 X22.0404 Y18.4925 
G01 X22.0771 Y18.4289 
G01 X22.2060 Y18.3000 
G01 X22.1289 Y18.2229 
G01 X22.0771 Y18.1711 
G01 X22.0404 Y18.1075 
G01 X22.0214 Y18.0367 
G01 X22.0214 Y16.9633 
G01 X22.0404 Y16.8925 
G01 X22.0771 Y16.8289 
G01 X22.3771 Y16.5289 
G01 X22.4289 Y16.4771 
G01 X22.4925 Y16.4404 
G01 X22.5633 Y16.4214 
G01 X23.5970 Y16.4214 
G01 X23.5970 Y16.4056 
G01 X23.6085 Y16.3779 
G01 X23.6297 Y16.3567 
G01 X23.6574 Y16.3452 
G01 X24.9574 Y16.3452 
G01 X24.9851 Y16.3567 
G01 X25.0063 Y16.3779 
G01 X25.0178 Y16.4056 
G01 X25.0178 Y16.9944 
G01 X25.0063 Y17.0221 
G01 X24.9851 Y17.0433 
G01 X24.9574 Y17.0548 
G01 X23.6574 Y17.0548 
G01 X23.6297 Y17.0433 
G01 X23.6085 Y17.0221 
G01 X23.5970 Y16.9944 
G01 X23.5970 Y16.9786 
G01 X22.7154 Y16.9786 
G01 X22.5786 Y17.1154 
G01 X22.5786 Y17.8846 
G01 X22.7154 Y18.0214 
G01 X23.5970 Y18.0214 
G01 X23.5970 Y18.0056 
G01 X23.6085 Y17.9779 
G01 X23.6297 Y17.9567 
G01 X23.6574 Y17.9452 
G01 X24.9574 Y17.9452 
G01 X24.9851 Y17.9567 
G01 X25.0063 Y17.9779 
G01 X25.0178 Y18.0056 
G01 X25.0178 Y18.0214 
G01 X26.3846 Y18.0214 
G01 X27.1289 Y17.2771 
G01 X27.1925 Y17.2404 
G01 X27.2633 Y17.2214 
G01 X32.1822 Y17.2214 
G01 X32.1822 Y17.2056 
G01 X32.1937 Y17.1779 
G01 X32.2149 Y17.1567 
G01 X32.2426 Y17.1452 
G01 X33.5426 Y17.1452 
G01 X33.5703 Y17.1567 
G01 X33.5915 Y17.1779 
G01 X33.6030 Y17.2056 
G01 X33.6030 Y17.2214 
G01 X34.9367 Y17.2214 
G01 X35.0075 Y17.2404 
G01 X35.0711 Y17.2771 
G01 X35.1229 Y17.3289 
G01 X38.1186 Y20.3246 
G01 X39.2150 Y20.3246 
G01 X39.2427 Y20.3361 
G01 X39.2639 Y20.3573 
G01 X39.2754 Y20.3850 
G01 X39.2754 Y20.6214 
G01 X40.8367 Y20.6214 
G01 X40.9075 Y20.6404 
G01 X40.9711 Y20.6771 
G01 X41.8154 Y21.5214 
G01 X43.4846 Y21.5214 
G01 X44.2771 Y20.7289 
G01 X44.3289 Y20.6771 
G01 X44.3925 Y20.6404 
G01 X44.4633 Y20.6214 
G01 X44.6406 Y20.6214 
G01 X44.6406 Y20.5583 
G01 X44.6725 Y20.3981 
G01 X44.7350 Y20.2471 
G01 X44.8258 Y20.1113 
G01 X44.9413 Y19.9958 
G01 X45.0771 Y19.9050 
G01 X45.2281 Y19.8425 
G01 X45.3883 Y19.8106 
G01 X45.5517 Y19.8106 
G01 X45.7119 Y19.8425 
G01 X45.8629 Y19.9050 
G01 X45.9987 Y19.9958 
G01 X46.1142 Y20.1113 
G01 X46.2050 Y20.2471 
G01 X46.2675 Y20.3981 
G01 X46.2994 Y20.5583 
G00 Z1.2000  
G00 X43.7594 Y18.0183 
G01 Z-0.1778 F254   
G01 X43.7594 Y18.1817 F508   
G01 X43.7275 Y18.3419 
G01 X43.6650 Y18.4929 
G01 X43.5742 Y18.6287 
G01 X43.4587 Y18.7442 
G01 X43.3229 Y18.8350 
G01 X43.1719 Y18.8975 
G01 X43.0117 Y18.9294 
G01 X42.8483 Y18.9294 
G01 X42.6881 Y18.8975 
G01 X42.5371 Y18.8350 
G01 X42.4013 Y18.7442 
G01 X42.2858 Y18.6287 
G01 X42.1950 Y18.4929 
G01 X42.1325 Y18.3419 
G01 X42.1006 Y18.1817 
G01 X42.1006 Y18.0183 
G01 X42.1325 Y17.8581 
G01 X42.1950 Y17.7071 
G01 X42.2858 Y17.5713 
G01 X42.4013 Y17.4558 
G01 X42.5371 Y17.3650 
G01 X42.6881 Y17.3025 
G01 X42.8483 Y17.2706 
G01 X43.0117 Y17.2706 
G01 X43.1719 Y17.3025 
G01 X43.3229 Y17.3650 
G01 X43.4587 Y17.4558 
G01 X43.5742 Y17.5713 
G01 X43.6650 Y17.7071 
G01 X43.7275 Y17.8581 
G01 X43.7594 Y18.0183 
G00 Z1.2000  
G00 X46.2994 Y18.0183 
G01 Z-0.1778 F254   
G01 X46.2994 Y18.1817 F508   
G01 X46.2675 Y18.3419 
G01 X46.2050 Y18.4929 
G01 X46.1142 Y18.6287 
G01 X45.9987 Y18.7442 
G01 X45.8629 Y18.8350 
G01 X45.7119 Y18.8975 
G01 X45.5517 Y18.9294 
G01 X45.3883 Y18.9294 
G01 X45.2281 Y18.8975 
G01 X45.0771 Y18.8350 
G01 X44.9413 Y18.7442 
G01 X44.8258 Y18.6287 
G01 X44.7350 Y18.4929 
G01 X44.6725 Y18.3419 
G01 X44.6406 Y18.1817 
G01 X44.6406 Y18.0183 
G01 X44.6725 Y17.8581 
G01 X44.7350 Y17.7071 
G01 X44.8258 Y17.5713 
G01 X44.9413 Y17.4558 
G01 X45.0771 Y17.3650 
G01 X45.2281 Y17.3025 
G01 X45.3883 Y17.2706 
G01 X45.5517 Y17.2706 
G01 X45.7119 Y17.3025 
G01 X45.8629 Y17.3650 
G01 X45.9987 Y17.4558 
G01 X46.1142 Y17.5713 
G01 X46.2050 Y17.7071 
G01 X46.2675 Y17.8581 
G01 X46.2994 Y18.0183 
G00 Z1.2000  
G00 X43.7594 Y15.4783 
G01 Z-0.1778 F254   
G01 X43.7594 Y15.6417 F508   
G01 X43.7275 Y15.8019 
G01 X43.6650 Y15.9529 
G01 X43.5742 Y16.0887 
G01 X43.4587 Y16.2042 
G01 X43.3229 Y16.2950 
G01 X43.1719 Y16.3575 
G01 X43.0117 Y16.3894 
G01 X42.8483 Y16.3894 
G01 X42.6881 Y16.3575 
G01 X42.5371 Y16.2950 
G01 X42.4013 Y16.2042 
G01 X42.2858 Y16.0887 
G01 X42.1950 Y15.9529 
G01 X42.1325 Y15.8019 
G01 X42.1006 Y15.6417 
G01 X42.1006 Y15.4783 
G01 X42.1204 Y15.3786 
G01 X37.4633 Y15.3786 
G01 X37.3925 Y15.3596 
G01 X37.3289 Y15.3229 
G01 X37.2771 Y15.2711 
G01 X36.5846 Y14.5786 
G01 X33.6030 Y14.5786 
G01 X33.6030 Y14.5944 
G01 X33.5915 Y14.6221 
G01 X33.5703 Y14.6433 
G01 X33.5426 Y14.6548 
G01 X32.2426 Y14.6548 
G01 X32.2149 Y14.6433 
G01 X32.1937 Y14.6221 
G01 X32.1822 Y14.5944 
G01 X32.1822 Y14.0056 
G01 X32.1937 Y13.9779 
G01 X32.2149 Y13.9567 
G01 X32.2426 Y13.9452 
G01 X33.5426 Y13.9452 
G01 X33.5703 Y13.9567 
G01 X33.5915 Y13.9779 
G01 X33.6030 Y14.0056 
G01 X33.6030 Y14.0214 
G01 X36.7367 Y14.0214 
G01 X36.8075 Y14.0404 
G01 X36.8711 Y14.0771 
G01 X37.6154 Y14.8214 
G01 X42.5067 Y14.8214 
G01 X42.5323 Y14.8283 
G01 X42.5371 Y14.8250 
G01 X42.6881 Y14.7625 
G01 X42.8483 Y14.7306 
G01 X43.0117 Y14.7306 
G01 X43.1719 Y14.7625 
G01 X43.3229 Y14.8250 
G01 X43.4587 Y14.9158 
G01 X43.5742 Y15.0313 
G01 X43.6650 Y15.1671 
G01 X43.7275 Y15.3181 
G01 X43.7594 Y15.4783 
G00 Z1.2000  
G00 X46.2994 Y15.4783 
G01 Z-0.1778 F254   
G01 X46.2994 Y15.6417 F508   
G01 X46.2675 Y15.8019 
G01 X46.2050 Y15.9529 
G01 X46.1142 Y16.0887 
G01 X45.9987 Y16.2042 
G01 X45.8629 Y16.2950 
G01 X45.7119 Y16.3575 
G01 X45.5517 Y16.3894 
G01 X45.3883 Y16.3894 
G01 X45.2281 Y16.3575 
G01 X45.0771 Y16.2950 
G01 X44.9413 Y16.2042 
G01 X44.8258 Y16.0887 
G01 X44.7350 Y15.9529 
G01 X44.6725 Y15.8019 
G01 X44.6406 Y15.6417 
G01 X44.6406 Y15.4783 
G01 X44.6725 Y15.3181 
G01 X44.7350 Y15.1671 
G01 X44.8258 Y15.0313 
G01 X44.9413 Y14.9158 
G01 X45.0771 Y14.8250 
G01 X45.2281 Y14.7625 
G01 X45.3883 Y14.7306 
G01 X45.5517 Y14.7306 
G01 X45.7119 Y14.7625 
G01 X45.8629 Y14.8250 
G01 X45.9987 Y14.9158 
G01 X46.1142 Y15.0313 
G01 X46.2050 Y15.1671 
G01 X46.2675 Y15.3181 
G01 X46.2994 Y15.4783 
G00 Z1.2000  
G00 X43.7594 Y12.9383 
G01 Z-0.1778 F254   
G01 X43.7594 Y13.1017 F508   
G01 X43.7275 Y13.2619 
G01 X43.6650 Y13.4129 
G01 X43.5742 Y13.5487 
G01 X43.4587 Y13.6642 
G01 X43.3229 Y13.7550 
G01 X43.1719 Y13.8175 
G01 X43.0117 Y13.8494 
G01 X42.8483 Y13.8494 
G01 X42.6881 Y13.8175 
G01 X42.5738 Y13.7702 
G01 X42.3211 Y14.0229 
G01 X42.2575 Y14.0596 
G01 X42.1867 Y14.0786 
G01 X38.2633 Y14.0786 
G01 X38.1925 Y14.0596 
G01 X38.1289 Y14.0229 
G01 X38.0771 Y13.9711 
G01 X37.1920 Y13.0860 
G01 X31.7548 Y13.0860 
G01 X31.7548 Y13.4574 
G01 X31.7433 Y13.4851 
G01 X31.7221 Y13.5063 
G01 X31.6944 Y13.5178 
G01 X31.1056 Y13.5178 
G01 X31.0779 Y13.5063 
G01 X31.0567 Y13.4851 
G01 X31.0452 Y13.4574 
G01 X31.0452 Y12.1574 
G01 X31.0567 Y12.1297 
G01 X31.0779 Y12.1085 
G01 X31.1056 Y12.0970 
G01 X31.6944 Y12.0970 
G01 X31.7221 Y12.1085 
G01 X31.7433 Y12.1297 
G01 X31.7548 Y12.1574 
G01 X31.7548 Y12.5288 
G01 X37.3441 Y12.5288 
G01 X37.4149 Y12.5478 
G01 X37.4785 Y12.5845 
G01 X38.4154 Y13.5214 
G01 X42.0346 Y13.5214 
G01 X42.1798 Y13.3762 
G01 X42.1325 Y13.2619 
G01 X42.1006 Y13.1017 
G01 X42.1006 Y12.9383 
G01 X42.1325 Y12.7781 
G01 X42.1950 Y12.6271 
G01 X42.2314 Y12.5726 
G01 X42.2314 Y5.1530  
G01 X42.1133 Y5.1041  
G01 X41.9762 Y5.0125  
G01 X41.8595 Y4.8958  
G01 X41.7679 Y4.7587  
G01 X41.7048 Y4.6063  
G01 X41.6726 Y4.4445  
G01 X41.6726 Y2.7555  
G01 X41.7048 Y2.5937  
G01 X41.7679 Y2.4413  
G01 X41.8595 Y2.3042  
G01 X41.9762 Y2.1875  
G01 X42.1133 Y2.0959  
G01 X42.2657 Y2.0328  
G01 X42.4275 Y2.0006  
G01 X42.5925 Y2.0006  
G01 X42.7543 Y2.0328  
G01 X42.9067 Y2.0959  
G01 X43.0438 Y2.1875  
G01 X43.1605 Y2.3042  
G01 X43.2521 Y2.4413  
G01 X43.3152 Y2.5937  
G01 X43.3474 Y2.7555  
G01 X43.3474 Y4.4445  
G01 X43.3152 Y4.6063  
G01 X43.2521 Y4.7587  
G01 X43.1605 Y4.8958  
G01 X43.0438 Y5.0125  
G01 X42.9067 Y5.1041  
G01 X42.7886 Y5.1530  
G01 X42.7886 Y12.2025 
G01 X42.8483 Y12.1906 
G01 X43.0117 Y12.1906 
G01 X43.1719 Y12.2225 
G01 X43.3229 Y12.2850 
G01 X43.4587 Y12.3758 
G01 X43.5742 Y12.4913 
G01 X43.6650 Y12.6271 
G01 X43.7275 Y12.7781 
G01 X43.7594 Y12.9383 
G00 Z1.2000  
G00 X46.2994 Y12.9383 
G01 Z-0.1778 F254   
G01 X46.2994 Y13.1017 F508   
G01 X46.2675 Y13.2619 
G01 X46.2050 Y13.4129 
G01 X46.1142 Y13.5487 
G01 X45.9987 Y13.6642 
G01 X45.8629 Y13.7550 
G01 X45.7119 Y13.8175 
G01 X45.5517 Y13.8494 
G01 X45.3883 Y13.8494 
G01 X45.2281 Y13.8175 
G01 X45.0771 Y13.7550 
G01 X44.9413 Y13.6642 
G01 X44.8258 Y13.5487 
G01 X44.7350 Y13.4129 
G01 X44.6725 Y13.2619 
G01 X44.6406 Y13.1017 
G01 X44.6406 Y12.9383 
G01 X44.6725 Y12.7781 
G01 X44.7350 Y12.6271 
G01 X44.8258 Y12.4913 
G01 X44.9413 Y12.3758 
G01 X45.0771 Y12.2850 
G01 X45.2281 Y12.2225 
G01 X45.3883 Y12.1906 
G01 X45.5517 Y12.1906 
G01 X45.7119 Y12.2225 
G01 X45.8629 Y12.2850 
G01 X45.9987 Y12.3758 
G01 X46.1142 Y12.4913 
G01 X46.2050 Y12.6271 
G01 X46.2675 Y12.7781 
G01 X46.2994 Y12.9383 
G00 Z1.2000  
G00 X25.0178 Y19.6056 
G01 Z-0.1778 F254   
G01 X25.0178 Y20.1944 F508   
G01 X25.0063 Y20.2221 
G01 X24.9851 Y20.2433 
G01 X24.9574 Y20.2548 
G01 X24.4786 Y20.2548 
G01 X24.4786 Y22.5367 
G01 X24.4596 Y22.6075 
G01 X24.4229 Y22.6711 
G01 X24.3711 Y22.7229 
G01 X17.4686 Y29.6254 
G01 X17.4686 Y30.0470 
G01 X17.5867 Y30.0959 
G01 X17.7238 Y30.1875 
G01 X17.8405 Y30.3042 
G01 X17.9321 Y30.4413 
G01 X17.9952 Y30.5937 
G01 X18.0274 Y30.7555 
G01 X18.0274 Y32.4445 
G01 X17.9952 Y32.6063 
G01 X17.9321 Y32.7587 
G01 X17.8405 Y32.8958 
G01 X17.7238 Y33.0125 
G01 X17.5867 Y33.1041 
G01 X17.4343 Y33.1672 
G01 X17.2725 Y33.1994 
G01 X17.1075 Y33.1994 
G01 X16.9457 Y33.1672 
G01 X16.7933 Y33.1041 
G01 X16.6562 Y33.0125 
G01 X16.5395 Y32.8958 
G01 X16.4479 Y32.7587 
G01 X16.3848 Y32.6063 
G01 X16.3526 Y32.4445 
G01 X16.3526 Y30.7555 
G01 X16.3848 Y30.5937 
G01 X16.4479 Y30.4413 
G01 X16.5395 Y30.3042 
G01 X16.6562 Y30.1875 
G01 X16.7933 Y30.0959 
G01 X16.9114 Y30.0470 
G01 X16.9114 Y29.4733 
G01 X16.9304 Y29.4025 
G01 X16.9671 Y29.3389 
G01 X23.9214 Y22.3846 
G01 X23.9214 Y20.2548 
G01 X23.6574 Y20.2548 
G01 X23.6297 Y20.2433 
G01 X23.6085 Y20.2221 
G01 X23.5970 Y20.1944 
G01 X23.5970 Y19.6056 
G01 X23.6085 Y19.5779 
G01 X23.6297 Y19.5567 
G01 X23.6574 Y19.5452 
G01 X24.9574 Y19.5452 
G01 X24.9851 Y19.5567 
G01 X25.0063 Y19.5779 
G01 X25.0178 Y19.6056 
G00 Z1.2000  
G00 X25.0178 Y18.8056 
G01 Z-0.1778 F254   
G01 X25.0178 Y19.3944 F508   
G01 X25.0063 Y19.4221 
G01 X24.9851 Y19.4433 
G01 X24.9574 Y19.4548 
G01 X23.6574 Y19.4548 
G01 X23.6297 Y19.4433 
G01 X23.6085 Y19.4221 
G01 X23.5970 Y19.3944 
G01 X23.5970 Y19.3786 
G01 X23.4786 Y19.3786 
G01 X23.4786 Y22.1833 
G01 X23.4810 Y22.2031 
G01 X23.4786 Y22.2198 
G01 X23.4786 Y22.2367 
G01 X23.4734 Y22.2560 
G01 X23.4706 Y22.2757 
G01 X23.4640 Y22.2912 
G01 X23.4596 Y22.3075 
G01 X23.4496 Y22.3248 
G01 X23.4418 Y22.3432 
G01 X23.4314 Y22.3564 
G01 X23.4229 Y22.3711 
G01 X23.4088 Y22.3852 
G01 X23.3965 Y22.4009 
G01 X23.3830 Y22.4110 
G01 X23.3711 Y22.4229 
G01 X23.3538 Y22.4329 
G01 X22.5818 Y23.0119 
G01 X17.7084 Y27.7859 
G01 X17.6974 Y27.8000 
G01 X17.6823 Y27.8114 
G01 X17.6688 Y27.8247 
G01 X17.6532 Y27.8335 
G01 X17.6389 Y27.8443 
G01 X17.6214 Y27.8514 
G01 X17.6049 Y27.8607 
G01 X17.5875 Y27.8652 
G01 X17.5709 Y27.8719 
G01 X17.5521 Y27.8742 
G01 X17.5338 Y27.8790 
G01 X17.5159 Y27.8788 
G01 X16.7565 Y27.9737 
G01 X16.7426 Y27.9778 
G01 X16.7203 Y27.9782 
G01 X16.6982 Y27.9810 
G01 X16.6838 Y27.9790 
G01 X16.6693 Y27.9793 
G01 X16.6476 Y27.9740 
G01 X16.6255 Y27.9709 
G01 X16.6121 Y27.9653 
G01 X16.5980 Y27.9618 
G01 X16.5785 Y27.9511 
G01 X16.5579 Y27.9424 
G01 X16.5464 Y27.9335 
G01 X16.5337 Y27.9265 
G01 X16.5176 Y27.9111 
G01 X16.5000 Y27.8974 
G01 X16.4912 Y27.8858 
G01 X11.7315 Y23.3244 
G01 X11.7289 Y23.3229 
G01 X11.7051 Y23.2991 
G01 X11.6808 Y23.2758 
G01 X11.6792 Y23.2732 
G01 X11.6602 Y23.2418 
G01 X11.6427 Y23.2130 
G01 X11.6419 Y23.2101 
G01 X11.6404 Y23.2075 
G01 X11.6317 Y23.1749 
G01 X11.6222 Y23.1426 
G01 X11.6222 Y23.1396 
G01 X11.6214 Y23.1367 
G01 X11.6214 Y23.1029 
G01 X11.6207 Y23.0693 
G01 X11.6214 Y23.0663 
G01 X11.6214 Y10.2633 
G01 X11.6404 Y10.1925 
G01 X11.6771 Y10.1289 
G01 X11.7289 Y10.0771 
G01 X12.2289 Y9.5771  
G01 X12.2925 Y9.5404  
G01 X12.3633 Y9.5214  
G01 X15.6846 Y9.5214  
G01 X18.6700 Y6.5360  
G01 X18.6722 Y6.5324  
G01 X18.6959 Y6.5101  
G01 X18.7189 Y6.4871  
G01 X18.7226 Y6.4850  
G01 X21.3526 Y4.0064  
G01 X21.3526 Y2.7555  
G01 X21.3848 Y2.5937  
G01 X21.4479 Y2.4413  
G01 X21.5395 Y2.3042  
G01 X21.6562 Y2.1875  
G01 X21.7933 Y2.0959  
G01 X21.9457 Y2.0328  
G01 X22.1075 Y2.0006  
G01 X22.2725 Y2.0006  
G01 X22.4343 Y2.0328  
G01 X22.5867 Y2.0959  
G01 X22.7238 Y2.1875  
G01 X22.8405 Y2.3042  
G01 X22.9321 Y2.4413  
G01 X22.9952 Y2.5937  
G01 X23.0274 Y2.7555  
G01 X23.0274 Y4.4445  
G01 X22.9952 Y4.6063  
G01 X22.9321 Y4.7587  
G01 X22.8405 Y4.8958  
G01 X22.7238 Y5.0125  
G01 X22.5867 Y5.1041  
G01 X22.4343 Y5.1672  
G01 X22.2725 Y5.1994  
G01 X22.1075 Y5.1994  
G01 X21.9457 Y5.1672  
G01 X21.7933 Y5.1041  
G01 X21.6562 Y5.0125  
G01 X21.5395 Y4.8958  
G01 X21.4479 Y4.7587  
G01 X21.4251 Y4.7037  
G01 X19.0841 Y6.9099  
G01 X16.0229 Y9.9711  
G01 X15.9711 Y10.0229 
G01 X15.9075 Y10.0596 
G01 X15.8367 Y10.0786 
G01 X12.5154 Y10.0786 
G01 X12.1786 Y10.4154 
G01 X12.1786 Y22.9811 
G01 X16.7970 Y27.4071 
G01 X17.3722 Y27.3352 
G01 X22.1921 Y22.6137 
G01 X22.2035 Y22.5991 
G01 X22.2182 Y22.5881 
G01 X22.2312 Y22.5753 
G01 X22.2474 Y22.5662 
G01 X22.9214 Y22.0607 
G01 X22.9214 Y19.0633 
G01 X22.9404 Y18.9925 
G01 X22.9771 Y18.9289 
G01 X23.0289 Y18.8771 
G01 X23.0925 Y18.8404 
G01 X23.1633 Y18.8214 
G01 X23.5970 Y18.8214 
G01 X23.5970 Y18.8056 
G01 X23.6085 Y18.7779 
G01 X23.6297 Y18.7567 
G01 X23.6574 Y18.7452 
G01 X24.9574 Y18.7452 
G01 X24.9851 Y18.7567 
G01 X25.0063 Y18.7779 
G01 X25.0178 Y18.8056 
G00 Z1.2000  
G00 X25.0178 Y14.8056 
G01 Z-0.1778 F254   
G01 X25.0178 Y15.3944 F508   
G01 X25.0063 Y15.4221 
G01 X24.9851 Y15.4433 
G01 X24.9574 Y15.4548 
G01 X24.3233 Y15.4548 
G01 X24.3149 Y15.4596 
G01 X24.2441 Y15.4786 
G01 X21.3786 Y15.4786 
G01 X21.3786 Y19.1367 
G01 X21.3596 Y19.2075 
G01 X21.3229 Y19.2711 
G01 X21.2711 Y19.3229 
G01 X19.0406 Y21.5534 
G01 X19.0406 Y24.2480 
G01 X19.0291 Y24.2757 
G01 X19.0079 Y24.2969 
G01 X18.9802 Y24.3084 
G01 X17.0198 Y24.3084 
G01 X16.9921 Y24.2969 
G01 X16.9709 Y24.2757 
G01 X16.9594 Y24.2480 
G01 X16.9594 Y21.9786 
G01 X15.2554 Y21.9786 
G01 X15.2554 Y22.2150 
G01 X15.2439 Y22.2427 
G01 X15.2227 Y22.2639 
G01 X15.1950 Y22.2754 
G01 X13.9650 Y22.2754 
G01 X13.9373 Y22.2639 
G01 X13.9161 Y22.2427 
G01 X13.9046 Y22.2150 
G01 X13.9046 Y21.1850 
G01 X13.9161 Y21.1573 
G01 X13.9373 Y21.1361 
G01 X13.9650 Y21.1246 
G01 X15.1950 Y21.1246 
G01 X15.2227 Y21.1361 
G01 X15.2439 Y21.1573 
G01 X15.2554 Y21.1850 
G01 X15.2554 Y21.4214 
G01 X16.9594 Y21.4214 
G01 X16.9594 Y18.8840 
G01 X16.9709 Y18.8563 
G01 X16.9921 Y18.8351 
G01 X17.0198 Y18.8236 
G01 X18.9802 Y18.8236 
G01 X19.0079 Y18.8351 
G01 X19.0291 Y18.8563 
G01 X19.0406 Y18.8840 
G01 X19.0406 Y20.7654 
G01 X20.8214 Y18.9846 
G01 X20.8214 Y15.1633 
G01 X20.8404 Y15.0925 
G01 X20.8771 Y15.0289 
G01 X20.9289 Y14.9771 
G01 X20.9925 Y14.9404 
G01 X21.0633 Y14.9214 
G01 X23.5970 Y14.9214 
G01 X23.5970 Y14.8056 
G01 X23.6085 Y14.7779 
G01 X23.6297 Y14.7567 
G01 X23.6574 Y14.7452 
G01 X24.9574 Y14.7452 
G01 X24.9851 Y14.7567 
G01 X25.0063 Y14.7779 
G01 X25.0178 Y14.8056 
G00 Z1.2000  
G00 X26.1548 Y12.1574 
G01 Z-0.1778 F254   
G01 X26.1548 Y13.4574 F508   
G01 X26.1433 Y13.4851 
G01 X26.1221 Y13.5063 
G01 X26.0944 Y13.5178 
G01 X25.5056 Y13.5178 
G01 X25.4779 Y13.5063 
G01 X25.4567 Y13.4851 
G01 X25.4452 Y13.4574 
G01 X25.4452 Y12.8466 
G01 X24.5071 Y11.9085 
G01 X24.4704 Y11.8449 
G01 X24.4514 Y11.7741 
G01 X24.4514 Y5.1530  
G01 X24.3333 Y5.1041  
G01 X24.1962 Y5.0125  
G01 X24.0795 Y4.8958  
G01 X23.9879 Y4.7587  
G01 X23.9248 Y4.6063  
G01 X23.8926 Y4.4445  
G01 X23.8926 Y2.7555  
G01 X23.9248 Y2.5937  
G01 X23.9879 Y2.4413  
G01 X24.0795 Y2.3042  
G01 X24.1962 Y2.1875  
G01 X24.3333 Y2.0959  
G01 X24.4857 Y2.0328  
G01 X24.6475 Y2.0006  
G01 X24.8125 Y2.0006  
G01 X24.9743 Y2.0328  
G01 X25.1267 Y2.0959  
G01 X25.2638 Y2.1875  
G01 X25.3804 Y2.3042  
G01 X25.4721 Y2.4413  
G01 X25.5352 Y2.5937  
G01 X25.5674 Y2.7555  
G01 X25.5674 Y4.4445  
G01 X25.5352 Y4.6063  
G01 X25.4721 Y4.7587  
G01 X25.3804 Y4.8958  
G01 X25.2638 Y5.0125  
G01 X25.1267 Y5.1041  
G01 X25.0086 Y5.1530  
G01 X25.0086 Y11.6220 
G01 X25.4900 Y12.1034 
G01 X25.5056 Y12.0970 
G01 X26.0944 Y12.0970 
G01 X26.1221 Y12.1085 
G01 X26.1433 Y12.1297 
G01 X26.1548 Y12.1574 
G00 Z1.2000  
G00 X27.7548 Y12.1574 
G01 Z-0.1778 F254   
G01 X27.7548 Y13.4574 F508   
G01 X27.7433 Y13.4851 
G01 X27.7221 Y13.5063 
G01 X27.6944 Y13.5178 
G01 X27.1056 Y13.5178 
G01 X27.0779 Y13.5063 
G01 X27.0567 Y13.4851 
G01 X27.0452 Y13.4574 
G01 X27.0452 Y12.1574 
G01 X27.0567 Y12.1297 
G01 X27.0779 Y12.1085 
G01 X27.1056 Y12.0970 
G01 X27.1214 Y12.0970 
G01 X27.1214 Y10.3633 
G01 X27.1404 Y10.2925 
G01 X27.1771 Y10.2289 
G01 X27.2289 Y10.1771 
G01 X29.5314 Y7.8746  
G01 X29.5314 Y5.1530  
G01 X29.4133 Y5.1041  
G01 X29.2762 Y5.0125  
G01 X29.1595 Y4.8958  
G01 X29.0679 Y4.7587  
G01 X29.0048 Y4.6063  
G01 X28.9726 Y4.4445  
G01 X28.9726 Y2.7555  
G01 X29.0048 Y2.5937  
G01 X29.0679 Y2.4413  
G01 X29.1595 Y2.3042  
G01 X29.2762 Y2.1875  
G01 X29.4133 Y2.0959  
G01 X29.5657 Y2.0328  
G01 X29.7275 Y2.0006  
G01 X29.8925 Y2.0006  
G01 X30.0543 Y2.0328  
G01 X30.2067 Y2.0959  
G01 X30.3438 Y2.1875  
G01 X30.4605 Y2.3042  
G01 X30.5521 Y2.4413  
G01 X30.6152 Y2.5937  
G01 X30.6474 Y2.7555  
G01 X30.6474 Y4.4445  
G01 X30.6152 Y4.6063  
G01 X30.5521 Y4.7587  
G01 X30.4605 Y4.8958  
G01 X30.3438 Y5.0125  
G01 X30.2067 Y5.1041  
G01 X30.0886 Y5.1530  
G01 X30.0886 Y8.0267  
G01 X30.0696 Y8.0975  
G01 X30.0329 Y8.1611  
G01 X27.6786 Y10.5154 
G01 X27.6786 Y12.0970 
G01 X27.6944 Y12.0970 
G01 X27.7221 Y12.1085 
G01 X27.7433 Y12.1297 
G01 X27.7548 Y12.1574 
G00 Z1.2000  
G00 X28.5548 Y12.1574 
G01 Z-0.1778 F254   
G01 X28.5548 Y13.4574 F508   
G01 X28.5433 Y13.4851 
G01 X28.5221 Y13.5063 
G01 X28.4944 Y13.5178 
G01 X27.9056 Y13.5178 
G01 X27.8779 Y13.5063 
G01 X27.8567 Y13.4851 
G01 X27.8452 Y13.4574 
G01 X27.8452 Y12.1574 
G01 X27.8567 Y12.1297 
G01 X27.8779 Y12.1085 
G01 X27.9056 Y12.0970 
G01 X27.9214 Y12.0970 
G01 X27.9214 Y11.1633 
G01 X27.9404 Y11.0925 
G01 X27.9771 Y11.0289 
G01 X28.0289 Y10.9771 
G01 X32.0714 Y6.9346  
G01 X32.0714 Y5.1530  
G01 X31.9533 Y5.1041  
G01 X31.8162 Y5.0125  
G01 X31.6995 Y4.8958  
G01 X31.6079 Y4.7587  
G01 X31.5448 Y4.6063  
G01 X31.5126 Y4.4445  
G01 X31.5126 Y2.7555  
G01 X31.5448 Y2.5937  
G01 X31.6079 Y2.4413  
G01 X31.6995 Y2.3042  
G01 X31.8162 Y2.1875  
G01 X31.9533 Y2.0959  
G01 X32.1057 Y2.0328  
G01 X32.2675 Y2.0006  
G01 X32.4325 Y2.0006  
G01 X32.5943 Y2.0328  
G01 X32.7467 Y2.0959  
G01 X32.8838 Y2.1875  
G01 X33.0005 Y2.3042  
G01 X33.0921 Y2.4413  
G01 X33.1552 Y2.5937  
G01 X33.1874 Y2.7555  
G01 X33.1874 Y4.4445  
G01 X33.1552 Y4.6063  
G01 X33.0921 Y4.7587  
G01 X33.0005 Y4.8958  
G01 X32.8838 Y5.0125  
G01 X32.7467 Y5.1041  
G01 X32.6286 Y5.1530  
G01 X32.6286 Y7.0867  
G01 X32.6096 Y7.1575  
G01 X32.5729 Y7.2211  
G01 X28.4786 Y11.3154 
G01 X28.4786 Y12.0970 
G01 X28.4944 Y12.0970 
G01 X28.5221 Y12.1085 
G01 X28.5433 Y12.1297 
G01 X28.5548 Y12.1574 
G00 Z1.2000  
G00 X30.1548 Y12.1574 
G01 Z-0.1778 F254   
G01 X30.1548 Y13.4574 F508   
G01 X30.1433 Y13.4851 
G01 X30.1221 Y13.5063 
G01 X30.0944 Y13.5178 
G01 X29.5056 Y13.5178 
G01 X29.4779 Y13.5063 
G01 X29.4567 Y13.4851 
G01 X29.4452 Y13.4574 
G01 X29.4452 Y12.1574 
G01 X29.4567 Y12.1297 
G01 X29.4779 Y12.1085 
G01 X29.5056 Y12.0970 
G01 X29.5214 Y12.0970 
G01 X29.5214 Y11.6633 
G01 X29.5404 Y11.5925 
G01 X29.5771 Y11.5289 
G01 X29.6289 Y11.4771 
G01 X29.8214 Y11.2846 
G01 X29.8214 Y11.2633 
G01 X29.8404 Y11.1925 
G01 X29.8771 Y11.1289 
G01 X29.9289 Y11.0771 
G01 X31.8289 Y9.1771  
G01 X31.8925 Y9.1404  
G01 X31.9633 Y9.1214  
G01 X36.3846 Y9.1214  
G01 X37.1514 Y8.3546  
G01 X37.1514 Y5.1530  
G01 X37.0333 Y5.1041  
G01 X36.8962 Y5.0125  
G01 X36.7795 Y4.8958  
G01 X36.6879 Y4.7587  
G01 X36.6248 Y4.6063  
G01 X36.5926 Y4.4445  
G01 X36.5926 Y2.7555  
G01 X36.6248 Y2.5937  
G01 X36.6879 Y2.4413  
G01 X36.7795 Y2.3042  
G01 X36.8962 Y2.1875  
G01 X37.0333 Y2.0959  
G01 X37.1857 Y2.0328  
G01 X37.3475 Y2.0006  
G01 X37.5125 Y2.0006  
G01 X37.6743 Y2.0328  
G01 X37.8267 Y2.0959  
G01 X37.9638 Y2.1875  
G01 X38.0804 Y2.3042  
G01 X38.1721 Y2.4413  
G01 X38.2352 Y2.5937  
G01 X38.2674 Y2.7555  
G01 X38.2674 Y4.4445  
G01 X38.2352 Y4.6063  
G01 X38.1721 Y4.7587  
G01 X38.0804 Y4.8958  
G01 X37.9638 Y5.0125  
G01 X37.8267 Y5.1041  
G01 X37.7086 Y5.1530  
G01 X37.7086 Y8.5067  
G01 X37.6896 Y8.5775  
G01 X37.6529 Y8.6411  
G01 X36.6711 Y9.6229  
G01 X36.6075 Y9.6596  
G01 X36.5367 Y9.6786  
G01 X32.1154 Y9.6786  
G01 X30.3786 Y11.4154 
G01 X30.3786 Y11.4367 
G01 X30.3596 Y11.5075 
G01 X30.3229 Y11.5711 
G01 X30.0786 Y11.8154 
G01 X30.0786 Y12.0970 
G01 X30.0944 Y12.0970 
G01 X30.1221 Y12.1085 
G01 X30.1433 Y12.1297 
G01 X30.1548 Y12.1574 
G00 Z1.2000  
G00 X31.7548 Y20.7426 
G01 Z-0.1778 F254   
G01 X31.7548 Y22.0426 F508   
G01 X31.7433 Y22.0703 
G01 X31.7221 Y22.0915 
G01 X31.6944 Y22.1030 
G01 X31.6786 Y22.1030 
G01 X31.6786 Y23.2846 
G01 X35.2154 Y26.8214 
G01 X36.3367 Y26.8214 
G01 X36.4075 Y26.8404 
G01 X36.4711 Y26.8771 
G01 X36.5229 Y26.9289 
G01 X39.7393 Y30.1453 
G01 X39.8133 Y30.0959 
G01 X39.9657 Y30.0328 
G01 X40.1275 Y30.0006 
G01 X40.2925 Y30.0006 
G01 X40.4543 Y30.0328 
G01 X40.6067 Y30.0959 
G01 X40.7438 Y30.1875 
G01 X40.8605 Y30.3042 
G01 X40.9521 Y30.4413 
G01 X41.0152 Y30.5937 
G01 X41.0474 Y30.7555 
G01 X41.0474 Y32.4445 
G01 X41.0152 Y32.6063 
G01 X40.9521 Y32.7587 
G01 X40.8605 Y32.8958 
G01 X40.7438 Y33.0125 
G01 X40.6067 Y33.1041 
G01 X40.4543 Y33.1672 
G01 X40.2925 Y33.1994 
G01 X40.1275 Y33.1994 
G01 X39.9657 Y33.1672 
G01 X39.8133 Y33.1041 
G01 X39.6762 Y33.0125 
G01 X39.5595 Y32.8958 
G01 X39.4679 Y32.7587 
G01 X39.4048 Y32.6063 
G01 X39.3726 Y32.4445 
G01 X39.3726 Y30.7555 
G01 X39.4039 Y30.5979 
G01 X36.1846 Y27.3786 
G01 X35.0633 Y27.3786 
G01 X34.9925 Y27.3596 
G01 X34.9289 Y27.3229 
G01 X31.2289 Y23.6229 
G01 X31.1771 Y23.5711 
G01 X31.1404 Y23.5075 
G01 X31.1214 Y23.4367 
G01 X31.1214 Y22.1030 
G01 X31.1056 Y22.1030 
G01 X31.0779 Y22.0915 
G01 X31.0567 Y22.0703 
G01 X31.0452 Y22.0426 
G01 X31.0452 Y20.7426 
G01 X31.0567 Y20.7149 
G01 X31.0779 Y20.6937 
G01 X31.1056 Y20.6822 
G01 X31.6944 Y20.6822 
G01 X31.7221 Y20.6937 
G01 X31.7433 Y20.7149 
G01 X31.7548 Y20.7426 
G00 Z1.2000  
G00 X30.9548 Y20.7426 
G01 Z-0.1778 F254   
G01 X30.9548 Y22.0426 F508   
G01 X30.9433 Y22.0703 
G01 X30.9221 Y22.0915 
G01 X30.8944 Y22.1030 
G01 X30.8786 Y22.1030 
G01 X30.8786 Y23.9846 
G01 X35.1154 Y28.2214 
G01 X35.9367 Y28.2214 
G01 X36.0075 Y28.2404 
G01 X36.0711 Y28.2771 
G01 X37.8051 Y30.0111 
G01 X37.9143 Y30.0328 
G01 X38.0667 Y30.0959 
G01 X38.2038 Y30.1875 
G01 X38.3205 Y30.3042 
G01 X38.4121 Y30.4413 
G01 X38.4752 Y30.5937 
G01 X38.5074 Y30.7555 
G01 X38.5074 Y32.4445 
G01 X38.4752 Y32.6063 
G01 X38.4121 Y32.7587 
G01 X38.3205 Y32.8958 
G01 X38.2038 Y33.0125 
G01 X38.0667 Y33.1041 
G01 X37.9143 Y33.1672 
G01 X37.7525 Y33.1994 
G01 X37.5875 Y33.1994 
G01 X37.4257 Y33.1672 
G01 X37.2733 Y33.1041 
G01 X37.1362 Y33.0125 
G01 X37.0195 Y32.8958 
G01 X36.9279 Y32.7587 
G01 X36.8648 Y32.6063 
G01 X36.8326 Y32.4445 
G01 X36.8326 Y30.7555 
G01 X36.8648 Y30.5937 
G01 X36.9279 Y30.4413 
G01 X37.0195 Y30.3042 
G01 X37.1362 Y30.1875 
G01 X37.1706 Y30.1646 
G01 X35.7846 Y28.7786 
G01 X34.9633 Y28.7786 
G01 X34.8925 Y28.7596 
G01 X34.8289 Y28.7229 
G01 X34.7771 Y28.6711 
G01 X30.3771 Y24.2711 
G01 X30.3404 Y24.2075 
G01 X30.3214 Y24.1367 
G01 X30.3214 Y22.1030 
G01 X30.3056 Y22.1030 
G01 X30.2779 Y22.0915 
G01 X30.2567 Y22.0703 
G01 X30.2452 Y22.0426 
G01 X30.2452 Y20.7426 
G01 X30.2567 Y20.7149 
G01 X30.2779 Y20.6937 
G01 X30.3056 Y20.6822 
G01 X30.8944 Y20.6822 
G01 X30.9221 Y20.6937 
G01 X30.9433 Y20.7149 
G01 X30.9548 Y20.7426 
G00 Z1.2000  
G00 X28.5548 Y20.7426 
G01 Z-0.1778 F254   
G01 X28.5548 Y22.0426 F508   
G01 X28.5433 Y22.0703 
G01 X28.5221 Y22.0915 
G01 X28.4944 Y22.1030 
G01 X28.4786 Y22.1030 
G01 X28.4786 Y26.3367 
G01 X28.4596 Y26.4075 
G01 X28.4229 Y26.4711 
G01 X25.8786 Y29.0154 
G01 X25.8786 Y29.4846 
G01 X26.3711 Y29.9771 
G01 X26.4229 Y30.0289 
G01 X26.4596 Y30.0925 
G01 X26.4786 Y30.1633 
G01 X26.4786 Y33.4916 
G01 X26.4803 Y33.5199 
G01 X26.4786 Y33.5282 
G01 X26.4786 Y33.5367 
G01 X26.4713 Y33.5640 
G01 X26.4656 Y33.5918 
G01 X26.4618 Y33.5994 
G01 X26.4596 Y33.6075 
G01 X26.4454 Y33.6321 
G01 X26.2618 Y33.9993 
G01 X26.2596 Y34.0075 
G01 X26.2454 Y34.0321 
G01 X26.2328 Y34.0574 
G01 X26.2272 Y34.0637 
G01 X26.2229 Y34.0711 
G01 X26.2029 Y34.0911 
G01 X26.1841 Y34.1123 
G01 X26.1770 Y34.1169 
G01 X26.1711 Y34.1229 
G01 X26.1465 Y34.1371 
G01 X26.1229 Y34.1527 
G01 X26.1149 Y34.1554 
G01 X26.1075 Y34.1596 
G01 X26.0802 Y34.1669 
G01 X26.0533 Y34.1759 
G01 X26.0449 Y34.1764 
G01 X26.0367 Y34.1786 
G01 X26.0084 Y34.1786 
G01 X25.9801 Y34.1803 
G01 X25.9718 Y34.1786 
G01 X15.4633 Y34.1786 
G01 X15.3925 Y34.1596 
G01 X15.3289 Y34.1229 
G01 X15.2771 Y34.0711 
G01 X13.7771 Y32.5711 
G01 X13.7404 Y32.5075 
G01 X13.7214 Y32.4367 
G01 X13.7214 Y29.1154 
G01 X11.5157 Y26.9097 
G01 X10.6544 Y26.7672 
G01 X10.6437 Y26.7832 
G01 X10.5270 Y26.8999 
G01 X10.3899 Y26.9915 
G01 X10.2375 Y27.0546 
G01 X10.0757 Y27.0868 
G01 X8.3867  Y27.0868 
G01 X8.2249  Y27.0546 
G01 X8.0725  Y26.9915 
G01 X7.9354  Y26.8999 
G01 X7.8187  Y26.7832 
G01 X7.7271  Y26.6461 
G01 X7.6640  Y26.4937 
G01 X7.6318  Y26.3319 
G01 X7.6318  Y26.1669 
G01 X7.6640  Y26.0051 
G01 X7.7271  Y25.8527 
G01 X7.8187  Y25.7156 
G01 X7.9354  Y25.5989 
G01 X8.0725  Y25.5073 
G01 X8.2249  Y25.4442 
G01 X8.3867  Y25.4120 
G01 X10.0757 Y25.4120 
G01 X10.2375 Y25.4442 
G01 X10.3899 Y25.5073 
G01 X10.5270 Y25.5989 
G01 X10.6437 Y25.7156 
G01 X10.7353 Y25.8527 
G01 X10.7984 Y26.0051 
G01 X10.8306 Y26.1669 
G01 X10.8306 Y26.2316 
G01 X11.6723 Y26.3708 
G01 X11.6861 Y26.3708 
G01 X11.7083 Y26.3768 
G01 X11.7311 Y26.3805 
G01 X11.7436 Y26.3862 
G01 X11.7569 Y26.3898 
G01 X11.7769 Y26.4013 
G01 X11.7979 Y26.4108 
G01 X11.8085 Y26.4196 
G01 X11.8205 Y26.4265 
G01 X11.8368 Y26.4428 
G01 X11.8545 Y26.4574 
G01 X11.8626 Y26.4686 
G01 X14.1711 Y28.7771 
G01 X14.2229 Y28.8289 
G01 X14.2596 Y28.8925 
G01 X14.2786 Y28.9633 
G01 X14.2786 Y32.2846 
G01 X15.6154 Y33.6214 
G01 X25.8278 Y33.6214 
G01 X25.9214 Y33.4342 
G01 X25.9214 Y30.3154 
G01 X25.3771 Y29.7711 
G01 X25.3404 Y29.7075 
G01 X25.3214 Y29.6367 
G01 X25.3214 Y28.8633 
G01 X25.3404 Y28.7925 
G01 X25.3771 Y28.7289 
G01 X25.4289 Y28.6771 
G01 X27.9214 Y26.1846 
G01 X27.9214 Y22.1030 
G01 X27.9056 Y22.1030 
G01 X27.8779 Y22.0915 
G01 X27.8567 Y22.0703 
G01 X27.8452 Y22.0426 
G01 X27.8452 Y20.7426 
G01 X27.8567 Y20.7149 
G01 X27.8779 Y20.6937 
G01 X27.9056 Y20.6822 
G01 X28.4944 Y20.6822 
G01 X28.5221 Y20.6937 
G01 X28.5433 Y20.7149 
G01 X28.5548 Y20.7426 
G00 Z1.2000  
G00 X27.7548 Y20.7426 
G01 Z-0.1778 F254   
G01 X27.7548 Y22.0426 F508   
G01 X27.7433 Y22.0703 
G01 X27.7221 Y22.0915 
G01 X27.6944 Y22.1030 
G01 X27.6786 Y22.1030 
G01 X27.6786 Y24.4668 
G01 X27.6794 Y24.4701 
G01 X27.6786 Y24.5034 
G01 X27.6786 Y24.5367 
G01 X27.6777 Y24.5400 
G01 X27.6776 Y24.5435 
G01 X27.6682 Y24.5753 
G01 X27.6596 Y24.6075 
G01 X27.6579 Y24.6105 
G01 X27.6569 Y24.6138 
G01 X27.6396 Y24.6422 
G01 X27.6229 Y24.6711 
G01 X27.6187 Y24.6764 
G01 X27.5946 Y24.6994 
G01 X27.5711 Y24.7229 
G01 X27.5681 Y24.7247 
G01 X23.4786 Y28.6194 
G01 X23.4786 Y29.5846 
G01 X24.1789 Y30.2849 
G01 X24.2762 Y30.1875 
G01 X24.4133 Y30.0959 
G01 X24.5657 Y30.0328 
G01 X24.7275 Y30.0006 
G01 X24.8925 Y30.0006 
G01 X25.0543 Y30.0328 
G01 X25.2067 Y30.0959 
G01 X25.3438 Y30.1875 
G01 X25.4605 Y30.3042 
G01 X25.5521 Y30.4413 
G01 X25.6152 Y30.5937 
G01 X25.6474 Y30.7555 
G01 X25.6474 Y32.4445 
G01 X25.6152 Y32.6063 
G01 X25.5521 Y32.7587 
G01 X25.4605 Y32.8958 
G01 X25.3438 Y33.0125 
G01 X25.2067 Y33.1041 
G01 X25.0543 Y33.1672 
G01 X24.8925 Y33.1994 
G01 X24.7275 Y33.1994 
G01 X24.5657 Y33.1672 
G01 X24.4133 Y33.1041 
G01 X24.2762 Y33.0125 
G01 X24.1595 Y32.8958 
G01 X24.0679 Y32.7587 
G01 X24.0048 Y32.6063 
G01 X23.9726 Y32.4445 
G01 X23.9726 Y30.8666 
G01 X23.0289 Y29.9229 
G01 X22.9771 Y29.8711 
G01 X22.9404 Y29.8075 
G01 X22.9214 Y29.7367 
G01 X22.9214 Y28.5332 
G01 X22.9206 Y28.5299 
G01 X22.9214 Y28.4966 
G01 X22.9214 Y28.4633 
G01 X22.9223 Y28.4600 
G01 X22.9224 Y28.4565 
G01 X22.9318 Y28.4247 
G01 X22.9404 Y28.3925 
G01 X22.9421 Y28.3895 
G01 X22.9431 Y28.3862 
G01 X22.9604 Y28.3578 
G01 X22.9771 Y28.3289 
G01 X22.9813 Y28.3236 
G01 X23.0054 Y28.3006 
G01 X23.0289 Y28.2771 
G01 X23.0319 Y28.2753 
G01 X27.1214 Y24.3806 
G01 X27.1214 Y22.1030 
G01 X27.1056 Y22.1030 
G01 X27.0779 Y22.0915 
G01 X27.0567 Y22.0703 
G01 X27.0452 Y22.0426 
G01 X27.0452 Y20.9295 
G01 X27.0208 Y20.8320 
G01 X27.0221 Y20.7586 
G01 X27.0422 Y20.6881 
G01 X27.0800 Y20.6252 
G01 X27.1327 Y20.5742 
G01 X27.1968 Y20.5386 
G01 X27.2680 Y20.5208 
G01 X27.3414 Y20.5221 
G01 X27.4119 Y20.5422 
G01 X27.4748 Y20.5800 
G01 X27.5258 Y20.6327 
G01 X27.5533 Y20.6822 
G01 X27.6944 Y20.6822 
G01 X27.7221 Y20.6937 
G01 X27.7433 Y20.7149 
G01 X27.7548 Y20.7426 
G00 Z1.2000  
G00 X26.1548 Y20.7426 
G01 Z-0.1778 F254   
G01 X26.1548 Y22.0426 F508   
G01 X26.1433 Y22.0703 
G01 X26.1221 Y22.0915 
G01 X26.0944 Y22.1030 
G01 X26.0786 Y22.1030 
G01 X26.0786 Y22.2367 
G01 X26.0596 Y22.3075 
G01 X26.0229 Y22.3711 
G01 X19.2786 Y29.1154 
G01 X19.2786 Y30.1325 
G01 X19.3333 Y30.0959 
G01 X19.4857 Y30.0328 
G01 X19.6475 Y30.0006 
G01 X19.8125 Y30.0006 
G01 X19.9743 Y30.0328 
G01 X20.1267 Y30.0959 
G01 X20.2638 Y30.1875 
G01 X20.3804 Y30.3042 
G01 X20.4721 Y30.4413 
G01 X20.5352 Y30.5937 
G01 X20.5674 Y30.7555 
G01 X20.5674 Y32.4445 
G01 X20.5352 Y32.6063 
G01 X20.4721 Y32.7587 
G01 X20.3804 Y32.8958 
G01 X20.2638 Y33.0125 
G01 X20.1267 Y33.1041 
G01 X19.9743 Y33.1672 
G01 X19.8125 Y33.1994 
G01 X19.6475 Y33.1994 
G01 X19.4857 Y33.1672 
G01 X19.3333 Y33.1041 
G01 X19.1962 Y33.0125 
G01 X19.0795 Y32.8958 
G01 X18.9879 Y32.7587 
G01 X18.9248 Y32.6063 
G01 X18.8926 Y32.4445 
G01 X18.8926 Y31.9296 
G01 X18.8722 Y31.9179 
G01 X18.8510 Y31.9082 
G01 X18.8406 Y31.8997 
G01 X18.8289 Y31.8929 
G01 X18.8124 Y31.8764 
G01 X18.7944 Y31.8616 
G01 X18.7866 Y31.8506 
G01 X18.7771 Y31.8411 
G01 X18.7654 Y31.8208 
G01 X18.7518 Y31.8018 
G01 X18.7471 Y31.7892 
G01 X18.7404 Y31.7775 
G01 X18.7343 Y31.7550 
G01 X18.7262 Y31.7331 
G01 X18.7249 Y31.7197 
G01 X18.7214 Y31.7067 
G01 X18.7214 Y31.6833 
G01 X18.7192 Y31.6601 
G01 X18.7214 Y31.6468 
G01 X18.7214 Y28.9633 
G01 X18.7404 Y28.8925 
G01 X18.7771 Y28.8289 
G01 X18.8289 Y28.7771 
G01 X25.5038 Y22.1022 
G01 X25.4779 Y22.0915 
G01 X25.4567 Y22.0703 
G01 X25.4452 Y22.0426 
G01 X25.4452 Y20.7426 
G01 X25.4567 Y20.7149 
G01 X25.4779 Y20.6937 
G01 X25.5056 Y20.6822 
G01 X26.0944 Y20.6822 
G01 X26.1221 Y20.6937 
G01 X26.1433 Y20.7149 
G01 X26.1548 Y20.7426 
G00 Z1.2000  
G00 X34.0526 Y4.4445  
G01 Z-0.1778 F254   
G01 X34.0526 Y2.7555  F508   
G01 X34.0848 Y2.5937  
G01 X34.1479 Y2.4413  
G01 X34.2395 Y2.3042  
G01 X34.3562 Y2.1875  
G01 X34.4933 Y2.0959  
G01 X34.6457 Y2.0328  
G01 X34.8075 Y2.0006  
G01 X34.9725 Y2.0006  
G01 X35.1343 Y2.0328  
G01 X35.2867 Y2.0959  
G01 X35.4238 Y2.1875  
G01 X35.5404 Y2.3042  
G01 X35.6321 Y2.4413  
G01 X35.6952 Y2.5937  
G01 X35.7274 Y2.7555  
G01 X35.7274 Y4.4445  
G01 X35.6952 Y4.6063  
G01 X35.6321 Y4.7587  
G01 X35.5404 Y4.8958  
G01 X35.4238 Y5.0125  
G01 X35.2867 Y5.1041  
G01 X35.1686 Y5.1530  
G01 X35.1686 Y7.0467  
G01 X35.1496 Y7.1175  
G01 X35.1129 Y7.1811  
G01 X33.9229 Y8.3711  
G01 X33.8711 Y8.4229  
G01 X33.8075 Y8.4596  
G01 X33.7367 Y8.4786  
G01 X32.3154 Y8.4786  
G01 X29.2786 Y11.5154 
G01 X29.2786 Y12.0970 
G01 X29.2944 Y12.0970 
G01 X29.3221 Y12.1085 
G01 X29.3433 Y12.1297 
G01 X29.3548 Y12.1574 
G01 X29.3548 Y13.4574 
G01 X29.3433 Y13.4851 
G01 X29.3221 Y13.5063 
G01 X29.2944 Y13.5178 
G01 X28.7056 Y13.5178 
G01 X28.6779 Y13.5063 
G01 X28.6567 Y13.4851 
G01 X28.6452 Y13.4574 
G01 X28.6452 Y12.1574 
G01 X28.6567 Y12.1297 
G01 X28.6779 Y12.1085 
G01 X28.7056 Y12.0970 
G01 X28.7214 Y12.0970 
G01 X28.7214 Y11.3633 
G01 X28.7404 Y11.2925 
G01 X28.7771 Y11.2289 
G01 X28.8289 Y11.1771 
G01 X32.0289 Y7.9771  
G01 X32.0925 Y7.9404  
G01 X32.1633 Y7.9214  
G01 X33.5846 Y7.9214  
G01 X34.6114 Y6.8946  
G01 X34.6114 Y5.1530  
G01 X34.4933 Y5.1041  
G01 X34.3562 Y5.0125  
G01 X34.2395 Y4.8958  
G01 X34.1479 Y4.7587  
G01 X34.0848 Y4.6063  
G01 X34.0526 Y4.4445  
G00 Z1.2000  
G00 X39.1326 Y4.4445  
G01 Z-0.1778 F254   
G01 X39.1326 Y2.7555  F508   
G01 X39.1648 Y2.5937  
G01 X39.2279 Y2.4413  
G01 X39.3195 Y2.3042  
G01 X39.4362 Y2.1875  
G01 X39.5733 Y2.0959  
G01 X39.7257 Y2.0328  
G01 X39.8875 Y2.0006  
G01 X40.0525 Y2.0006  
G01 X40.2143 Y2.0328  
G01 X40.3667 Y2.0959  
G01 X40.5038 Y2.1875  
G01 X40.6205 Y2.3042  
G01 X40.7121 Y2.4413  
G01 X40.7752 Y2.5937  
G01 X40.8074 Y2.7555  
G01 X40.8074 Y4.4445  
G01 X40.7786 Y4.5893  
G01 X40.7786 Y9.3367  
G01 X40.7596 Y9.4075  
G01 X40.7229 Y9.4711  
G01 X40.6711 Y9.5229  
G01 X39.3711 Y10.8229 
G01 X39.3075 Y10.8596 
G01 X39.2367 Y10.8786 
G01 X32.1154 Y10.8786 
G01 X30.8962 Y12.0978 
G01 X30.9221 Y12.1085 
G01 X30.9433 Y12.1297 
G01 X30.9548 Y12.1574 
G01 X30.9548 Y13.4574 
G01 X30.9433 Y13.4851 
G01 X30.9221 Y13.5063 
G01 X30.8944 Y13.5178 
G01 X30.3056 Y13.5178 
G01 X30.2779 Y13.5063 
G01 X30.2567 Y13.4851 
G01 X30.2452 Y13.4574 
G01 X30.2452 Y12.1574 
G01 X30.2567 Y12.1297 
G01 X30.2779 Y12.1085 
G01 X30.3056 Y12.0970 
G01 X30.3214 Y12.0970 
G01 X30.3214 Y11.9633 
G01 X30.3404 Y11.8925 
G01 X30.3771 Y11.8289 
G01 X31.7771 Y10.4289 
G01 X31.8289 Y10.3771 
G01 X31.8925 Y10.3404 
G01 X31.9633 Y10.3214 
G01 X39.0846 Y10.3214 
G01 X40.2214 Y9.1846  
G01 X40.2214 Y5.1643  
G01 X40.2143 Y5.1672  
G01 X40.0525 Y5.1994  
G01 X39.8875 Y5.1994  
G01 X39.7257 Y5.1672  
G01 X39.5733 Y5.1041  
G01 X39.4362 Y5.0125  
G01 X39.3195 Y4.8958  
G01 X39.2279 Y4.7587  
G01 X39.1648 Y4.6063  
G01 X39.1326 Y4.4445  
G00 Z1.2000  
G00 X44.2126 Y4.4445  
G01 Z-0.1778 F254   
G01 X44.2126 Y2.7555  F508   
G01 X44.2448 Y2.5937  
G01 X44.3079 Y2.4413  
G01 X44.3995 Y2.3042  
G01 X44.5162 Y2.1875  
G01 X44.6533 Y2.0959  
G01 X44.8057 Y2.0328  
G01 X44.9675 Y2.0006  
G01 X45.1325 Y2.0006  
G01 X45.2943 Y2.0328  
G01 X45.4467 Y2.0959  
G01 X45.5838 Y2.1875  
G01 X45.7005 Y2.3042  
G01 X45.7921 Y2.4413  
G01 X45.8552 Y2.5937  
G01 X45.8874 Y2.7555  
G01 X45.8874 Y4.4445  
G01 X45.8552 Y4.6063  
G01 X45.7921 Y4.7587  
G01 X45.7005 Y4.8958  
G01 X45.5838 Y5.0125  
G01 X45.4467 Y5.1041  
G01 X45.2943 Y5.1672  
G01 X45.1325 Y5.1994  
G01 X44.9675 Y5.1994  
G01 X44.8057 Y5.1672  
G01 X44.6533 Y5.1041  
G01 X44.5162 Y5.0125  
G01 X44.3995 Y4.8958  
G01 X44.3079 Y4.7587  
G01 X44.2448 Y4.6063  
G01 X44.2126 Y4.4445  
G00 Z1.2000  
G00 X23.1074 Y30.7555 
G01 Z-0.1778 F254   
G01 X23.1074 Y32.4445 F508   
G01 X23.0752 Y32.6063 
G01 X23.0121 Y32.7587 
G01 X22.9205 Y32.8958 
G01 X22.8038 Y33.0125 
G01 X22.6667 Y33.1041 
G01 X22.5143 Y33.1672 
G01 X22.3525 Y33.1994 
G01 X22.1875 Y33.1994 
G01 X22.0257 Y33.1672 
G01 X21.8733 Y33.1041 
G01 X21.7362 Y33.0125 
G01 X21.6195 Y32.8958 
G01 X21.5279 Y32.7587 
G01 X21.4648 Y32.6063 
G01 X21.4326 Y32.4445 
G01 X21.4326 Y31.1266 
G01 X20.3771 Y30.0711 
G01 X20.3404 Y30.0075 
G01 X20.3214 Y29.9367 
G01 X20.3214 Y29.0633 
G01 X20.3404 Y28.9925 
G01 X20.3771 Y28.9289 
G01 X20.4289 Y28.8771 
G01 X26.3214 Y22.9846 
G01 X26.3214 Y22.1030 
G01 X26.3056 Y22.1030 
G01 X26.2779 Y22.0915 
G01 X26.2567 Y22.0703 
G01 X26.2452 Y22.0426 
G01 X26.2452 Y20.7426 
G01 X26.2567 Y20.7149 
G01 X26.2779 Y20.6937 
G01 X26.3056 Y20.6822 
G01 X26.8944 Y20.6822 
G01 X26.9221 Y20.6937 
G01 X26.9433 Y20.7149 
G01 X26.9548 Y20.7426 
G01 X26.9548 Y22.0426 
G01 X26.9433 Y22.0703 
G01 X26.9221 Y22.0915 
G01 X26.8944 Y22.1030 
G01 X26.8786 Y22.1030 
G01 X26.8786 Y23.1367 
G01 X26.8596 Y23.2075 
G01 X26.8229 Y23.2711 
G01 X20.8786 Y29.2154 
G01 X20.8786 Y29.7846 
G01 X21.5309 Y30.4369 
G01 X21.6195 Y30.3042 
G01 X21.7362 Y30.1875 
G01 X21.8733 Y30.0959 
G01 X22.0257 Y30.0328 
G01 X22.1875 Y30.0006 
G01 X22.3525 Y30.0006 
G01 X22.5143 Y30.0328 
G01 X22.6667 Y30.0959 
G01 X22.8038 Y30.1875 
G01 X22.9205 Y30.3042 
G01 X23.0121 Y30.4413 
G01 X23.0752 Y30.5937 
G01 X23.1074 Y30.7555 
G00 Z1.2000  
G00 X26.4326 Y4.4445  
G01 Z-0.1778 F254   
G01 X26.4326 Y2.7555  F508   
G01 X26.4648 Y2.5937  
G01 X26.5279 Y2.4413  
G01 X26.6195 Y2.3042  
G01 X26.7362 Y2.1875  
G01 X26.8733 Y2.0959  
G01 X27.0257 Y2.0328  
G01 X27.1875 Y2.0006  
G01 X27.3525 Y2.0006  
G01 X27.5143 Y2.0328  
G01 X27.6667 Y2.0959  
G01 X27.8038 Y2.1875  
G01 X27.9205 Y2.3042  
G01 X28.0121 Y2.4413  
G01 X28.0752 Y2.5937  
G01 X28.1074 Y2.7555  
G01 X28.1074 Y4.4445  
G01 X28.0752 Y4.6063  
G01 X28.0121 Y4.7587  
G01 X27.9205 Y4.8958  
G01 X27.8038 Y5.0125  
G01 X27.6667 Y5.1041  
G01 X27.5486 Y5.1530  
G01 X27.5486 Y9.1667  
G01 X27.5296 Y9.2375  
G01 X27.4929 Y9.3011  
G01 X26.8786 Y9.9154  
G01 X26.8786 Y12.0970 
G01 X26.8944 Y12.0970 
G01 X26.9221 Y12.1085 
G01 X26.9433 Y12.1297 
G01 X26.9548 Y12.1574 
G01 X26.9548 Y13.4574 
G01 X26.9433 Y13.4851 
G01 X26.9221 Y13.5063 
G01 X26.8944 Y13.5178 
G01 X26.3056 Y13.5178 
G01 X26.2779 Y13.5063 
G01 X26.2567 Y13.4851 
G01 X26.2452 Y13.4574 
G01 X26.2452 Y12.1574 
G01 X26.2567 Y12.1297 
G01 X26.2779 Y12.1085 
G01 X26.3056 Y12.0970 
G01 X26.3214 Y12.0970 
G01 X26.3214 Y9.7633  
G01 X26.3404 Y9.6925  
G01 X26.3771 Y9.6289  
G01 X26.4289 Y9.5771  
G01 X26.9914 Y9.0146  
G01 X26.9914 Y5.1530  
G01 X26.8733 Y5.1041  
G01 X26.7362 Y5.0125  
G01 X26.6195 Y4.8958  
G01 X26.5279 Y4.7587  
G01 X26.4648 Y4.6063  
G01 X26.4326 Y4.4445  
G00 Z1.2000  
G82 X14.5700 Y3.5900  Z-0.2794 F254   R1.2000  P1.000000
G82 X17.1100 Y3.5900  
G82 X32.3500 Y3.6000  
G82 X34.8900 Y3.6000  
G82 X37.4300 Y3.6000  
G82 X39.9700 Y3.6000  
G82 X42.5100 Y3.6000  
G82 X45.0500 Y3.6000  
G82 X45.2900 Y31.6000 
G82 X42.7500 Y31.6000 
G82 X40.2100 Y31.6000 
G82 X37.6700 Y31.6000 
G82 X35.1300 Y31.6000 
G82 X32.5900 Y31.6000 
G82 X30.0500 Y31.6000 
G82 X27.5100 Y31.6000 
G82 X24.8100 Y31.6000 
G82 X22.2700 Y31.6000 
G82 X19.7300 Y31.6000 
G82 X17.1900 Y31.6000 
G82 X22.1900 Y3.6000  
G82 X24.7300 Y3.6000  
G82 X27.2700 Y3.6000  
G82 X29.8100 Y3.6000  
G82 X9.2312  Y26.2494 
G82 X2.7288  Y26.2494 
G82 X9.2312  Y30.7706 
G82 X2.7288  Y30.7706 
G82 X5.1900  Y9.7600  
G82 X5.1900  Y5.3600  
G82 X42.9300 Y23.1800 
G82 X45.4700 Y23.1800 
G82 X42.9300 Y20.6400 
G82 X45.4700 Y20.6400 
G82 X42.9300 Y18.1000 
G82 X45.4700 Y18.1000 
G82 X42.9300 Y15.5600 
G82 X45.4700 Y15.5600 
G82 X42.9300 Y13.0200 
G82 X45.4700 Y13.0200 
M05
M02
