(.../Program Files (x86)/EAGLE-6.5.0/ulp/pcb-gcode.ulp)
(Copyright 2005 - 2012 by John Johnson)
(See readme.txt for licensing terms.)
(This file generated from the board:)
(.../Clock Atmega328p/ClockSure.brd)
(Current profile is .../EAGLE-6.5.0/ulp/profiles/mach.pp  )
(This file generated 06/11/2013 7:36:04 PM)
(Settings from pcb-machine.h)
(  Tool Size)
(0.1000  )
(Z Axis Settings)
(  High     Up        Down     Drill)
(1.2000  	-1.2000 	0.2778  	-0.8128 )
(spindle on time = 3.0000)
(milling depth = 0.1254)
(text depth = -0.1270)
(tool change at 12.7000 15.2400 25.4000 )
(feed rate xy = F508   )
(feed rate z  = F254   )
(Settings from pcb-defaults.h)
(isolate min = 0.0254)
(isolate max = 0.5080)
(isolate step = 0.1270)
(Generated top outlines, top drill, bottom outlines, bottom drill, )
(Unit of measure: mm)
( Tool|       Size       |  Min Sub |  Max Sub |   Count )
( T01 | 0.600mm 0.0236in | 0.0000in | 0.0000in |       0 )
( T02 | 0.813mm 0.0320in | 0.0000in | 0.0000in |       0 )
( T03 | 0.900mm 0.0354in | 0.0000in | 0.0000in |       0 )
( T04 | 1.000mm 0.0394in | 0.0000in | 0.0000in |       0 )
( T05 | 1.016mm 0.0400in | 0.0000in | 0.0000in |       0 )
(Metric Mode)
G21
(Absolute Coordinates)
G90
M05
G00 Z25.4000 
G00 X12.7000 Y15.2400 
M06 T01  ; 0.6000  
G01 Z0.0000  F254   
M06 T01  ; 0.6000  
G00 Z-1.2000 
M03
G04 P3.000000
G82 X107.4000 Y19.5000 Z-0.8128 F254   R-1.2000 P1.000000
M05
G00 Z25.4000 
M06 T02  ; 0.8128  
G01 Z0.0000  F254   
M06 T02  ; 0.8128  
G00 Z-1.2000 
M03
G04 P3.000000
G82 X32.2900 Y38.1600 Z-0.8128 F254   R-1.2000 P1.000000
G82 X32.2900 Y28.0000 
G82 X49.2600 Y37.2300 
G82 X49.2600 Y29.6100 
G82 X50.1100 Y11.0400 
G82 X50.1100 Y21.2000 
G82 X51.8000 Y37.2300 
G82 X51.8000 Y29.6100 
G82 X54.3400 Y37.2300 
G82 X54.3400 Y29.6100 
G82 X56.8800 Y37.2300 
G82 X56.8800 Y29.6100 
G82 X59.4200 Y37.2300 
G82 X59.4200 Y29.6100 
G82 X61.9600 Y37.2300 
G82 X61.9600 Y29.6100 
G82 X64.5000 Y37.2300 
G82 X64.5000 Y29.6100 
G82 X65.0900 Y16.5500 
G82 X66.3700 Y11.1900 
G82 X67.0400 Y37.2300 
G82 X67.0400 Y29.6100 
G82 X67.6300 Y16.5500 
G82 X68.2370 Y21.9100 
G82 X68.9100 Y11.1900 
G82 X69.5800 Y37.2300 
G82 X69.5800 Y29.6100 
G82 X72.1200 Y37.2300 
G82 X72.1200 Y29.6100 
G82 X73.0630 Y21.9100 
G82 X74.6600 Y37.2300 
G82 X74.6600 Y29.6100 
G82 X77.2000 Y37.2300 
G82 X77.2000 Y29.6100 
G82 X79.7400 Y37.2300 
G82 X79.7400 Y29.6100 
G82 X82.2800 Y37.2300 
G82 X82.2800 Y29.6100 
G82 X110.9700 Y27.0600 
G82 X110.9700 Y29.6000 
G82 X23.5900 Y38.3600 
G82 X23.5900 Y28.2000 
G82 X23.6500 Y4.4400  
G82 X23.6500 Y6.9800  
M05
G00 Z25.4000 
M06 T03  ; 0.9000  
G01 Z0.0000  F254   
M06 T03  ; 0.9000  
G00 Z-1.2000 
M03
G04 P3.000000
G82 X6.1300  Y3.8300  Z-0.8128 F254   R-1.2000 P1.000000
G82 X6.1300  Y8.2300  
M05
G00 Z25.4000 
M06 T04  ; 1.0000  
G01 Z0.0000  F254   
M06 T04  ; 1.0000  
G00 Z-1.2000 
M03
G04 P3.000000
G82 X33.5900 Y17.0300 Z-0.8128 F254   R-1.2000 P1.000000
G82 X33.5900 Y19.5700 
G82 X95.2300 Y17.0700 
G82 X95.2300 Y19.6100 
G82 X97.7700 Y17.0700 
G82 X97.7700 Y19.6100 
G82 X100.3100 Y17.0700 
G82 X100.3100 Y19.6100 
G82 X102.8500 Y17.0700 
G82 X102.8500 Y19.6100 
G82 X105.3900 Y17.0700 
G82 X105.3900 Y19.6100 
G82 X107.9300 Y17.0700 
G82 X107.9300 Y19.6100 
G82 X110.4700 Y17.0700 
G82 X110.4700 Y19.6100 
G82 X113.0100 Y17.0700 
G82 X113.0100 Y19.6100 
G82 X119.3700 Y48.4600 
G82 X119.3700 Y51.0000 
G82 X119.3700 Y53.5400 
G82 X119.3700 Y56.0800 
G82 X119.3700 Y58.6200 
G82 X121.9100 Y48.4600 
G82 X121.9100 Y51.0000 
G82 X121.9100 Y53.5400 
G82 X121.9100 Y56.0800 
G82 X121.9100 Y58.6200 
G82 X15.8100 Y17.0300 
G82 X15.8100 Y19.5700 
G82 X18.3500 Y17.0300 
G82 X18.3500 Y19.5700 
G82 X20.8900 Y17.0300 
G82 X20.8900 Y19.5700 
G82 X23.4300 Y17.0300 
G82 X23.4300 Y19.5700 
G82 X25.9700 Y17.0300 
G82 X25.9700 Y19.5700 
G82 X28.5100 Y17.0300 
G82 X28.5100 Y19.5700 
G82 X31.0500 Y17.0300 
G82 X31.0500 Y19.5700 
M05
G00 Z25.4000 
M06 T05  ; 1.0160  
G01 Z0.0000  F254   
M06 T05  ; 1.0160  
G00 Z-1.2000 
M03
G04 P3.000000
G82 X46.7700 Y44.3500 Z-0.8128 F254   R-1.2000 P1.000000
G82 X49.3100 Y44.3500 
G82 X51.8500 Y44.3500 
G82 X54.3900 Y44.3500 
G82 X56.9300 Y44.3500 
G82 X9.6800  Y34.4000 
G82 X108.5288 Y35.6294 
G82 X108.5288 Y40.1506 
G82 X115.0312 Y35.6294 
G82 X115.0312 Y40.1506 
G82 X12.2200 Y34.4000 
G82 X14.7600 Y34.4000 
G82 X17.3000 Y34.4000 
T01 
G00 Z1.2000  
M05
M02
