(.../Program Files (x86)/EAGLE-6.5.0/ulp/pcb-gcode.ulp)
(Copyright 2005 - 2012 by John Johnson)
(See readme.txt for licensing terms.)
(This file generated from the board:)
(.../Clock Atmega328p/ClockSure.brd)
(Current profile is .../EAGLE-6.5.0/ulp/profiles/mach.pp  )
(This file generated 06/11/2013 7:36:01 PM)
(Settings from pcb-machine.h)
(  Tool Size)
(0.1000  )
(Z Axis Settings)
(  High     Up        Down     Drill)
(1.2000  	-1.2000 	0.2778  	-0.8128 )
(spindle on time = 3.0000)
(milling depth = 0.1254)
(text depth = -0.1270)
(tool change at 12.7000 15.2400 25.4000 )
(feed rate xy = F508   )
(feed rate z  = F254   )
(Settings from pcb-defaults.h)
(isolate min = 0.0254)
(isolate max = 0.5080)
(isolate step = 0.1270)
(Generated top outlines, top drill, bottom outlines, bottom drill, )
(Unit of measure: mm)
(Metric Mode)
G21
(Absolute Coordinates)
G90
G00 X0.0000  Y0.0000  
M03
G04 P3.000000
G00 Z-1.2000 
G00 X70.1846 Y31.4214 
G01 Z0.2778  F254   
G01 X70.5214 Y31.0846 F508   
G01 X70.5214 Y21.9154 
G01 X67.7771 Y19.1711 
G01 X67.7404 Y19.1075 
G01 X67.7214 Y19.0367 
G01 X67.7214 Y17.2858 
G01 X67.3252 Y17.2858 
G01 X66.8942 Y16.8548 
G01 X66.8942 Y16.2452 
G01 X67.3252 Y15.8142 
G01 X67.7214 Y15.8142 
G01 X67.7214 Y15.1154 
G01 X66.1471 Y13.5411 
G01 X66.1104 Y13.4775 
G01 X66.0914 Y13.4067 
G01 X66.0914 Y11.9258 
G01 X66.0652 Y11.9258 
G01 X66.0467 Y11.9073 
G01 X62.2786 Y15.6754 
G01 X62.2786 Y20.8846 
G01 X65.3729 Y23.9789 
G01 X67.2629 Y25.8689 
G01 X67.2996 Y25.9325 
G01 X67.3186 Y26.0033 
G01 X67.3186 Y28.2686 
G01 X67.3885 Y28.2975 
G01 X67.5090 Y28.3781 
G01 X67.6115 Y28.4806 
G01 X67.6921 Y28.6011 
G01 X67.7475 Y28.7350 
G01 X67.7758 Y28.8771 
G01 X67.7758 Y30.3429 
G01 X67.7475 Y30.4850 
G01 X67.6921 Y30.6189 
G01 X67.6115 Y30.7394 
G01 X67.5090 Y30.8419 
G01 X67.3885 Y30.9225 
G01 X67.2786 Y30.9680 
G01 X67.2786 Y30.9846 
G01 X67.7154 Y31.4214 
G01 X70.1846 Y31.4214 
G00 Z-1.2000 
G00 X68.9728 Y21.8375 
G01 Z0.2778  F254   
G01 X68.9728 Y21.9825 F508   
G01 X68.9445 Y22.1246 
G01 X68.8891 Y22.2585 
G01 X68.8085 Y22.3790 
G01 X68.7786 Y22.4090 
G01 X68.7786 Y24.8846 
G01 X69.8029 Y25.9089 
G01 X69.8396 Y25.9725 
G01 X69.8586 Y26.0433 
G01 X69.8586 Y28.2686 
G01 X69.9285 Y28.2975 
G01 X70.0490 Y28.3781 
G01 X70.1515 Y28.4806 
G01 X70.2321 Y28.6011 
G01 X70.2875 Y28.7350 
G01 X70.3158 Y28.8771 
G01 X70.3158 Y30.3429 
G01 X70.2875 Y30.4850 
G01 X70.2321 Y30.6189 
G01 X70.1515 Y30.7394 
G01 X70.0490 Y30.8419 
G01 X69.9285 Y30.9225 
G01 X69.7946 Y30.9779 
G01 X69.6525 Y31.0062 
G01 X69.5075 Y31.0062 
G01 X69.3654 Y30.9779 
G01 X69.2315 Y30.9225 
G01 X69.1110 Y30.8419 
G01 X69.0085 Y30.7394 
G01 X68.9279 Y30.6189 
G01 X68.8725 Y30.4850 
G01 X68.8442 Y30.3429 
G01 X68.8442 Y28.8771 
G01 X68.8725 Y28.7350 
G01 X68.9279 Y28.6011 
G01 X69.0085 Y28.4806 
G01 X69.1110 Y28.3781 
G01 X69.2315 Y28.2975 
G01 X69.3014 Y28.2686 
G01 X69.3014 Y26.1954 
G01 X68.3289 Y25.2229 
G01 X68.2771 Y25.1711 
G01 X68.2404 Y25.1075 
G01 X68.2214 Y25.0367 
G01 X68.2214 Y22.6458 
G01 X68.1645 Y22.6458 
G01 X68.0224 Y22.6175 
G01 X67.8885 Y22.5621 
G01 X67.7680 Y22.4815 
G01 X67.6655 Y22.3790 
G01 X67.5849 Y22.2585 
G01 X67.5295 Y22.1246 
G01 X67.5012 Y21.9825 
G01 X67.5012 Y21.8375 
G01 X67.5295 Y21.6954 
G01 X67.5584 Y21.6254 
G01 X64.8671 Y18.9341 
G01 X64.8304 Y18.8705 
G01 X64.8114 Y18.7997 
G01 X64.8114 Y17.2858 
G01 X64.7852 Y17.2858 
G01 X64.3542 Y16.8548 
G01 X64.3542 Y16.2452 
G01 X64.7852 Y15.8142 
G01 X65.3948 Y15.8142 
G01 X65.8258 Y16.2452 
G01 X65.8258 Y16.8548 
G01 X65.3948 Y17.2858 
G01 X65.3686 Y17.2858 
G01 X65.3686 Y18.6476 
G01 X67.9524 Y21.2314 
G01 X68.0224 Y21.2025 
G01 X68.1645 Y21.1742 
G01 X68.3095 Y21.1742 
G01 X68.4516 Y21.2025 
G01 X68.5855 Y21.2579 
G01 X68.7060 Y21.3385 
G01 X68.8085 Y21.4410 
G01 X68.8891 Y21.5615 
G01 X68.9445 Y21.6954 
G01 X68.9728 Y21.8375 
G00 Z-1.2000 
G00 X26.7994 Y19.2264 
G01 Z0.2778  F254   
G01 X26.7994 Y19.9135 F508   
G01 X26.3135 Y20.3994 
G01 X25.6265 Y20.3994 
G01 X25.1406 Y19.9135 
G01 X25.1406 Y19.2264 
G01 X25.6265 Y18.7406 
G01 X26.3135 Y18.7406 
G01 X26.7994 Y19.2264 
G00 Z-1.2000 
G00 X26.7994 Y16.6865 
G01 Z0.2778  F254   
G01 X26.7994 Y17.3735 F508   
G01 X26.3135 Y17.8594 
G01 X25.6265 Y17.8594 
G01 X25.1406 Y17.3735 
G01 X25.1406 Y16.6865 
G01 X25.6265 Y16.2006 
G01 X26.3135 Y16.2006 
G01 X26.7994 Y16.6865 
G00 Z-1.2000 
G00 X24.2594 Y19.2264 
G01 Z0.2778  F254   
G01 X24.2594 Y19.9135 F508   
G01 X23.7735 Y20.3994 
G01 X23.0865 Y20.3994 
G01 X22.6006 Y19.9135 
G01 X22.6006 Y19.2264 
G01 X22.6465 Y19.1805 
G01 X21.9771 Y18.5111 
G01 X21.9404 Y18.4475 
G01 X21.9214 Y18.3767 
G01 X21.9214 Y15.6633 
G01 X21.9404 Y15.5925 
G01 X21.9771 Y15.5289 
G01 X22.0214 Y15.4846 
G01 X22.0214 Y15.4633 
G01 X22.0404 Y15.3925 
G01 X22.0771 Y15.3289 
G01 X22.1289 Y15.2771 
G01 X23.3714 Y14.0346 
G01 X23.3714 Y7.8555  
G01 X23.2874 Y7.8555  
G01 X22.7745 Y7.3426  
G01 X22.7745 Y7.2586  
G01 X13.9354 Y7.2586  
G01 X13.1685 Y8.0255  
G01 X13.1786 Y8.0633  
G01 X13.1786 Y28.0367 
G01 X13.1596 Y28.1075 
G01 X13.1229 Y28.1711 
G01 X13.0711 Y28.2229 
G01 X9.9586  Y31.3354 
G01 X9.9586  Y32.8470 
G01 X10.0767 Y32.8959 
G01 X10.2138 Y32.9875 
G01 X10.3305 Y33.1042 
G01 X10.4221 Y33.2413 
G01 X10.4852 Y33.3937 
G01 X10.5174 Y33.5555 
G01 X10.5174 Y35.2445 
G01 X10.4852 Y35.4063 
G01 X10.4221 Y35.5587 
G01 X10.3305 Y35.6958 
G01 X10.2138 Y35.8124 
G01 X10.0767 Y35.9041 
G01 X9.9243  Y35.9672 
G01 X9.7625  Y35.9994 
G01 X9.5975  Y35.9994 
G01 X9.4357  Y35.9672 
G01 X9.2833  Y35.9041 
G01 X9.1462  Y35.8124 
G01 X9.0295  Y35.6958 
G01 X8.9379  Y35.5587 
G01 X8.8748  Y35.4063 
G01 X8.8426  Y35.2445 
G01 X8.8426  Y33.5555 
G01 X8.8748  Y33.3937 
G01 X8.9379  Y33.2413 
G01 X9.0295  Y33.1042 
G01 X9.1462  Y32.9875 
G01 X9.2833  Y32.8959 
G01 X9.4014  Y32.8470 
G01 X9.4014  Y31.1833 
G01 X9.4204  Y31.1125 
G01 X9.4571  Y31.0489 
G01 X9.5089  Y30.9971 
G01 X12.6214 Y27.8846 
G01 X12.6214 Y8.2154  
G01 X12.5771 Y8.1711  
G01 X12.3846 Y7.9786  
G01 X9.1633  Y7.9786  
G01 X9.0925  Y7.9596  
G01 X9.0852  Y7.9554  
G01 X7.5650  Y7.9554  
G01 X7.5373  Y7.9439  
G01 X7.5161  Y7.9227  
G01 X7.5046  Y7.8950  
G01 X7.5046  Y7.3650  
G01 X7.5161  Y7.3373  
G01 X7.5373  Y7.3161  
G01 X7.5650  Y7.3046  
G01 X10.6950 Y7.3046  
G01 X10.7227 Y7.3161  
G01 X10.7439 Y7.3373  
G01 X10.7554 Y7.3650  
G01 X10.7554 Y7.4214  
G01 X12.5367 Y7.4214  
G01 X12.6075 Y7.4404  
G01 X12.6711 Y7.4771  
G01 X12.7229 Y7.5289  
G01 X12.8000 Y7.6060  
G01 X13.6489 Y6.7571  
G01 X13.7125 Y6.7204  
G01 X13.7833 Y6.7014  
G01 X22.7745 Y6.7014  
G01 X22.7745 Y6.6174  
G01 X23.2874 Y6.1045  
G01 X24.0126 Y6.1045  
G01 X24.5255 Y6.6174  
G01 X24.5255 Y7.3426  
G01 X24.0126 Y7.8555  
G01 X23.9286 Y7.8555  
G01 X23.9286 Y14.1867 
G01 X23.9096 Y14.2575 
G01 X23.8729 Y14.3211 
G01 X22.5786 Y15.6154 
G01 X22.5786 Y15.6367 
G01 X22.5596 Y15.7075 
G01 X22.5229 Y15.7711 
G01 X22.4786 Y15.8154 
G01 X22.4786 Y18.2246 
G01 X23.0405 Y18.7865 
G01 X23.0865 Y18.7406 
G01 X23.7735 Y18.7406 
G01 X24.2594 Y19.2264 
G00 Z-1.2000 
G00 X24.2594 Y16.6865 
G01 Z0.2778  F254   
G01 X24.2594 Y17.3735 F508   
G01 X23.7735 Y17.8594 
G01 X23.0865 Y17.8594 
G01 X22.6006 Y17.3735 
G01 X22.6006 Y16.6865 
G01 X23.0865 Y16.2006 
G01 X23.7735 Y16.2006 
G01 X24.2594 Y16.6865 
G00 Z-1.2000 
G00 X21.7194 Y19.2264 
G01 Z0.2778  F254   
G01 X21.7194 Y19.9135 F508   
G01 X21.2335 Y20.3994 
G01 X20.5465 Y20.3994 
G01 X20.0606 Y19.9135 
G01 X20.0606 Y19.2264 
G01 X20.5465 Y18.7406 
G01 X21.2335 Y18.7406 
G01 X21.7194 Y19.2264 
G00 Z-1.2000 
G00 X21.7194 Y16.6865 
G01 Z0.2778  F254   
G01 X21.7194 Y17.3735 F508   
G01 X21.2335 Y17.8594 
G01 X20.5465 Y17.8594 
G01 X20.0606 Y17.3735 
G01 X20.0606 Y16.6865 
G01 X20.5465 Y16.2006 
G01 X21.2335 Y16.2006 
G01 X21.7194 Y16.6865 
G00 Z-1.2000 
G00 X19.1794 Y19.2264 
G01 Z0.2778  F254   
G01 X19.1794 Y19.9135 F508   
G01 X18.6935 Y20.3994 
G01 X18.0065 Y20.3994 
G01 X17.5206 Y19.9135 
G01 X17.5206 Y19.2264 
G01 X18.0065 Y18.7406 
G01 X18.6935 Y18.7406 
G01 X19.1794 Y19.2264 
G00 Z-1.2000 
G00 X19.1794 Y16.6865 
G01 Z0.2778  F254   
G01 X19.1794 Y17.3735 F508   
G01 X18.6935 Y17.8594 
G01 X18.0065 Y17.8594 
G01 X17.5206 Y17.3735 
G01 X17.5206 Y16.6865 
G01 X18.0065 Y16.2006 
G01 X18.6935 Y16.2006 
G01 X19.1794 Y16.6865 
G00 Z-1.2000 
G00 X16.6394 Y19.2264 
G01 Z0.2778  F254   
G01 X16.6394 Y19.9135 F508   
G01 X16.1535 Y20.3994 
G01 X15.4665 Y20.3994 
G01 X14.9806 Y19.9135 
G01 X14.9806 Y19.2264 
G01 X15.4665 Y18.7406 
G01 X16.1535 Y18.7406 
G01 X16.6394 Y19.2264 
G00 Z-1.2000 
G00 X16.6394 Y16.6865 
G01 Z0.2778  F254   
G01 X16.6394 Y17.3735 F508   
G01 X16.1535 Y17.8594 
G01 X15.4665 Y17.8594 
G01 X14.9806 Y17.3735 
G01 X14.9806 Y16.6865 
G01 X15.4665 Y16.2006 
G01 X16.1535 Y16.2006 
G01 X16.6394 Y16.6865 
G00 Z-1.2000 
G00 X120.1994 Y50.9183 
G01 Z0.2778  F254   
G01 X120.1994 Y51.0817 F508   
G01 X120.1675 Y51.2419 
G01 X120.1050 Y51.3929 
G01 X120.0142 Y51.5287 
G01 X119.8987 Y51.6442 
G01 X119.7629 Y51.7350 
G01 X119.6119 Y51.7975 
G01 X119.4517 Y51.8294 
G01 X119.2883 Y51.8294 
G01 X119.1281 Y51.7975 
G01 X118.9771 Y51.7350 
G01 X118.8413 Y51.6442 
G01 X118.7258 Y51.5287 
G01 X118.6350 Y51.3929 
G01 X118.5725 Y51.2419 
G01 X118.5599 Y51.1786 
G01 X115.9633 Y51.1786 
G01 X115.8925 Y51.1596 
G01 X115.8289 Y51.1229 
G01 X115.7771 Y51.0711 
G01 X112.7846 Y48.0786 
G01 X81.2633 Y48.0786 
G01 X81.1925 Y48.0596 
G01 X81.1289 Y48.0229 
G01 X81.0771 Y47.9711 
G01 X71.8971 Y38.7911 
G01 X71.8604 Y38.7275 
G01 X71.8414 Y38.6567 
G01 X71.8414 Y38.5714 
G01 X71.7715 Y38.5425 
G01 X71.6510 Y38.4619 
G01 X71.5485 Y38.3594 
G01 X71.4679 Y38.2389 
G01 X71.4125 Y38.1050 
G01 X71.3842 Y37.9629 
G01 X71.3842 Y36.4971 
G01 X71.4125 Y36.3550 
G01 X71.4679 Y36.2211 
G01 X71.5485 Y36.1006 
G01 X71.6510 Y35.9981 
G01 X71.7715 Y35.9175 
G01 X71.9054 Y35.8621 
G01 X72.0475 Y35.8338 
G01 X72.1925 Y35.8338 
G01 X72.3346 Y35.8621 
G01 X72.4685 Y35.9175 
G01 X72.5890 Y35.9981 
G01 X72.6915 Y36.1006 
G01 X72.7721 Y36.2211 
G01 X72.8275 Y36.3550 
G01 X72.8558 Y36.4971 
G01 X72.8558 Y37.9629 
G01 X72.8275 Y38.1050 
G01 X72.7721 Y38.2389 
G01 X72.6915 Y38.3594 
G01 X72.5890 Y38.4619 
G01 X72.4685 Y38.5425 
G01 X72.4458 Y38.5519 
G01 X81.4154 Y47.5214 
G01 X112.9367 Y47.5214 
G01 X113.0075 Y47.5404 
G01 X113.0711 Y47.5771 
G01 X116.1154 Y50.6214 
G01 X118.6291 Y50.6214 
G01 X118.6350 Y50.6071 
G01 X118.7258 Y50.4713 
G01 X118.8413 Y50.3558 
G01 X118.9771 Y50.2650 
G01 X119.1281 Y50.2025 
G01 X119.2883 Y50.1706 
G01 X119.4517 Y50.1706 
G01 X119.6119 Y50.2025 
G01 X119.7629 Y50.2650 
G01 X119.8987 Y50.3558 
G01 X120.0142 Y50.4713 
G01 X120.1050 Y50.6071 
G01 X120.1675 Y50.7581 
G01 X120.1994 Y50.9183 
G00 Z-1.2000 
G00 X120.1994 Y55.9983 
G01 Z0.2778  F254   
G01 X120.1994 Y56.1617 F508   
G01 X120.1675 Y56.3219 
G01 X120.1050 Y56.4729 
G01 X120.0142 Y56.6087 
G01 X119.8987 Y56.7242 
G01 X119.7629 Y56.8150 
G01 X119.6119 Y56.8775 
G01 X119.4517 Y56.9094 
G01 X119.2883 Y56.9094 
G01 X119.1281 Y56.8775 
G01 X118.9771 Y56.8150 
G01 X118.8413 Y56.7242 
G01 X118.7258 Y56.6087 
G01 X118.6350 Y56.4729 
G01 X118.5725 Y56.3219 
G01 X118.5406 Y56.1617 
G01 X118.5406 Y55.9983 
G01 X118.5725 Y55.8381 
G01 X118.6350 Y55.6871 
G01 X118.7258 Y55.5513 
G01 X118.8413 Y55.4358 
G01 X118.9771 Y55.3450 
G01 X119.1281 Y55.2825 
G01 X119.2883 Y55.2506 
G01 X119.4517 Y55.2506 
G01 X119.6119 Y55.2825 
G01 X119.7629 Y55.3450 
G01 X119.8987 Y55.4358 
G01 X120.0142 Y55.5513 
G01 X120.1050 Y55.6871 
G01 X120.1675 Y55.8381 
G01 X120.1994 Y55.9983 
G00 Z-1.2000 
G00 X15.5974 Y33.5555 
G01 Z0.2778  F254   
G01 X15.5974 Y35.2445 F508   
G01 X15.5652 Y35.4063 
G01 X15.5021 Y35.5587 
G01 X15.4105 Y35.6958 
G01 X15.2938 Y35.8124 
G01 X15.1567 Y35.9041 
G01 X15.0043 Y35.9672 
G01 X14.8425 Y35.9994 
G01 X14.6775 Y35.9994 
G01 X14.5157 Y35.9672 
G01 X14.3633 Y35.9041 
G01 X14.2262 Y35.8124 
G01 X14.1095 Y35.6958 
G01 X14.0179 Y35.5587 
G01 X13.9548 Y35.4063 
G01 X13.9226 Y35.2445 
G01 X13.9226 Y33.5555 
G01 X13.9548 Y33.3937 
G01 X14.0179 Y33.2413 
G01 X14.1095 Y33.1042 
G01 X14.2262 Y32.9875 
G01 X14.3633 Y32.8959 
G01 X14.4814 Y32.8470 
G01 X14.4814 Y32.7033 
G01 X14.5004 Y32.6325 
G01 X14.5371 Y32.5689 
G01 X16.7771 Y30.3289 
G01 X16.8289 Y30.2771 
G01 X16.8925 Y30.2404 
G01 X16.9633 Y30.2214 
G01 X35.3846 Y30.2214 
G01 X41.7771 Y23.8289 
G01 X41.8289 Y23.7771 
G01 X41.8925 Y23.7404 
G01 X41.9633 Y23.7214 
G01 X53.0367 Y23.7214 
G01 X53.1075 Y23.7404 
G01 X53.1711 Y23.7771 
G01 X53.2229 Y23.8289 
G01 X54.6711 Y25.2771 
G01 X54.7229 Y25.3289 
G01 X54.7596 Y25.3925 
G01 X54.7786 Y25.4633 
G01 X54.7786 Y28.3577 
G01 X54.8090 Y28.3781 
G01 X54.9115 Y28.4806 
G01 X54.9921 Y28.6011 
G01 X55.0475 Y28.7350 
G01 X55.0758 Y28.8771 
G01 X55.0758 Y30.3429 
G01 X55.0475 Y30.4850 
G01 X54.9921 Y30.6189 
G01 X54.9115 Y30.7394 
G01 X54.8090 Y30.8419 
G01 X54.6885 Y30.9225 
G01 X54.5546 Y30.9779 
G01 X54.4125 Y31.0062 
G01 X54.2675 Y31.0062 
G01 X54.1254 Y30.9779 
G01 X53.9915 Y30.9225 
G01 X53.8710 Y30.8419 
G01 X53.7685 Y30.7394 
G01 X53.6879 Y30.6189 
G01 X53.6325 Y30.4850 
G01 X53.6042 Y30.3429 
G01 X53.6042 Y28.8771 
G01 X53.6325 Y28.7350 
G01 X53.6879 Y28.6011 
G01 X53.7685 Y28.4806 
G01 X53.8710 Y28.3781 
G01 X53.9915 Y28.2975 
G01 X54.1254 Y28.2421 
G01 X54.2214 Y28.2230 
G01 X54.2214 Y25.6154 
G01 X52.8846 Y24.2786 
G01 X42.1154 Y24.2786 
G01 X35.6711 Y30.7229 
G01 X35.6075 Y30.7596 
G01 X35.5367 Y30.7786 
G01 X17.1154 Y30.7786 
G01 X15.0445 Y32.8495 
G01 X15.1567 Y32.8959 
G01 X15.2938 Y32.9875 
G01 X15.4105 Y33.1042 
G01 X15.5021 Y33.2413 
G01 X15.5652 Y33.3937 
G01 X15.5974 Y33.5555 
G00 Z-1.2000 
G00 X48.4726 Y45.1945 
G01 Z0.2778  F254   
G01 X48.4726 Y43.5055 F508   
G01 X48.5048 Y43.3437 
G01 X48.5679 Y43.1913 
G01 X48.6595 Y43.0542 
G01 X48.7762 Y42.9375 
G01 X48.9133 Y42.8459 
G01 X49.0314 Y42.7970 
G01 X49.0314 Y38.5921 
G01 X48.9115 Y38.5425 
G01 X48.7910 Y38.4619 
G01 X48.6885 Y38.3594 
G01 X48.6079 Y38.2389 
G01 X48.5525 Y38.1050 
G01 X48.5242 Y37.9629 
G01 X48.5242 Y36.8882 
G01 X47.4146 Y35.7786 
G01 X34.1154 Y35.7786 
G01 X32.5686 Y37.3254 
G01 X32.5686 Y37.4242 
G01 X32.5948 Y37.4242 
G01 X33.0258 Y37.8552 
G01 X33.0258 Y38.4648 
G01 X32.5948 Y38.8958 
G01 X31.9852 Y38.8958 
G01 X31.5542 Y38.4648 
G01 X31.5542 Y37.8552 
G01 X31.9852 Y37.4242 
G01 X32.0114 Y37.4242 
G01 X32.0114 Y37.1733 
G01 X32.0304 Y37.1025 
G01 X32.0671 Y37.0389 
G01 X33.7771 Y35.3289 
G01 X33.8289 Y35.2771 
G01 X33.8925 Y35.2404 
G01 X33.9633 Y35.2214 
G01 X47.5667 Y35.2214 
G01 X47.6375 Y35.2404 
G01 X47.7011 Y35.2771 
G01 X48.6228 Y36.1988 
G01 X48.6885 Y36.1006 
G01 X48.7910 Y35.9981 
G01 X48.9115 Y35.9175 
G01 X49.0454 Y35.8621 
G01 X49.1875 Y35.8338 
G01 X49.3325 Y35.8338 
G01 X49.4746 Y35.8621 
G01 X49.6085 Y35.9175 
G01 X49.7290 Y35.9981 
G01 X49.8315 Y36.1006 
G01 X49.9121 Y36.2211 
G01 X49.9675 Y36.3550 
G01 X49.9958 Y36.4971 
G01 X49.9958 Y37.9629 
G01 X49.9675 Y38.1050 
G01 X49.9121 Y38.2389 
G01 X49.8315 Y38.3594 
G01 X49.7290 Y38.4619 
G01 X49.6085 Y38.5425 
G01 X49.5886 Y38.5507 
G01 X49.5886 Y42.7970 
G01 X49.7067 Y42.8459 
G01 X49.8438 Y42.9375 
G01 X49.9605 Y43.0542 
G01 X50.0521 Y43.1913 
G01 X50.1152 Y43.3437 
G01 X50.1474 Y43.5055 
G01 X50.1474 Y45.1945 
G01 X50.1152 Y45.3563 
G01 X50.0521 Y45.5087 
G01 X49.9605 Y45.6458 
G01 X49.8438 Y45.7625 
G01 X49.7067 Y45.8541 
G01 X49.5543 Y45.9172 
G01 X49.3925 Y45.9494 
G01 X49.2275 Y45.9494 
G01 X49.0657 Y45.9172 
G01 X48.9133 Y45.8541 
G01 X48.7762 Y45.7625 
G01 X48.6595 Y45.6458 
G01 X48.5679 Y45.5087 
G01 X48.5048 Y45.3563 
G01 X48.4726 Y45.1945 
G00 Z-1.2000 
G00 X45.9326 Y45.1945 
G01 Z0.2778  F254   
G01 X45.9326 Y43.5055 F508   
G01 X45.9648 Y43.3437 
G01 X46.0279 Y43.1913 
G01 X46.1195 Y43.0542 
G01 X46.2362 Y42.9375 
G01 X46.3733 Y42.8459 
G01 X46.5257 Y42.7828 
G01 X46.6875 Y42.7506 
G01 X46.8525 Y42.7506 
G01 X47.0143 Y42.7828 
G01 X47.1667 Y42.8459 
G01 X47.3038 Y42.9375 
G01 X47.4205 Y43.0542 
G01 X47.5121 Y43.1913 
G01 X47.5752 Y43.3437 
G01 X47.6074 Y43.5055 
G01 X47.6074 Y45.1945 
G01 X47.5752 Y45.3563 
G01 X47.5121 Y45.5087 
G01 X47.4205 Y45.6458 
G01 X47.3038 Y45.7625 
G01 X47.2786 Y45.7793 
G01 X47.2786 Y46.3846 
G01 X49.6154 Y48.7214 
G01 X51.8846 Y48.7214 
G01 X52.8214 Y47.7846 
G01 X52.8214 Y41.3633 
G01 X52.8404 Y41.2925 
G01 X52.8771 Y41.2289 
G01 X52.9289 Y41.1771 
G01 X55.2214 Y38.8846 
G01 X55.2214 Y33.9633 
G01 X55.2404 Y33.8925 
G01 X55.2771 Y33.8289 
G01 X55.3289 Y33.7771 
G01 X56.8289 Y32.2771 
G01 X56.8925 Y32.2404 
G01 X56.9633 Y32.2214 
G01 X60.3846 Y32.2214 
G01 X61.6624 Y30.9436 
G01 X61.6115 Y30.9225 
G01 X61.4910 Y30.8419 
G01 X61.3885 Y30.7394 
G01 X61.3079 Y30.6189 
G01 X61.2525 Y30.4850 
G01 X61.2242 Y30.3429 
G01 X61.2242 Y28.8771 
G01 X61.2525 Y28.7350 
G01 X61.3079 Y28.6011 
G01 X61.3885 Y28.4806 
G01 X61.4910 Y28.3781 
G01 X61.6115 Y28.2975 
G01 X61.7454 Y28.2421 
G01 X61.8875 Y28.2138 
G01 X62.0325 Y28.2138 
G01 X62.1746 Y28.2421 
G01 X62.3085 Y28.2975 
G01 X62.4290 Y28.3781 
G01 X62.5315 Y28.4806 
G01 X62.6121 Y28.6011 
G01 X62.6675 Y28.7350 
G01 X62.6958 Y28.8771 
G01 X62.6958 Y30.3429 
G01 X62.6675 Y30.4850 
G01 X62.6121 Y30.6189 
G01 X62.5315 Y30.7394 
G01 X62.4290 Y30.8419 
G01 X62.3085 Y30.9225 
G01 X62.2386 Y30.9514 
G01 X62.2386 Y31.0767 
G01 X62.2196 Y31.1475 
G01 X62.1829 Y31.2111 
G01 X60.7229 Y32.6711 
G01 X60.6711 Y32.7229 
G01 X60.6075 Y32.7596 
G01 X60.5367 Y32.7786 
G01 X57.1154 Y32.7786 
G01 X55.7786 Y34.1154 
G01 X55.7786 Y39.0367 
G01 X55.7596 Y39.1075 
G01 X55.7229 Y39.1711 
G01 X53.3786 Y41.5154 
G01 X53.3786 Y47.9367 
G01 X53.3596 Y48.0075 
G01 X53.3229 Y48.0711 
G01 X52.2229 Y49.1711 
G01 X52.1711 Y49.2229 
G01 X52.1075 Y49.2596 
G01 X52.0367 Y49.2786 
G01 X49.4633 Y49.2786 
G01 X49.3925 Y49.2596 
G01 X49.3289 Y49.2229 
G01 X46.8289 Y46.7229 
G01 X46.7771 Y46.6711 
G01 X46.7404 Y46.6075 
G01 X46.7214 Y46.5367 
G01 X46.7214 Y45.9494 
G01 X46.6875 Y45.9494 
G01 X46.5257 Y45.9172 
G01 X46.3733 Y45.8541 
G01 X46.2362 Y45.7625 
G01 X46.1195 Y45.6458 
G01 X46.0279 Y45.5087 
G01 X45.9648 Y45.3563 
G01 X45.9326 Y45.1945 
G00 Z-1.2000 
G00 X111.8455 Y26.9738 
G01 Z0.2778  F254   
G01 X111.8455 Y27.1462 F508   
G01 X111.8119 Y27.3154 
G01 X111.7459 Y27.4747 
G01 X111.6500 Y27.6181 
G01 X111.5281 Y27.7400 
G01 X111.3847 Y27.8359 
G01 X111.2254 Y27.9019 
G01 X111.0562 Y27.9355 
G01 X110.8838 Y27.9355 
G01 X110.7146 Y27.9019 
G01 X110.5553 Y27.8359 
G01 X110.4119 Y27.7400 
G01 X110.2900 Y27.6181 
G01 X110.1941 Y27.4747 
G01 X110.1281 Y27.3154 
G01 X110.0945 Y27.1462 
G01 X110.0945 Y26.9738 
G01 X110.1281 Y26.8046 
G01 X110.1941 Y26.6453 
G01 X110.2900 Y26.5019 
G01 X110.4119 Y26.3800 
G01 X110.5553 Y26.2841 
G01 X110.6914 Y26.2278 
G01 X110.6914 Y20.4394 
G01 X110.1265 Y20.4394 
G01 X109.6406 Y19.9535 
G01 X109.6406 Y19.8886 
G01 X108.7594 Y19.8886 
G01 X108.7594 Y19.9535 
G01 X108.2735 Y20.4394 
G01 X107.5864 Y20.4394 
G01 X107.2257 Y20.0786 
G01 X106.8818 Y20.0786 
G01 X106.8541 Y20.0671 
G01 X106.8329 Y20.0459 
G01 X106.8214 Y20.0182 
G01 X106.8214 Y18.9818 
G01 X106.8329 Y18.9541 
G01 X106.8541 Y18.9329 
G01 X106.8818 Y18.9214 
G01 X107.4457 Y18.9214 
G01 X107.5864 Y18.7806 
G01 X108.2735 Y18.7806 
G01 X108.7594 Y19.2665 
G01 X108.7594 Y19.3314 
G01 X109.6406 Y19.3314 
G01 X109.6406 Y19.2665 
G01 X110.1265 Y18.7806 
G01 X110.8135 Y18.7806 
G01 X111.2994 Y19.2665 
G01 X111.2994 Y19.3314 
G01 X112.1806 Y19.3314 
G01 X112.1806 Y19.2665 
G01 X112.6665 Y18.7806 
G01 X113.3535 Y18.7806 
G01 X113.8394 Y19.2665 
G01 X113.8394 Y19.9535 
G01 X113.3535 Y20.4394 
G01 X112.6665 Y20.4394 
G01 X112.1806 Y19.9535 
G01 X112.1806 Y19.8886 
G01 X111.2994 Y19.8886 
G01 X111.2994 Y19.9535 
G01 X111.2340 Y20.0189 
G01 X111.2486 Y20.0733 
G01 X111.2486 Y26.2278 
G01 X111.3847 Y26.2841 
G01 X111.5281 Y26.3800 
G01 X111.6500 Y26.5019 
G01 X111.7459 Y26.6453 
G01 X111.8119 Y26.8046 
G01 X111.8455 Y26.9738 
G00 Z-1.2000 
G00 X111.8455 Y29.2374 
G01 Z0.2778  F254   
G01 X111.8455 Y29.9626 F508   
G01 X111.3326 Y30.4755 
G01 X110.6074 Y30.4755 
G01 X110.5629 Y30.4311 
G01 X108.8074 Y32.1866 
G01 X108.8074 Y34.7920 
G01 X109.3733 Y34.7920 
G01 X109.5351 Y34.8242 
G01 X109.6875 Y34.8873 
G01 X109.8246 Y34.9789 
G01 X109.9413 Y35.0956 
G01 X110.0329 Y35.2327 
G01 X110.0818 Y35.3508 
G01 X113.4782 Y35.3508 
G01 X113.5271 Y35.2327 
G01 X113.6187 Y35.0956 
G01 X113.7354 Y34.9789 
G01 X113.8725 Y34.8873 
G01 X114.0249 Y34.8242 
G01 X114.1867 Y34.7920 
G01 X115.4746 Y34.7920 
G01 X115.9895 Y34.2771 
G01 X116.0531 Y34.2404 
G01 X116.1239 Y34.2214 
G01 X120.1367 Y34.2214 
G01 X120.2075 Y34.2404 
G01 X120.2711 Y34.2771 
G01 X120.3229 Y34.3289 
G01 X122.1329 Y36.1389 
G01 X122.1696 Y36.2025 
G01 X122.1886 Y36.2733 
G01 X122.1886 Y47.6777 
G01 X122.3029 Y47.7250 
G01 X122.4387 Y47.8158 
G01 X122.5542 Y47.9313 
G01 X122.6450 Y48.0671 
G01 X122.7075 Y48.2181 
G01 X122.7394 Y48.3783 
G01 X122.7394 Y48.5417 
G01 X122.7075 Y48.7019 
G01 X122.6450 Y48.8529 
G01 X122.5542 Y48.9887 
G01 X122.4387 Y49.1042 
G01 X122.3029 Y49.1950 
G01 X122.1886 Y49.2423 
G01 X122.1886 Y50.2177 
G01 X122.3029 Y50.2650 
G01 X122.4387 Y50.3558 
G01 X122.5542 Y50.4713 
G01 X122.6450 Y50.6071 
G01 X122.7075 Y50.7581 
G01 X122.7394 Y50.9183 
G01 X122.7394 Y51.0817 
G01 X122.7075 Y51.2419 
G01 X122.6450 Y51.3929 
G01 X122.5542 Y51.5287 
G01 X122.4387 Y51.6442 
G01 X122.3029 Y51.7350 
G01 X122.1886 Y51.7823 
G01 X122.1886 Y52.7577 
G01 X122.3029 Y52.8050 
G01 X122.4387 Y52.8958 
G01 X122.5542 Y53.0113 
G01 X122.6450 Y53.1471 
G01 X122.7075 Y53.2981 
G01 X122.7394 Y53.4583 
G01 X122.7394 Y53.6217 
G01 X122.7075 Y53.7819 
G01 X122.6450 Y53.9329 
G01 X122.5542 Y54.0687 
G01 X122.4387 Y54.1842 
G01 X122.3029 Y54.2750 
G01 X122.1886 Y54.3223 
G01 X122.1886 Y55.2977 
G01 X122.3029 Y55.3450 
G01 X122.4387 Y55.4358 
G01 X122.5542 Y55.5513 
G01 X122.6450 Y55.6871 
G01 X122.7075 Y55.8381 
G01 X122.7394 Y55.9983 
G01 X122.7394 Y56.1617 
G01 X122.7075 Y56.3219 
G01 X122.6450 Y56.4729 
G01 X122.5542 Y56.6087 
G01 X122.4387 Y56.7242 
G01 X122.3029 Y56.8150 
G01 X122.1519 Y56.8775 
G01 X121.9917 Y56.9094 
G01 X121.8283 Y56.9094 
G01 X121.6681 Y56.8775 
G01 X121.5171 Y56.8150 
G01 X121.3813 Y56.7242 
G01 X121.2658 Y56.6087 
G01 X121.1750 Y56.4729 
G01 X121.1125 Y56.3219 
G01 X121.0806 Y56.1617 
G01 X121.0806 Y55.9983 
G01 X121.1125 Y55.8381 
G01 X121.1750 Y55.6871 
G01 X121.2658 Y55.5513 
G01 X121.3813 Y55.4358 
G01 X121.5171 Y55.3450 
G01 X121.6314 Y55.2977 
G01 X121.6314 Y54.3223 
G01 X121.5171 Y54.2750 
G01 X121.3813 Y54.1842 
G01 X121.2658 Y54.0687 
G01 X121.1750 Y53.9329 
G01 X121.1125 Y53.7819 
G01 X121.0806 Y53.6217 
G01 X121.0806 Y53.4583 
G01 X121.1125 Y53.2981 
G01 X121.1750 Y53.1471 
G01 X121.2658 Y53.0113 
G01 X121.3813 Y52.8958 
G01 X121.5171 Y52.8050 
G01 X121.6314 Y52.7577 
G01 X121.6314 Y51.7823 
G01 X121.5171 Y51.7350 
G01 X121.3813 Y51.6442 
G01 X121.2658 Y51.5287 
G01 X121.1750 Y51.3929 
G01 X121.1125 Y51.2419 
G01 X121.0806 Y51.0817 
G01 X121.0806 Y50.9183 
G01 X121.1125 Y50.7581 
G01 X121.1750 Y50.6071 
G01 X121.2658 Y50.4713 
G01 X121.3813 Y50.3558 
G01 X121.5171 Y50.2650 
G01 X121.6314 Y50.2177 
G01 X121.6314 Y49.2423 
G01 X121.5171 Y49.1950 
G01 X121.3813 Y49.1042 
G01 X121.2658 Y48.9887 
G01 X121.1750 Y48.8529 
G01 X121.1125 Y48.7019 
G01 X121.0806 Y48.5417 
G01 X121.0806 Y48.3783 
G01 X121.1125 Y48.2181 
G01 X121.1750 Y48.0671 
G01 X121.2658 Y47.9313 
G01 X121.3813 Y47.8158 
G01 X121.5171 Y47.7250 
G01 X121.6314 Y47.6777 
G01 X121.6314 Y36.4254 
G01 X119.9846 Y34.7786 
G01 X116.2760 Y34.7786 
G01 X116.1739 Y34.8807 
G01 X116.1899 Y34.8873 
G01 X116.3270 Y34.9789 
G01 X116.4437 Y35.0956 
G01 X116.5353 Y35.2327 
G01 X116.5984 Y35.3851 
G01 X116.6306 Y35.5469 
G01 X116.6306 Y35.7119 
G01 X116.5984 Y35.8737 
G01 X116.5353 Y36.0261 
G01 X116.4437 Y36.1632 
G01 X116.3270 Y36.2799 
G01 X116.1899 Y36.3715 
G01 X116.0375 Y36.4346 
G01 X115.8757 Y36.4668 
G01 X114.1867 Y36.4668 
G01 X114.0249 Y36.4346 
G01 X113.8725 Y36.3715 
G01 X113.7354 Y36.2799 
G01 X113.6187 Y36.1632 
G01 X113.5271 Y36.0261 
G01 X113.4782 Y35.9080 
G01 X110.0818 Y35.9080 
G01 X110.0329 Y36.0261 
G01 X109.9413 Y36.1632 
G01 X109.8246 Y36.2799 
G01 X109.6875 Y36.3715 
G01 X109.5351 Y36.4346 
G01 X109.3733 Y36.4668 
G01 X107.6843 Y36.4668 
G01 X107.5225 Y36.4346 
G01 X107.3701 Y36.3715 
G01 X107.2330 Y36.2799 
G01 X107.1163 Y36.1632 
G01 X107.0247 Y36.0261 
G01 X106.9616 Y35.8737 
G01 X106.9294 Y35.7119 
G01 X106.9294 Y35.5469 
G01 X106.9616 Y35.3851 
G01 X107.0247 Y35.2327 
G01 X107.1163 Y35.0956 
G01 X107.2330 Y34.9789 
G01 X107.3701 Y34.8873 
G01 X107.5225 Y34.8242 
G01 X107.6843 Y34.7920 
G01 X108.2502 Y34.7920 
G01 X108.2502 Y32.2245 
G01 X108.2404 Y32.2075 
G01 X108.2214 Y32.1367 
G01 X108.2214 Y30.6154 
G01 X102.9289 Y25.3229 
G01 X102.8771 Y25.2711 
G01 X102.8404 Y25.2075 
G01 X102.8214 Y25.1367 
G01 X102.8214 Y20.4394 
G01 X102.5065 Y20.4394 
G01 X102.0206 Y19.9535 
G01 X102.0206 Y19.2665 
G01 X102.5065 Y18.7806 
G01 X103.1876 Y18.7806 
G01 X103.7312 Y18.1390 
G01 X103.7371 Y18.1289 
G01 X103.7549 Y18.1111 
G01 X103.7712 Y18.0919 
G01 X103.7807 Y18.0853 
G01 X103.7889 Y18.0771 
G01 X103.8108 Y18.0645 
G01 X103.8314 Y18.0501 
G01 X103.8424 Y18.0462 
G01 X103.8525 Y18.0404 
G01 X103.8768 Y18.0339 
G01 X103.9005 Y18.0254 
G01 X103.9121 Y18.0244 
G01 X103.9233 Y18.0214 
G01 X103.9485 Y18.0214 
G01 X103.9736 Y18.0193 
G01 X103.9850 Y18.0214 
G01 X107.0846 Y18.0214 
G01 X107.3965 Y17.7095 
G01 X107.1006 Y17.4135 
G01 X107.1006 Y16.7264 
G01 X107.5864 Y16.2406 
G01 X108.2735 Y16.2406 
G01 X108.7594 Y16.7264 
G01 X108.7594 Y16.7914 
G01 X109.6406 Y16.7914 
G01 X109.6406 Y16.7264 
G01 X110.1265 Y16.2406 
G01 X110.8135 Y16.2406 
G01 X111.2994 Y16.7264 
G01 X111.2994 Y16.7914 
G01 X112.1806 Y16.7914 
G01 X112.1806 Y16.7264 
G01 X112.6665 Y16.2406 
G01 X113.3535 Y16.2406 
G01 X113.8394 Y16.7264 
G01 X113.8394 Y17.4135 
G01 X113.3535 Y17.8994 
G01 X112.6665 Y17.8994 
G01 X112.1806 Y17.4135 
G01 X112.1806 Y17.3486 
G01 X111.2994 Y17.3486 
G01 X111.2994 Y17.4135 
G01 X110.8135 Y17.8994 
G01 X110.1265 Y17.8994 
G01 X109.6406 Y17.4135 
G01 X109.6406 Y17.3486 
G01 X108.7594 Y17.3486 
G01 X108.7594 Y17.4135 
G01 X108.2735 Y17.8994 
G01 X107.9946 Y17.8994 
G01 X107.4229 Y18.4711 
G01 X107.3711 Y18.5229 
G01 X107.3075 Y18.5596 
G01 X107.2367 Y18.5786 
G01 X104.0891 Y18.5786 
G01 X103.5857 Y19.1727 
G01 X103.6794 Y19.2665 
G01 X103.6794 Y19.9535 
G01 X103.3786 Y20.2543 
G01 X103.3786 Y24.9846 
G01 X108.7229 Y30.3289 
G01 X108.7596 Y30.3925 
G01 X108.7786 Y30.4633 
G01 X108.7786 Y31.3974 
G01 X110.1539 Y30.0221 
G01 X110.0945 Y29.9626 
G01 X110.0945 Y29.2374 
G01 X110.6074 Y28.7245 
G01 X111.3326 Y28.7245 
G01 X111.8455 Y29.2374 
G00 Z-1.2000 
G00 X106.2194 Y19.2665 
G01 Z0.2778  F254   
G01 X106.2194 Y19.9535 F508   
G01 X105.7335 Y20.4394 
G01 X105.0465 Y20.4394 
G01 X104.5606 Y19.9535 
G01 X104.5606 Y19.2665 
G01 X105.0465 Y18.7806 
G01 X105.7335 Y18.7806 
G01 X106.2194 Y19.2665 
G00 Z-1.2000 
G00 X106.2194 Y16.7264 
G01 Z0.2778  F254   
G01 X106.2194 Y17.4135 F508   
G01 X105.7335 Y17.8994 
G01 X105.0465 Y17.8994 
G01 X104.5606 Y17.4135 
G01 X104.5606 Y16.7264 
G01 X105.0465 Y16.2406 
G01 X105.7335 Y16.2406 
G01 X106.2194 Y16.7264 
G00 Z-1.2000 
G00 X103.6794 Y16.7264 
G01 Z0.2778  F254   
G01 X103.6794 Y17.4135 F508   
G01 X103.1935 Y17.8994 
G01 X102.5065 Y17.8994 
G01 X102.1505 Y17.5435 
G01 X101.7786 Y17.9154 
G01 X101.7786 Y31.1367 
G01 X101.7596 Y31.2075 
G01 X101.7229 Y31.2711 
G01 X101.6711 Y31.3229 
G01 X92.8711 Y40.1229 
G01 X92.8075 Y40.1596 
G01 X92.7367 Y40.1786 
G01 X81.2633 Y40.1786 
G01 X81.1925 Y40.1596 
G01 X81.1289 Y40.1229 
G01 X81.0771 Y40.0711 
G01 X79.6234 Y38.6174 
G01 X79.5254 Y38.5979 
G01 X79.3915 Y38.5425 
G01 X79.2710 Y38.4619 
G01 X79.1685 Y38.3594 
G01 X79.0879 Y38.2389 
G01 X79.0325 Y38.1050 
G01 X79.0042 Y37.9629 
G01 X79.0042 Y36.4971 
G01 X79.0325 Y36.3550 
G01 X79.0879 Y36.2211 
G01 X79.1685 Y36.1006 
G01 X79.2710 Y35.9981 
G01 X79.3915 Y35.9175 
G01 X79.5254 Y35.8621 
G01 X79.6675 Y35.8338 
G01 X79.8125 Y35.8338 
G01 X79.9546 Y35.8621 
G01 X80.0885 Y35.9175 
G01 X80.2090 Y35.9981 
G01 X80.3115 Y36.1006 
G01 X80.3921 Y36.2211 
G01 X80.4475 Y36.3550 
G01 X80.4758 Y36.4971 
G01 X80.4758 Y37.9629 
G01 X80.4475 Y38.1050 
G01 X80.3921 Y38.2389 
G01 X80.3115 Y38.3594 
G01 X80.2325 Y38.4385 
G01 X81.4154 Y39.6214 
G01 X92.5846 Y39.6214 
G01 X101.2214 Y30.9846 
G01 X101.2214 Y17.7633 
G01 X101.2404 Y17.6925 
G01 X101.2771 Y17.6289 
G01 X101.9771 Y16.9289 
G01 X102.0206 Y16.8854 
G01 X102.0206 Y16.7264 
G01 X102.5065 Y16.2406 
G01 X103.1935 Y16.2406 
G01 X103.6794 Y16.7264 
G00 Z-1.2000 
G00 X101.1394 Y19.2665 
G01 Z0.2778  F254   
G01 X101.1394 Y19.9535 F508   
G01 X100.6535 Y20.4394 
G01 X99.9665 Y20.4394 
G01 X99.4806 Y19.9535 
G01 X99.4806 Y19.2665 
G01 X99.9665 Y18.7806 
G01 X100.6535 Y18.7806 
G01 X101.1394 Y19.2665 
G00 Z-1.2000 
G00 X101.1394 Y16.7264 
G01 Z0.2778  F254   
G01 X101.1394 Y17.4135 F508   
G01 X100.6535 Y17.8994 
G01 X100.0285 Y17.8994 
G01 X99.6345 Y18.4510 
G01 X99.6229 Y18.4711 
G01 X99.6133 Y18.4807 
G01 X99.6054 Y18.4918 
G01 X99.5875 Y18.5065 
G01 X99.5711 Y18.5229 
G01 X99.5593 Y18.5297 
G01 X99.5487 Y18.5384 
G01 X99.5276 Y18.5480 
G01 X99.5075 Y18.5596 
G01 X99.4944 Y18.5631 
G01 X99.4820 Y18.5688 
G01 X99.4591 Y18.5726 
G01 X99.4367 Y18.5786 
G01 X99.4231 Y18.5786 
G01 X99.4096 Y18.5808 
G01 X99.3865 Y18.5786 
G01 X92.7281 Y18.5786 
G01 X90.4786 Y21.2031 
G01 X90.4786 Y26.3367 
G01 X90.4596 Y26.4075 
G01 X90.4229 Y26.4711 
G01 X90.3711 Y26.5229 
G01 X84.4711 Y32.4229 
G01 X84.4075 Y32.4596 
G01 X84.3367 Y32.4786 
G01 X81.6154 Y32.4786 
G01 X77.8582 Y36.2358 
G01 X77.9075 Y36.3550 
G01 X77.9358 Y36.4971 
G01 X77.9358 Y37.9629 
G01 X77.9075 Y38.1050 
G01 X77.8521 Y38.2389 
G01 X77.7715 Y38.3594 
G01 X77.6690 Y38.4619 
G01 X77.5485 Y38.5425 
G01 X77.4146 Y38.5979 
G01 X77.2725 Y38.6262 
G01 X77.1275 Y38.6262 
G01 X76.9854 Y38.5979 
G01 X76.8515 Y38.5425 
G01 X76.7310 Y38.4619 
G01 X76.6285 Y38.3594 
G01 X76.5479 Y38.2389 
G01 X76.4925 Y38.1050 
G01 X76.4642 Y37.9629 
G01 X76.4642 Y36.4971 
G01 X76.4925 Y36.3550 
G01 X76.5479 Y36.2211 
G01 X76.6285 Y36.1006 
G01 X76.7310 Y35.9981 
G01 X76.8515 Y35.9175 
G01 X76.9854 Y35.8621 
G01 X77.1275 Y35.8338 
G01 X77.2725 Y35.8338 
G01 X77.3557 Y35.8503 
G01 X78.4289 Y34.7771 
G01 X78.4925 Y34.7404 
G01 X78.5633 Y34.7214 
G01 X78.5846 Y34.7214 
G01 X81.2771 Y32.0289 
G01 X81.3289 Y31.9771 
G01 X81.3925 Y31.9404 
G01 X81.4633 Y31.9214 
G01 X84.1846 Y31.9214 
G01 X89.9214 Y26.1846 
G01 X89.9214 Y21.1107 
G01 X89.9194 Y21.0848 
G01 X89.9214 Y21.0741 
G01 X89.9214 Y21.0633 
G01 X89.9281 Y21.0382 
G01 X89.9329 Y21.0127 
G01 X89.9376 Y21.0029 
G01 X89.9404 Y20.9925 
G01 X89.9534 Y20.9700 
G01 X89.9646 Y20.9465 
G01 X89.9716 Y20.9383 
G01 X89.9771 Y20.9289 
G01 X89.9954 Y20.9106 
G01 X92.3716 Y18.1383 
G01 X92.3771 Y18.1289 
G01 X92.3954 Y18.1105 
G01 X92.4123 Y18.0908 
G01 X92.4213 Y18.0847 
G01 X92.4289 Y18.0771 
G01 X92.4514 Y18.0641 
G01 X92.4729 Y18.0494 
G01 X92.4831 Y18.0458 
G01 X92.4925 Y18.0404 
G01 X92.5176 Y18.0337 
G01 X92.5421 Y18.0250 
G01 X92.5529 Y18.0242 
G01 X92.5633 Y18.0214 
G01 X92.5893 Y18.0214 
G01 X92.6152 Y18.0194 
G01 X92.6259 Y18.0214 
G01 X99.2566 Y18.0214 
G01 X99.6032 Y17.5362 
G01 X99.4806 Y17.4135 
G01 X99.4806 Y16.7264 
G01 X99.8214 Y16.3857 
G01 X99.8214 Y14.8633 
G01 X99.8404 Y14.7925 
G01 X99.8771 Y14.7289 
G01 X99.9289 Y14.6771 
G01 X103.0289 Y11.5771 
G01 X103.0925 Y11.5404 
G01 X103.1633 Y11.5214 
G01 X112.9367 Y11.5214 
G01 X113.0075 Y11.5404 
G01 X113.0711 Y11.5771 
G01 X113.1229 Y11.6289 
G01 X115.9229 Y14.4289 
G01 X115.9596 Y14.4925 
G01 X115.9786 Y14.5633 
G01 X115.9786 Y26.8846 
G01 X125.4229 Y36.3289 
G01 X125.4596 Y36.3925 
G01 X125.4786 Y36.4633 
G01 X125.4786 Y61.2367 
G01 X125.4596 Y61.3075 
G01 X125.4229 Y61.3711 
G01 X125.3711 Y61.4229 
G01 X124.9711 Y61.8229 
G01 X124.9075 Y61.8596 
G01 X124.8367 Y61.8786 
G01 X121.0633 Y61.8786 
G01 X120.9925 Y61.8596 
G01 X120.9289 Y61.8229 
G01 X120.8771 Y61.7711 
G01 X119.1471 Y60.0411 
G01 X119.1104 Y59.9775 
G01 X119.0914 Y59.9067 
G01 X119.0914 Y59.4023 
G01 X118.9771 Y59.3550 
G01 X118.8413 Y59.2642 
G01 X118.7258 Y59.1487 
G01 X118.6350 Y59.0129 
G01 X118.5725 Y58.8619 
G01 X118.5406 Y58.7017 
G01 X118.5406 Y58.5383 
G01 X118.5725 Y58.3781 
G01 X118.6350 Y58.2271 
G01 X118.7258 Y58.0913 
G01 X118.8413 Y57.9758 
G01 X118.9771 Y57.8850 
G01 X119.1281 Y57.8225 
G01 X119.2883 Y57.7906 
G01 X119.4517 Y57.7906 
G01 X119.6119 Y57.8225 
G01 X119.7629 Y57.8850 
G01 X119.8987 Y57.9758 
G01 X120.0142 Y58.0913 
G01 X120.1050 Y58.2271 
G01 X120.1675 Y58.3781 
G01 X120.1994 Y58.5383 
G01 X120.1994 Y58.7017 
G01 X120.1675 Y58.8619 
G01 X120.1050 Y59.0129 
G01 X120.0142 Y59.1487 
G01 X119.8987 Y59.2642 
G01 X119.7629 Y59.3550 
G01 X119.6486 Y59.4023 
G01 X119.6486 Y59.7546 
G01 X121.2154 Y61.3214 
G01 X124.6846 Y61.3214 
G01 X124.9214 Y61.0846 
G01 X124.9214 Y36.6154 
G01 X115.5289 Y27.2229 
G01 X115.4771 Y27.1711 
G01 X115.4404 Y27.1075 
G01 X115.4214 Y27.0367 
G01 X115.4214 Y14.7154 
G01 X112.7846 Y12.0786 
G01 X103.3154 Y12.0786 
G01 X100.3786 Y15.0154 
G01 X100.3786 Y16.2406 
G01 X100.6535 Y16.2406 
G01 X101.1394 Y16.7264 
G00 Z-1.2000 
G00 X98.5994 Y19.2665 
G01 Z0.2778  F254   
G01 X98.5994 Y19.9535 F508   
G01 X98.1135 Y20.4394 
G01 X97.4265 Y20.4394 
G01 X96.9406 Y19.9535 
G01 X96.9406 Y19.2665 
G01 X97.4265 Y18.7806 
G01 X98.1135 Y18.7806 
G01 X98.5994 Y19.2665 
G00 Z-1.2000 
G00 X98.5994 Y16.7264 
G01 Z0.2778  F254   
G01 X98.5994 Y17.4135 F508   
G01 X98.1135 Y17.8994 
G01 X97.4265 Y17.8994 
G01 X96.9406 Y17.4135 
G01 X96.9406 Y16.7264 
G01 X97.4265 Y16.2406 
G01 X98.1135 Y16.2406 
G01 X98.5994 Y16.7264 
G00 Z-1.2000 
G00 X96.0594 Y19.2665 
G01 Z0.2778  F254   
G01 X96.0594 Y19.9535 F508   
G01 X95.5735 Y20.4394 
G01 X94.9786 Y20.4394 
G01 X94.9786 Y33.0367 
G01 X94.9596 Y33.1075 
G01 X94.9229 Y33.1711 
G01 X94.8711 Y33.2229 
G01 X90.6411 Y37.4529 
G01 X90.5775 Y37.4896 
G01 X90.5067 Y37.5086 
G01 X83.0158 Y37.5086 
G01 X83.0158 Y37.9629 
G01 X82.9875 Y38.1050 
G01 X82.9321 Y38.2389 
G01 X82.8515 Y38.3594 
G01 X82.7490 Y38.4619 
G01 X82.6285 Y38.5425 
G01 X82.4946 Y38.5979 
G01 X82.3525 Y38.6262 
G01 X82.2075 Y38.6262 
G01 X82.0654 Y38.5979 
G01 X81.9315 Y38.5425 
G01 X81.8110 Y38.4619 
G01 X81.7085 Y38.3594 
G01 X81.6279 Y38.2389 
G01 X81.5725 Y38.1050 
G01 X81.5442 Y37.9629 
G01 X81.5442 Y36.4971 
G01 X81.5725 Y36.3550 
G01 X81.6279 Y36.2211 
G01 X81.7085 Y36.1006 
G01 X81.8110 Y35.9981 
G01 X81.9315 Y35.9175 
G01 X82.0654 Y35.8621 
G01 X82.2075 Y35.8338 
G01 X82.3525 Y35.8338 
G01 X82.4946 Y35.8621 
G01 X82.6285 Y35.9175 
G01 X82.7490 Y35.9981 
G01 X82.8515 Y36.1006 
G01 X82.9321 Y36.2211 
G01 X82.9875 Y36.3550 
G01 X83.0158 Y36.4971 
G01 X83.0158 Y36.9514 
G01 X90.3546 Y36.9514 
G01 X94.4214 Y32.8846 
G01 X94.4214 Y20.1033 
G01 X94.4404 Y20.0325 
G01 X94.4547 Y20.0077 
G01 X94.4006 Y19.9535 
G01 X94.4006 Y19.2665 
G01 X94.8865 Y18.7806 
G01 X95.5735 Y18.7806 
G01 X96.0594 Y19.2665 
G00 Z-1.2000 
G00 X96.0594 Y16.7264 
G01 Z0.2778  F254   
G01 X96.0594 Y17.4135 F508   
G01 X95.5735 Y17.8994 
G01 X94.8865 Y17.8994 
G01 X94.4006 Y17.4135 
G01 X94.4006 Y17.3486 
G01 X90.1454 Y17.3486 
G01 X82.5786 Y24.9154 
G01 X82.5786 Y28.2769 
G01 X82.6285 Y28.2975 
G01 X82.7490 Y28.3781 
G01 X82.8515 Y28.4806 
G01 X82.9321 Y28.6011 
G01 X82.9875 Y28.7350 
G01 X83.0158 Y28.8771 
G01 X83.0158 Y30.3429 
G01 X82.9875 Y30.4850 
G01 X82.9321 Y30.6189 
G01 X82.8515 Y30.7394 
G01 X82.7490 Y30.8419 
G01 X82.6285 Y30.9225 
G01 X82.4946 Y30.9779 
G01 X82.3525 Y31.0062 
G01 X82.2075 Y31.0062 
G01 X82.0654 Y30.9779 
G01 X81.9315 Y30.9225 
G01 X81.8110 Y30.8419 
G01 X81.7085 Y30.7394 
G01 X81.6279 Y30.6189 
G01 X81.5725 Y30.4850 
G01 X81.5442 Y30.3429 
G01 X81.5442 Y28.8771 
G01 X81.5725 Y28.7350 
G01 X81.6279 Y28.6011 
G01 X81.7085 Y28.4806 
G01 X81.8110 Y28.3781 
G01 X81.9315 Y28.2975 
G01 X82.0214 Y28.2603 
G01 X82.0214 Y24.7633 
G01 X82.0404 Y24.6925 
G01 X82.0771 Y24.6289 
G01 X82.1289 Y24.5771 
G01 X89.8589 Y16.8471 
G01 X89.9225 Y16.8104 
G01 X89.9933 Y16.7914 
G01 X94.4006 Y16.7914 
G01 X94.4006 Y16.7264 
G01 X94.8865 Y16.2406 
G01 X95.5735 Y16.2406 
G01 X96.0594 Y16.7264 
G00 Z-1.2000 
G00 X24.3258 Y28.5048 
G01 Z0.2778  F254   
G01 X23.8948 Y28.9358 F508   
G01 X23.2852 Y28.9358 
G01 X22.8542 Y28.5048 
G01 X22.8542 Y28.2786 
G01 X16.1154 Y28.2786 
G01 X12.4986 Y31.8954 
G01 X12.4986 Y32.8470 
G01 X12.6167 Y32.8959 
G01 X12.7538 Y32.9875 
G01 X12.8704 Y33.1042 
G01 X12.9621 Y33.2413 
G01 X13.0252 Y33.3937 
G01 X13.0574 Y33.5555 
G01 X13.0574 Y35.2445 
G01 X13.0252 Y35.4063 
G01 X12.9621 Y35.5587 
G01 X12.8704 Y35.6958 
G01 X12.7538 Y35.8124 
G01 X12.6167 Y35.9041 
G01 X12.4643 Y35.9672 
G01 X12.3025 Y35.9994 
G01 X12.1375 Y35.9994 
G01 X11.9757 Y35.9672 
G01 X11.8233 Y35.9041 
G01 X11.6862 Y35.8124 
G01 X11.5695 Y35.6958 
G01 X11.4779 Y35.5587 
G01 X11.4148 Y35.4063 
G01 X11.3826 Y35.2445 
G01 X11.3826 Y33.5555 
G01 X11.4148 Y33.3937 
G01 X11.4779 Y33.2413 
G01 X11.5695 Y33.1042 
G01 X11.6862 Y32.9875 
G01 X11.8233 Y32.8959 
G01 X11.9414 Y32.8470 
G01 X11.9414 Y31.7433 
G01 X11.9604 Y31.6725 
G01 X11.9971 Y31.6089 
G01 X15.7771 Y27.8289 
G01 X15.8289 Y27.7771 
G01 X15.8925 Y27.7404 
G01 X15.9633 Y27.7214 
G01 X23.0280 Y27.7214 
G01 X23.2852 Y27.4642 
G01 X23.8948 Y27.4642 
G01 X24.1520 Y27.7214 
G01 X28.2314 Y27.7214 
G01 X28.2314 Y20.3994 
G01 X28.1665 Y20.3994 
G01 X27.6806 Y19.9135 
G01 X27.6806 Y19.2746 
G01 X27.0289 Y18.6229 
G01 X26.9771 Y18.5711 
G01 X26.9404 Y18.5075 
G01 X26.9214 Y18.4367 
G01 X26.9214 Y8.1054  
G01 X24.0415 Y5.2255  
G01 X23.9054 Y5.2819  
G01 X23.7362 Y5.3155  
G01 X23.5638 Y5.3155  
G01 X23.3946 Y5.2819  
G01 X23.2353 Y5.2159  
G01 X23.0919 Y5.1200  
G01 X22.9700 Y4.9981  
G01 X22.8741 Y4.8547  
G01 X22.8178 Y4.7186  
G01 X10.7456 Y4.7186  
G01 X10.7439 Y4.7227  
G01 X10.7227 Y4.7439  
G01 X10.6950 Y4.7554  
G01 X7.5650  Y4.7554  
G01 X7.5373  Y4.7439  
G01 X7.5161  Y4.7227  
G01 X7.5046  Y4.6950  
G01 X7.5046  Y4.1650  
G01 X7.5161  Y4.1373  
G01 X7.5373  Y4.1161  
G01 X7.5650  Y4.1046  
G01 X10.6950 Y4.1046  
G01 X10.7227 Y4.1161  
G01 X10.7439 Y4.1373  
G01 X10.7539 Y4.1614  
G01 X22.8178 Y4.1614  
G01 X22.8741 Y4.0253  
G01 X22.9700 Y3.8819  
G01 X23.0919 Y3.7600  
G01 X23.2353 Y3.6641  
G01 X23.3946 Y3.5981  
G01 X23.5638 Y3.5645  
G01 X23.7362 Y3.5645  
G01 X23.9054 Y3.5981  
G01 X24.0647 Y3.6641  
G01 X24.2081 Y3.7600  
G01 X24.3300 Y3.8819  
G01 X24.4259 Y4.0253  
G01 X24.4919 Y4.1846  
G01 X24.5255 Y4.3538  
G01 X24.5255 Y4.5262  
G01 X24.4919 Y4.6954  
G01 X24.4355 Y4.8315  
G01 X30.3654 Y10.7614 
G01 X49.3742 Y10.7614 
G01 X49.3742 Y10.7352 
G01 X49.8052 Y10.3042 
G01 X50.4148 Y10.3042 
G01 X50.8458 Y10.7352 
G01 X50.8458 Y10.7614 
G01 X61.1446 Y10.7614 
G01 X65.4771 Y6.4289  
G01 X65.5289 Y6.3771  
G01 X65.5925 Y6.3404  
G01 X65.6633 Y6.3214  
G01 X75.4367 Y6.3214  
G01 X75.5075 Y6.3404  
G01 X75.5711 Y6.3771  
G01 X75.6229 Y6.4289  
G01 X80.1229 Y10.9289 
G01 X80.1596 Y10.9925 
G01 X80.1786 Y11.0633 
G01 X80.1786 Y21.1367 
G01 X80.1596 Y21.2075 
G01 X80.1229 Y21.2711 
G01 X80.0711 Y21.3229 
G01 X73.7786 Y27.6154 
G01 X73.7786 Y31.3367 
G01 X73.7596 Y31.4075 
G01 X73.7229 Y31.4711 
G01 X73.6711 Y31.5229 
G01 X71.6711 Y33.5229 
G01 X71.6075 Y33.5596 
G01 X71.5367 Y33.5786 
G01 X67.0786 Y33.5786 
G01 X67.0786 Y35.8338 
G01 X67.1125 Y35.8338 
G01 X67.2546 Y35.8621 
G01 X67.3885 Y35.9175 
G01 X67.5090 Y35.9981 
G01 X67.6115 Y36.1006 
G01 X67.6921 Y36.2211 
G01 X67.7475 Y36.3550 
G01 X67.7758 Y36.4971 
G01 X67.7758 Y36.9514 
G01 X68.8442 Y36.9514 
G01 X68.8442 Y36.4971 
G01 X68.8725 Y36.3550 
G01 X68.9279 Y36.2211 
G01 X69.0085 Y36.1006 
G01 X69.1110 Y35.9981 
G01 X69.2315 Y35.9175 
G01 X69.3654 Y35.8621 
G01 X69.5075 Y35.8338 
G01 X69.6525 Y35.8338 
G01 X69.7946 Y35.8621 
G01 X69.9285 Y35.9175 
G01 X70.0490 Y35.9981 
G01 X70.1515 Y36.1006 
G01 X70.2321 Y36.2211 
G01 X70.2875 Y36.3550 
G01 X70.3158 Y36.4971 
G01 X70.3158 Y37.9629 
G01 X70.2875 Y38.1050 
G01 X70.2321 Y38.2389 
G01 X70.1515 Y38.3594 
G01 X70.0490 Y38.4619 
G01 X69.9786 Y38.5090 
G01 X69.9786 Y40.2846 
G01 X86.0729 Y56.3789 
G01 X86.7111 Y57.0171 
G01 X86.7154 Y57.0214 
G01 X120.6367 Y57.0214 
G01 X120.7075 Y57.0404 
G01 X120.7711 Y57.0771 
G01 X120.8229 Y57.1289 
G01 X121.5609 Y57.8669 
G01 X121.6681 Y57.8225 
G01 X121.8283 Y57.7906 
G01 X121.9917 Y57.7906 
G01 X122.1519 Y57.8225 
G01 X122.3029 Y57.8850 
G01 X122.4387 Y57.9758 
G01 X122.5542 Y58.0913 
G01 X122.6450 Y58.2271 
G01 X122.7075 Y58.3781 
G01 X122.7394 Y58.5383 
G01 X122.7394 Y58.7017 
G01 X122.7075 Y58.8619 
G01 X122.6450 Y59.0129 
G01 X122.5542 Y59.1487 
G01 X122.4387 Y59.2642 
G01 X122.3029 Y59.3550 
G01 X122.1519 Y59.4175 
G01 X121.9917 Y59.4494 
G01 X121.8283 Y59.4494 
G01 X121.6681 Y59.4175 
G01 X121.5171 Y59.3550 
G01 X121.3813 Y59.2642 
G01 X121.2658 Y59.1487 
G01 X121.1750 Y59.0129 
G01 X121.1125 Y58.8619 
G01 X121.0806 Y58.7017 
G01 X121.0806 Y58.5383 
G01 X121.1125 Y58.3781 
G01 X121.1627 Y58.2567 
G01 X120.4846 Y57.5786 
G01 X86.5633 Y57.5786 
G01 X86.4925 Y57.5596 
G01 X86.4289 Y57.5229 
G01 X86.3171 Y57.4111 
G01 X85.6789 Y56.7729 
G01 X69.5289 Y40.6229 
G01 X69.4771 Y40.5711 
G01 X69.4404 Y40.5075 
G01 X69.4214 Y40.4367 
G01 X69.4214 Y38.6091 
G01 X69.3654 Y38.5979 
G01 X69.2315 Y38.5425 
G01 X69.1110 Y38.4619 
G01 X69.0085 Y38.3594 
G01 X68.9279 Y38.2389 
G01 X68.8725 Y38.1050 
G01 X68.8442 Y37.9629 
G01 X68.8442 Y37.5086 
G01 X67.7758 Y37.5086 
G01 X67.7758 Y37.9629 
G01 X67.7475 Y38.1050 
G01 X67.6921 Y38.2389 
G01 X67.6115 Y38.3594 
G01 X67.5090 Y38.4619 
G01 X67.3885 Y38.5425 
G01 X67.2546 Y38.5979 
G01 X67.1125 Y38.6262 
G01 X67.0786 Y38.6262 
G01 X67.0786 Y40.6367 
G01 X67.0596 Y40.7075 
G01 X67.0229 Y40.7711 
G01 X58.4229 Y49.3711 
G01 X58.3711 Y49.4229 
G01 X58.3075 Y49.4596 
G01 X58.2367 Y49.4786 
G01 X55.3633 Y49.4786 
G01 X55.2925 Y49.4596 
G01 X55.2289 Y49.4229 
G01 X54.2289 Y48.4229 
G01 X54.1771 Y48.3711 
G01 X54.1404 Y48.3075 
G01 X54.1214 Y48.2367 
G01 X54.1214 Y45.9071 
G01 X53.9933 Y45.8541 
G01 X53.8562 Y45.7625 
G01 X53.7395 Y45.6458 
G01 X53.6479 Y45.5087 
G01 X53.5848 Y45.3563 
G01 X53.5526 Y45.1945 
G01 X53.5526 Y43.5055 
G01 X53.5848 Y43.3437 
G01 X53.6479 Y43.1913 
G01 X53.7395 Y43.0542 
G01 X53.8562 Y42.9375 
G01 X53.9933 Y42.8459 
G01 X54.1457 Y42.7828 
G01 X54.3075 Y42.7506 
G01 X54.4725 Y42.7506 
G01 X54.6343 Y42.7828 
G01 X54.7867 Y42.8459 
G01 X54.9238 Y42.9375 
G01 X55.0404 Y43.0542 
G01 X55.1321 Y43.1913 
G01 X55.1952 Y43.3437 
G01 X55.2274 Y43.5055 
G01 X55.2274 Y45.1945 
G01 X55.1952 Y45.3563 
G01 X55.1321 Y45.5087 
G01 X55.0404 Y45.6458 
G01 X54.9238 Y45.7625 
G01 X54.7867 Y45.8541 
G01 X54.6786 Y45.8989 
G01 X54.6786 Y48.0846 
G01 X55.5154 Y48.9214 
G01 X58.0846 Y48.9214 
G01 X66.5214 Y40.4846 
G01 X66.5214 Y38.4124 
G01 X66.4685 Y38.3594 
G01 X66.3879 Y38.2389 
G01 X66.3325 Y38.1050 
G01 X66.3042 Y37.9629 
G01 X66.3042 Y36.4971 
G01 X66.3325 Y36.3550 
G01 X66.3879 Y36.2211 
G01 X66.4685 Y36.1006 
G01 X66.5214 Y36.0476 
G01 X66.5214 Y33.3154 
G01 X64.2771 Y31.0711 
G01 X64.2404 Y31.0075 
G01 X64.2258 Y30.9533 
G01 X64.1515 Y30.9225 
G01 X64.0310 Y30.8419 
G01 X63.9285 Y30.7394 
G01 X63.8479 Y30.6189 
G01 X63.7925 Y30.4850 
G01 X63.7642 Y30.3429 
G01 X63.7642 Y28.8771 
G01 X63.7925 Y28.7350 
G01 X63.8479 Y28.6011 
G01 X63.9285 Y28.4806 
G01 X64.0310 Y28.3781 
G01 X64.1515 Y28.2975 
G01 X64.2854 Y28.2421 
G01 X64.4275 Y28.2138 
G01 X64.5725 Y28.2138 
G01 X64.7146 Y28.2421 
G01 X64.8485 Y28.2975 
G01 X64.9690 Y28.3781 
G01 X65.0715 Y28.4806 
G01 X65.1521 Y28.6011 
G01 X65.2075 Y28.7350 
G01 X65.2358 Y28.8771 
G01 X65.2358 Y30.3429 
G01 X65.2075 Y30.4850 
G01 X65.1521 Y30.6189 
G01 X65.0715 Y30.7394 
G01 X64.9690 Y30.8419 
G01 X64.8892 Y30.8952 
G01 X67.0154 Y33.0214 
G01 X71.3846 Y33.0214 
G01 X73.2214 Y31.1846 
G01 X73.2214 Y27.4633 
G01 X73.2404 Y27.3925 
G01 X73.2771 Y27.3289 
G01 X79.6214 Y20.9846 
G01 X79.6214 Y11.2154 
G01 X75.2846 Y6.8786  
G01 X65.8154 Y6.8786  
G01 X61.4311 Y11.2629 
G01 X61.3675 Y11.2996 
G01 X61.2967 Y11.3186 
G01 X50.8458 Y11.3186 
G01 X50.8458 Y11.3448 
G01 X50.4148 Y11.7758 
G01 X49.8052 Y11.7758 
G01 X49.3742 Y11.3448 
G01 X49.3742 Y11.3186 
G01 X30.2133 Y11.3186 
G01 X30.1425 Y11.2996 
G01 X30.0789 Y11.2629 
G01 X27.4786 Y8.6626  
G01 X27.4786 Y18.2846 
G01 X28.0505 Y18.8565 
G01 X28.1665 Y18.7406 
G01 X28.8535 Y18.7406 
G01 X29.3394 Y19.2264 
G01 X29.3394 Y19.2914 
G01 X30.2206 Y19.2914 
G01 X30.2206 Y19.2264 
G01 X30.7065 Y18.7406 
G01 X31.3935 Y18.7406 
G01 X31.8794 Y19.2264 
G01 X31.8794 Y19.2914 
G01 X32.7606 Y19.2914 
G01 X32.7606 Y19.2264 
G01 X33.2465 Y18.7406 
G01 X33.9335 Y18.7406 
G01 X34.4194 Y19.2264 
G01 X34.4194 Y19.9135 
G01 X33.9335 Y20.3994 
G01 X33.2465 Y20.3994 
G01 X32.7606 Y19.9135 
G01 X32.7606 Y19.8486 
G01 X31.8794 Y19.8486 
G01 X31.8794 Y19.9135 
G01 X31.3935 Y20.3994 
G01 X30.7065 Y20.3994 
G01 X30.2206 Y19.9135 
G01 X30.2206 Y19.8486 
G01 X29.3394 Y19.8486 
G01 X29.3394 Y19.9135 
G01 X28.8535 Y20.3994 
G01 X28.7886 Y20.3994 
G01 X28.7886 Y27.7214 
G01 X31.5542 Y27.7214 
G01 X31.5542 Y27.6952 
G01 X31.9852 Y27.2642 
G01 X32.5948 Y27.2642 
G01 X33.0258 Y27.6952 
G01 X33.0258 Y28.3048 
G01 X32.5948 Y28.7358 
G01 X31.9852 Y28.7358 
G01 X31.7280 Y28.4786 
G01 X28.8617 Y28.4786 
G01 X28.5546 Y28.4965 
G01 X28.5467 Y28.4986 
G01 X28.5181 Y28.4986 
G01 X28.4896 Y28.5003 
G01 X28.4815 Y28.4986 
G01 X28.4733 Y28.4986 
G01 X28.4457 Y28.4912 
G01 X28.4177 Y28.4854 
G01 X28.4104 Y28.4817 
G01 X28.4025 Y28.4796 
G01 X24.3258 Y28.4786 
G01 X24.3258 Y28.5048 
G00 Z-1.2000 
G00 X10.7554 Y6.5650  
G01 Z0.2778  F254   
G01 X10.7554 Y7.0950  F508   
G01 X10.7439 Y7.1227  
G01 X10.7227 Y7.1439  
G01 X10.6950 Y7.1554  
G01 X7.5650  Y7.1554  
G01 X7.5373  Y7.1439  
G01 X7.5161  Y7.1227  
G01 X7.5046  Y7.0950  
G01 X7.5046  Y6.5650  
G01 X7.5161  Y6.5373  
G01 X7.5373  Y6.5161  
G01 X7.5650  Y6.5046  
G01 X10.6950 Y6.5046  
G01 X10.7227 Y6.5161  
G01 X10.7439 Y6.5373  
G01 X10.7554 Y6.5650  
G00 Z-1.2000 
G00 X10.7554 Y5.7650  
G01 Z0.2778  F254   
G01 X10.7554 Y6.2950  F508   
G01 X10.7439 Y6.3227  
G01 X10.7227 Y6.3439  
G01 X10.6950 Y6.3554  
G01 X7.5650  Y6.3554  
G01 X7.5373  Y6.3439  
G01 X7.5161  Y6.3227  
G01 X7.5046  Y6.2950  
G01 X7.5046  Y5.7650  
G01 X7.5161  Y5.7373  
G01 X7.5373  Y5.7161  
G01 X7.5650  Y5.7046  
G01 X10.6950 Y5.7046  
G01 X10.7227 Y5.7161  
G01 X10.7439 Y5.7373  
G01 X10.7554 Y5.7650  
G00 Z-1.2000 
G00 X10.7554 Y4.9650  
G01 Z0.2778  F254   
G01 X10.7554 Y5.4950  F508   
G01 X10.7439 Y5.5227  
G01 X10.7227 Y5.5439  
G01 X10.6950 Y5.5554  
G01 X7.5650  Y5.5554  
G01 X7.5373  Y5.5439  
G01 X7.5161  Y5.5227  
G01 X7.5046  Y5.4950  
G01 X7.5046  Y4.9650  
G01 X7.5161  Y4.9373  
G01 X7.5373  Y4.9161  
G01 X7.5650  Y4.9046  
G01 X10.6950 Y4.9046  
G01 X10.7227 Y4.9161  
G01 X10.7439 Y4.9373  
G01 X10.7554 Y4.9650  
G00 Z-1.2000 
G00 X10.7554 Y0.5650  
G01 Z0.2778  F254   
G01 X10.7554 Y2.5950  F508   
G01 X10.7439 Y2.6227  
G01 X10.7227 Y2.6439  
G01 X10.6950 Y2.6554  
G01 X7.3650  Y2.6554  
G01 X7.3373  Y2.6439  
G01 X7.3161  Y2.6227  
G01 X7.3046  Y2.5950  
G01 X7.3046  Y0.5650  
G01 X7.3161  Y0.5373  
G01 X7.3373  Y0.5161  
G01 X7.3650  Y0.5046  
G01 X10.6950 Y0.5046  
G01 X10.7227 Y0.5161  
G01 X10.7439 Y0.5373  
G01 X10.7554 Y0.5650  
G00 Z-1.2000 
G00 X10.7554 Y9.4650  
G01 Z0.2778  F254   
G01 X10.7554 Y11.4950 F508   
G01 X10.7439 Y11.5227 
G01 X10.7227 Y11.5439 
G01 X10.6950 Y11.5554 
G01 X7.3650  Y11.5554 
G01 X7.3373  Y11.5439 
G01 X7.3161  Y11.5227 
G01 X7.3046  Y11.4950 
G01 X7.3046  Y9.4650  
G01 X7.3161  Y9.4373  
G01 X7.3373  Y9.4161  
G01 X7.3650  Y9.4046  
G01 X10.6950 Y9.4046  
G01 X10.7227 Y9.4161  
G01 X10.7439 Y9.4373  
G01 X10.7554 Y9.4650  
G00 Z-1.2000 
G00 X4.4554  Y0.5650  
G01 Z0.2778  F254   
G01 X4.4554  Y2.5950  F508   
G01 X4.4439  Y2.6227  
G01 X4.4227  Y2.6439  
G01 X4.3950  Y2.6554  
G01 X1.8650  Y2.6554  
G01 X1.8373  Y2.6439  
G01 X1.8161  Y2.6227  
G01 X1.8046  Y2.5950  
G01 X1.8046  Y0.5650  
G01 X1.8161  Y0.5373  
G01 X1.8373  Y0.5161  
G01 X1.8650  Y0.5046  
G01 X4.3950  Y0.5046  
G01 X4.4227  Y0.5161  
G01 X4.4439  Y0.5373  
G01 X4.4554  Y0.5650  
G00 Z-1.2000 
G00 X4.4554  Y9.4650  
G01 Z0.2778  F254   
G01 X4.4554  Y11.4950 F508   
G01 X4.4439  Y11.5227 
G01 X4.4227  Y11.5439 
G01 X4.3950  Y11.5554 
G01 X1.8650  Y11.5554 
G01 X1.8373  Y11.5439 
G01 X1.8161  Y11.5227 
G01 X1.8046  Y11.4950 
G01 X1.8046  Y9.4650  
G01 X1.8161  Y9.4373  
G01 X1.8373  Y9.4161  
G01 X1.8650  Y9.4046  
G01 X4.3950  Y9.4046  
G01 X4.4227  Y9.4161  
G01 X4.4439  Y9.4373  
G01 X4.4554  Y9.4650  
G00 Z-1.2000 
G00 X109.3733 Y40.9880 
G01 Z0.2778  F254   
G01 X107.6843 Y40.9880 F508   
G01 X107.5225 Y40.9558 
G01 X107.3701 Y40.8927 
G01 X107.2330 Y40.8011 
G01 X107.1163 Y40.6844 
G01 X107.0247 Y40.5473 
G01 X106.9616 Y40.3949 
G01 X106.9294 Y40.2331 
G01 X106.9294 Y40.0681 
G01 X106.9616 Y39.9063 
G01 X107.0247 Y39.7539 
G01 X107.1163 Y39.6168 
G01 X107.2330 Y39.5001 
G01 X107.3701 Y39.4085 
G01 X107.5225 Y39.3454 
G01 X107.6843 Y39.3132 
G01 X109.3733 Y39.3132 
G01 X109.5351 Y39.3454 
G01 X109.6875 Y39.4085 
G01 X109.8246 Y39.5001 
G01 X109.9413 Y39.6168 
G01 X110.0329 Y39.7539 
G01 X110.0818 Y39.8720 
G01 X113.4782 Y39.8720 
G01 X113.5271 Y39.7539 
G01 X113.6187 Y39.6168 
G01 X113.7354 Y39.5001 
G01 X113.8725 Y39.4085 
G01 X114.0249 Y39.3454 
G01 X114.1867 Y39.3132 
G01 X115.8757 Y39.3132 
G01 X116.0375 Y39.3454 
G01 X116.1899 Y39.4085 
G01 X116.3270 Y39.5001 
G01 X116.4437 Y39.6168 
G01 X116.5353 Y39.7539 
G01 X116.5842 Y39.8720 
G01 X116.7873 Y39.8720 
G01 X116.8581 Y39.8910 
G01 X116.9217 Y39.9277 
G01 X120.7711 Y43.7771 
G01 X120.8229 Y43.8289 
G01 X120.8596 Y43.8925 
G01 X120.8786 Y43.9633 
G01 X120.8786 Y52.3467 
G01 X120.8596 Y52.4175 
G01 X120.8229 Y52.4811 
G01 X120.1202 Y53.1838 
G01 X120.1675 Y53.2981 
G01 X120.1994 Y53.4583 
G01 X120.1994 Y53.6217 
G01 X120.1675 Y53.7819 
G01 X120.1050 Y53.9329 
G01 X120.0142 Y54.0687 
G01 X119.8987 Y54.1842 
G01 X119.7629 Y54.2750 
G01 X119.6119 Y54.3375 
G01 X119.4517 Y54.3694 
G01 X119.2883 Y54.3694 
G01 X119.1281 Y54.3375 
G01 X118.9771 Y54.2750 
G01 X118.8413 Y54.1842 
G01 X118.7258 Y54.0687 
G01 X118.6350 Y53.9329 
G01 X118.5725 Y53.7819 
G01 X118.5406 Y53.6217 
G01 X118.5406 Y53.4583 
G01 X118.5725 Y53.2981 
G01 X118.6350 Y53.1471 
G01 X118.7258 Y53.0113 
G01 X118.8413 Y52.8958 
G01 X118.9771 Y52.8050 
G01 X119.1281 Y52.7425 
G01 X119.2883 Y52.7106 
G01 X119.4517 Y52.7106 
G01 X119.6119 Y52.7425 
G01 X119.7262 Y52.7898 
G01 X120.3214 Y52.1946 
G01 X120.3214 Y44.1154 
G01 X116.6352 Y40.4292 
G01 X116.5842 Y40.4292 
G01 X116.5353 Y40.5473 
G01 X116.4437 Y40.6844 
G01 X116.3270 Y40.8011 
G01 X116.1899 Y40.8927 
G01 X116.0375 Y40.9558 
G01 X115.8757 Y40.9880 
G01 X114.1867 Y40.9880 
G01 X114.0249 Y40.9558 
G01 X113.8725 Y40.8927 
G01 X113.7354 Y40.8011 
G01 X113.6187 Y40.6844 
G01 X113.5271 Y40.5473 
G01 X113.4782 Y40.4292 
G01 X110.0818 Y40.4292 
G01 X110.0329 Y40.5473 
G01 X109.9413 Y40.6844 
G01 X109.8246 Y40.8011 
G01 X109.6875 Y40.8927 
G01 X109.5351 Y40.9558 
G01 X109.3733 Y40.9880 
G00 Z-1.2000 
G00 X69.6458 Y10.8852 
G01 Z0.2778  F254   
G01 X69.6458 Y11.4948 F508   
G01 X69.6273 Y11.5133 
G01 X73.2859 Y15.1719 
G01 X73.3226 Y15.2355 
G01 X73.3416 Y15.3063 
G01 X73.3416 Y21.2290 
G01 X73.4115 Y21.2579 
G01 X73.5320 Y21.3385 
G01 X73.6345 Y21.4410 
G01 X73.7151 Y21.5615 
G01 X73.7705 Y21.6954 
G01 X73.7988 Y21.8375 
G01 X73.7988 Y21.9825 
G01 X73.7705 Y22.1246 
G01 X73.7151 Y22.2585 
G01 X73.6345 Y22.3790 
G01 X73.5320 Y22.4815 
G01 X73.4115 Y22.5621 
G01 X73.3416 Y22.5910 
G01 X73.3416 Y25.9737 
G01 X73.3226 Y26.0445 
G01 X73.2859 Y26.1081 
G01 X72.2786 Y27.1154 
G01 X72.2786 Y28.2309 
G01 X72.3346 Y28.2421 
G01 X72.4685 Y28.2975 
G01 X72.5890 Y28.3781 
G01 X72.6915 Y28.4806 
G01 X72.7721 Y28.6011 
G01 X72.8275 Y28.7350 
G01 X72.8558 Y28.8771 
G01 X72.8558 Y30.3429 
G01 X72.8275 Y30.4850 
G01 X72.7721 Y30.6189 
G01 X72.6915 Y30.7394 
G01 X72.5890 Y30.8419 
G01 X72.4685 Y30.9225 
G01 X72.3346 Y30.9779 
G01 X72.1925 Y31.0062 
G01 X72.0475 Y31.0062 
G01 X71.9054 Y30.9779 
G01 X71.7715 Y30.9225 
G01 X71.6510 Y30.8419 
G01 X71.5485 Y30.7394 
G01 X71.4679 Y30.6189 
G01 X71.4125 Y30.4850 
G01 X71.3842 Y30.3429 
G01 X71.3842 Y28.8771 
G01 X71.4125 Y28.7350 
G01 X71.4679 Y28.6011 
G01 X71.5485 Y28.4806 
G01 X71.6510 Y28.3781 
G01 X71.7214 Y28.3310 
G01 X71.7214 Y26.9633 
G01 X71.7404 Y26.8925 
G01 X71.7771 Y26.8289 
G01 X71.8289 Y26.7771 
G01 X72.7844 Y25.8216 
G01 X72.7844 Y22.5910 
G01 X72.7145 Y22.5621 
G01 X72.5940 Y22.4815 
G01 X72.4915 Y22.3790 
G01 X72.4109 Y22.2585 
G01 X72.3555 Y22.1246 
G01 X72.3272 Y21.9825 
G01 X72.3272 Y21.8375 
G01 X72.3555 Y21.6954 
G01 X72.4109 Y21.5615 
G01 X72.4915 Y21.4410 
G01 X72.5940 Y21.3385 
G01 X72.7145 Y21.2579 
G01 X72.7844 Y21.2290 
G01 X72.7844 Y15.4584 
G01 X69.2333 Y11.9073 
G01 X69.2148 Y11.9258 
G01 X68.6052 Y11.9258 
G01 X68.1742 Y11.4948 
G01 X68.1742 Y10.8852 
G01 X68.6052 Y10.4542 
G01 X69.2148 Y10.4542 
G01 X69.6458 Y10.8852 
G00 Z-1.2000 
G00 X51.0642 Y37.9629 
G01 Z0.2778  F254   
G01 X51.0642 Y36.4971 F508   
G01 X51.0925 Y36.3550 
G01 X51.1479 Y36.2211 
G01 X51.2285 Y36.1006 
G01 X51.3310 Y35.9981 
G01 X51.4515 Y35.9175 
G01 X51.5024 Y35.8964 
G01 X49.3846 Y33.7786 
G01 X24.6154 Y33.7786 
G01 X23.2786 Y35.1154 
G01 X23.2786 Y37.6308 
G01 X23.2852 Y37.6242 
G01 X23.8948 Y37.6242 
G01 X24.3258 Y38.0552 
G01 X24.3258 Y38.6648 
G01 X23.8948 Y39.0958 
G01 X23.2852 Y39.0958 
G01 X22.8542 Y38.6648 
G01 X22.8542 Y38.0552 
G01 X22.8727 Y38.0367 
G01 X22.7771 Y37.9411 
G01 X22.7404 Y37.8775 
G01 X22.7214 Y37.8067 
G01 X22.7214 Y34.9633 
G01 X22.7404 Y34.8925 
G01 X22.7771 Y34.8289 
G01 X22.8289 Y34.7771 
G01 X24.3289 Y33.2771 
G01 X24.3925 Y33.2404 
G01 X24.4633 Y33.2214 
G01 X49.5367 Y33.2214 
G01 X49.6075 Y33.2404 
G01 X49.6711 Y33.2771 
G01 X49.7229 Y33.3289 
G01 X52.0229 Y35.6289 
G01 X52.0596 Y35.6925 
G01 X52.0786 Y35.7633 
G01 X52.0786 Y35.8886 
G01 X52.1485 Y35.9175 
G01 X52.2690 Y35.9981 
G01 X52.3715 Y36.1006 
G01 X52.4521 Y36.2211 
G01 X52.5075 Y36.3550 
G01 X52.5358 Y36.4971 
G01 X52.5358 Y37.9629 
G01 X52.5075 Y38.1050 
G01 X52.4521 Y38.2389 
G01 X52.3715 Y38.3594 
G01 X52.2690 Y38.4619 
G01 X52.1485 Y38.5425 
G01 X52.1286 Y38.5507 
G01 X52.1286 Y42.7970 
G01 X52.2467 Y42.8459 
G01 X52.3838 Y42.9375 
G01 X52.5005 Y43.0542 
G01 X52.5921 Y43.1913 
G01 X52.6552 Y43.3437 
G01 X52.6874 Y43.5055 
G01 X52.6874 Y45.1945 
G01 X52.6552 Y45.3563 
G01 X52.5921 Y45.5087 
G01 X52.5005 Y45.6458 
G01 X52.3838 Y45.7625 
G01 X52.2467 Y45.8541 
G01 X52.0943 Y45.9172 
G01 X51.9325 Y45.9494 
G01 X51.7675 Y45.9494 
G01 X51.6057 Y45.9172 
G01 X51.4533 Y45.8541 
G01 X51.3162 Y45.7625 
G01 X51.1995 Y45.6458 
G01 X51.1079 Y45.5087 
G01 X51.0448 Y45.3563 
G01 X51.0126 Y45.1945 
G01 X51.0126 Y43.5055 
G01 X51.0448 Y43.3437 
G01 X51.1079 Y43.1913 
G01 X51.1995 Y43.0542 
G01 X51.3162 Y42.9375 
G01 X51.4533 Y42.8459 
G01 X51.5714 Y42.7970 
G01 X51.5714 Y38.5921 
G01 X51.4515 Y38.5425 
G01 X51.3310 Y38.4619 
G01 X51.2285 Y38.3594 
G01 X51.1479 Y38.2389 
G01 X51.0925 Y38.1050 
G01 X51.0642 Y37.9629 
G00 Z-1.2000 
G00 X53.6042 Y37.9629 
G01 Z0.2778  F254   
G01 X53.6042 Y36.4971 F508   
G01 X53.6325 Y36.3550 
G01 X53.6879 Y36.2211 
G01 X53.7685 Y36.1006 
G01 X53.8710 Y35.9981 
G01 X53.9915 Y35.9175 
G01 X54.1254 Y35.8621 
G01 X54.2675 Y35.8338 
G01 X54.4125 Y35.8338 
G01 X54.5546 Y35.8621 
G01 X54.6885 Y35.9175 
G01 X54.8090 Y35.9981 
G01 X54.9115 Y36.1006 
G01 X54.9921 Y36.2211 
G01 X55.0475 Y36.3550 
G01 X55.0758 Y36.4971 
G01 X55.0758 Y37.9629 
G01 X55.0475 Y38.1050 
G01 X54.9921 Y38.2389 
G01 X54.9115 Y38.3594 
G01 X54.8090 Y38.4619 
G01 X54.6885 Y38.5425 
G01 X54.5546 Y38.5979 
G01 X54.4125 Y38.6262 
G01 X54.2675 Y38.6262 
G01 X54.1254 Y38.5979 
G01 X53.9915 Y38.5425 
G01 X53.8710 Y38.4619 
G01 X53.7685 Y38.3594 
G01 X53.6879 Y38.2389 
G01 X53.6325 Y38.1050 
G01 X53.6042 Y37.9629 
G00 Z-1.2000 
G00 X56.1442 Y37.9629 
G01 Z0.2778  F254   
G01 X56.1442 Y36.4971 F508   
G01 X56.1725 Y36.3550 
G01 X56.2279 Y36.2211 
G01 X56.3085 Y36.1006 
G01 X56.4110 Y35.9981 
G01 X56.5315 Y35.9175 
G01 X56.6654 Y35.8621 
G01 X56.8075 Y35.8338 
G01 X56.9525 Y35.8338 
G01 X57.0946 Y35.8621 
G01 X57.2285 Y35.9175 
G01 X57.3490 Y35.9981 
G01 X57.4515 Y36.1006 
G01 X57.5321 Y36.2211 
G01 X57.5875 Y36.3550 
G01 X57.6158 Y36.4971 
G01 X57.6158 Y37.9629 
G01 X57.5875 Y38.1050 
G01 X57.5321 Y38.2389 
G01 X57.4515 Y38.3594 
G01 X57.3490 Y38.4619 
G01 X57.2285 Y38.5425 
G01 X57.0946 Y38.5979 
G01 X56.9525 Y38.6262 
G01 X56.8075 Y38.6262 
G01 X56.6654 Y38.5979 
G01 X56.5315 Y38.5425 
G01 X56.4110 Y38.4619 
G01 X56.3085 Y38.3594 
G01 X56.2279 Y38.2389 
G01 X56.1725 Y38.1050 
G01 X56.1442 Y37.9629 
G00 Z-1.2000 
G00 X58.6842 Y37.9629 
G01 Z0.2778  F254   
G01 X58.6842 Y36.4971 F508   
G01 X58.7125 Y36.3550 
G01 X58.7679 Y36.2211 
G01 X58.8485 Y36.1006 
G01 X58.9510 Y35.9981 
G01 X59.0715 Y35.9175 
G01 X59.2054 Y35.8621 
G01 X59.3475 Y35.8338 
G01 X59.4925 Y35.8338 
G01 X59.6346 Y35.8621 
G01 X59.7685 Y35.9175 
G01 X59.8890 Y35.9981 
G01 X59.9915 Y36.1006 
G01 X60.0721 Y36.2211 
G01 X60.1275 Y36.3550 
G01 X60.1558 Y36.4971 
G01 X60.1558 Y37.9629 
G01 X60.1275 Y38.1050 
G01 X60.0721 Y38.2389 
G01 X59.9915 Y38.3594 
G01 X59.8890 Y38.4619 
G01 X59.7685 Y38.5425 
G01 X59.6346 Y38.5979 
G01 X59.4925 Y38.6262 
G01 X59.3475 Y38.6262 
G01 X59.2054 Y38.5979 
G01 X59.0715 Y38.5425 
G01 X58.9510 Y38.4619 
G01 X58.8485 Y38.3594 
G01 X58.7679 Y38.2389 
G01 X58.7125 Y38.1050 
G01 X58.6842 Y37.9629 
G00 Z-1.2000 
G00 X61.2242 Y37.9629 
G01 Z0.2778  F254   
G01 X61.2242 Y36.4971 F508   
G01 X61.2525 Y36.3550 
G01 X61.3079 Y36.2211 
G01 X61.3885 Y36.1006 
G01 X61.4910 Y35.9981 
G01 X61.6115 Y35.9175 
G01 X61.7454 Y35.8621 
G01 X61.8875 Y35.8338 
G01 X62.0325 Y35.8338 
G01 X62.1746 Y35.8621 
G01 X62.3085 Y35.9175 
G01 X62.4290 Y35.9981 
G01 X62.5315 Y36.1006 
G01 X62.6121 Y36.2211 
G01 X62.6675 Y36.3550 
G01 X62.6958 Y36.4971 
G01 X62.6958 Y37.9629 
G01 X62.6675 Y38.1050 
G01 X62.6121 Y38.2389 
G01 X62.5315 Y38.3594 
G01 X62.4290 Y38.4619 
G01 X62.3085 Y38.5425 
G01 X62.1746 Y38.5979 
G01 X62.0325 Y38.6262 
G01 X61.8875 Y38.6262 
G01 X61.7454 Y38.5979 
G01 X61.6115 Y38.5425 
G01 X61.4910 Y38.4619 
G01 X61.3885 Y38.3594 
G01 X61.3079 Y38.2389 
G01 X61.2525 Y38.1050 
G01 X61.2242 Y37.9629 
G00 Z-1.2000 
G00 X73.9242 Y37.9629 
G01 Z0.2778  F254   
G01 X73.9242 Y36.4971 F508   
G01 X73.9525 Y36.3550 
G01 X74.0079 Y36.2211 
G01 X74.0885 Y36.1006 
G01 X74.1910 Y35.9981 
G01 X74.3115 Y35.9175 
G01 X74.4454 Y35.8621 
G01 X74.5875 Y35.8338 
G01 X74.7325 Y35.8338 
G01 X74.8746 Y35.8621 
G01 X75.0085 Y35.9175 
G01 X75.1290 Y35.9981 
G01 X75.2315 Y36.1006 
G01 X75.3121 Y36.2211 
G01 X75.3675 Y36.3550 
G01 X75.3958 Y36.4971 
G01 X75.3958 Y37.9629 
G01 X75.3675 Y38.1050 
G01 X75.3182 Y38.2242 
G01 X82.0154 Y44.9214 
G01 X116.1467 Y44.9214 
G01 X116.2175 Y44.9404 
G01 X116.2811 Y44.9771 
G01 X119.0138 Y47.7098 
G01 X119.1281 Y47.6625 
G01 X119.2883 Y47.6306 
G01 X119.4517 Y47.6306 
G01 X119.6119 Y47.6625 
G01 X119.7629 Y47.7250 
G01 X119.8987 Y47.8158 
G01 X120.0142 Y47.9313 
G01 X120.1050 Y48.0671 
G01 X120.1675 Y48.2181 
G01 X120.1994 Y48.3783 
G01 X120.1994 Y48.5417 
G01 X120.1675 Y48.7019 
G01 X120.1050 Y48.8529 
G01 X120.0142 Y48.9887 
G01 X119.8987 Y49.1042 
G01 X119.7629 Y49.1950 
G01 X119.6119 Y49.2575 
G01 X119.4517 Y49.2894 
G01 X119.2883 Y49.2894 
G01 X119.1281 Y49.2575 
G01 X118.9771 Y49.1950 
G01 X118.8413 Y49.1042 
G01 X118.7258 Y48.9887 
G01 X118.6350 Y48.8529 
G01 X118.5725 Y48.7019 
G01 X118.5406 Y48.5417 
G01 X118.5406 Y48.3783 
G01 X118.5725 Y48.2181 
G01 X118.6198 Y48.1038 
G01 X115.9946 Y45.4786 
G01 X81.8633 Y45.4786 
G01 X81.7925 Y45.4596 
G01 X81.7289 Y45.4229 
G01 X81.6771 Y45.3711 
G01 X74.8953 Y38.5893 
G01 X74.8746 Y38.5979 
G01 X74.7325 Y38.6262 
G01 X74.5875 Y38.6262 
G01 X74.4454 Y38.5979 
G01 X74.3115 Y38.5425 
G01 X74.1910 Y38.4619 
G01 X74.0885 Y38.3594 
G01 X74.0079 Y38.2389 
G01 X73.9525 Y38.1050 
G01 X73.9242 Y37.9629 
G00 Z-1.2000 
G00 X79.0042 Y30.3429 
G01 Z0.2778  F254   
G01 X79.0042 Y28.8771 F508   
G01 X79.0325 Y28.7350 
G01 X79.0879 Y28.6011 
G01 X79.1685 Y28.4806 
G01 X79.2710 Y28.3781 
G01 X79.3915 Y28.2975 
G01 X79.5254 Y28.2421 
G01 X79.6675 Y28.2138 
G01 X79.8125 Y28.2138 
G01 X79.9546 Y28.2421 
G01 X80.0885 Y28.2975 
G01 X80.2090 Y28.3781 
G01 X80.3115 Y28.4806 
G01 X80.3921 Y28.6011 
G01 X80.4475 Y28.7350 
G01 X80.4758 Y28.8771 
G01 X80.4758 Y30.3429 
G01 X80.4475 Y30.4850 
G01 X80.3921 Y30.6189 
G01 X80.3115 Y30.7394 
G01 X80.2090 Y30.8419 
G01 X80.0885 Y30.9225 
G01 X79.9546 Y30.9779 
G01 X79.8125 Y31.0062 
G01 X79.6675 Y31.0062 
G01 X79.5254 Y30.9779 
G01 X79.3915 Y30.9225 
G01 X79.2710 Y30.8419 
G01 X79.1685 Y30.7394 
G01 X79.0879 Y30.6189 
G01 X79.0325 Y30.4850 
G01 X79.0042 Y30.3429 
G00 Z-1.2000 
G00 X76.4642 Y30.3429 
G01 Z0.2778  F254   
G01 X76.4642 Y28.8771 F508   
G01 X76.4925 Y28.7350 
G01 X76.5479 Y28.6011 
G01 X76.6285 Y28.4806 
G01 X76.7310 Y28.3781 
G01 X76.8515 Y28.2975 
G01 X76.9854 Y28.2421 
G01 X77.1275 Y28.2138 
G01 X77.2725 Y28.2138 
G01 X77.4146 Y28.2421 
G01 X77.5485 Y28.2975 
G01 X77.6690 Y28.3781 
G01 X77.7715 Y28.4806 
G01 X77.8521 Y28.6011 
G01 X77.9075 Y28.7350 
G01 X77.9358 Y28.8771 
G01 X77.9358 Y30.3429 
G01 X77.9075 Y30.4850 
G01 X77.8521 Y30.6189 
G01 X77.7715 Y30.7394 
G01 X77.6690 Y30.8419 
G01 X77.5485 Y30.9225 
G01 X77.4146 Y30.9779 
G01 X77.2725 Y31.0062 
G01 X77.1275 Y31.0062 
G01 X76.9854 Y30.9779 
G01 X76.8515 Y30.9225 
G01 X76.7310 Y30.8419 
G01 X76.6285 Y30.7394 
G01 X76.5479 Y30.6189 
G01 X76.4925 Y30.4850 
G01 X76.4642 Y30.3429 
G00 Z-1.2000 
G00 X73.9242 Y30.3429 
G01 Z0.2778  F254   
G01 X73.9242 Y28.8771 F508   
G01 X73.9525 Y28.7350 
G01 X74.0079 Y28.6011 
G01 X74.0885 Y28.4806 
G01 X74.1910 Y28.3781 
G01 X74.3115 Y28.2975 
G01 X74.4454 Y28.2421 
G01 X74.5875 Y28.2138 
G01 X74.7325 Y28.2138 
G01 X74.8746 Y28.2421 
G01 X75.0085 Y28.2975 
G01 X75.1290 Y28.3781 
G01 X75.2315 Y28.4806 
G01 X75.3121 Y28.6011 
G01 X75.3675 Y28.7350 
G01 X75.3958 Y28.8771 
G01 X75.3958 Y30.3429 
G01 X75.3675 Y30.4850 
G01 X75.3121 Y30.6189 
G01 X75.2315 Y30.7394 
G01 X75.1290 Y30.8419 
G01 X75.0085 Y30.9225 
G01 X74.8746 Y30.9779 
G01 X74.7325 Y31.0062 
G01 X74.5875 Y31.0062 
G01 X74.4454 Y30.9779 
G01 X74.3115 Y30.9225 
G01 X74.1910 Y30.8419 
G01 X74.0885 Y30.7394 
G01 X74.0079 Y30.6189 
G01 X73.9525 Y30.4850 
G01 X73.9242 Y30.3429 
G00 Z-1.2000 
G00 X66.3042 Y30.3429 
G01 Z0.2778  F254   
G01 X66.3042 Y28.8771 F508   
G01 X66.3325 Y28.7350 
G01 X66.3879 Y28.6011 
G01 X66.4685 Y28.4806 
G01 X66.5710 Y28.3781 
G01 X66.6915 Y28.2975 
G01 X66.7614 Y28.2686 
G01 X66.7614 Y26.1554 
G01 X65.1500 Y24.5440 
G01 X63.4786 Y26.2154 
G01 X63.4786 Y31.3846 
G01 X64.7229 Y32.6289 
G01 X64.7596 Y32.6925 
G01 X64.7786 Y32.7633 
G01 X64.7786 Y33.2846 
G01 X64.8229 Y33.3289 
G01 X64.8596 Y33.3925 
G01 X64.8786 Y33.4633 
G01 X64.8786 Y33.5367 
G01 X64.8596 Y33.6075 
G01 X64.8229 Y33.6711 
G01 X64.7786 Y33.7154 
G01 X64.7786 Y35.8886 
G01 X64.8485 Y35.9175 
G01 X64.9690 Y35.9981 
G01 X65.0715 Y36.1006 
G01 X65.1521 Y36.2211 
G01 X65.2075 Y36.3550 
G01 X65.2358 Y36.4971 
G01 X65.2358 Y37.9629 
G01 X65.2075 Y38.1050 
G01 X65.1521 Y38.2389 
G01 X65.0715 Y38.3594 
G01 X64.9690 Y38.4619 
G01 X64.8485 Y38.5425 
G01 X64.7146 Y38.5979 
G01 X64.5725 Y38.6262 
G01 X64.4275 Y38.6262 
G01 X64.2854 Y38.5979 
G01 X64.1515 Y38.5425 
G01 X64.0310 Y38.4619 
G01 X63.9285 Y38.3594 
G01 X63.8479 Y38.2389 
G01 X63.7925 Y38.1050 
G01 X63.7642 Y37.9629 
G01 X63.7642 Y36.4971 
G01 X63.7925 Y36.3550 
G01 X63.8479 Y36.2211 
G01 X63.9285 Y36.1006 
G01 X64.0310 Y35.9981 
G01 X64.1515 Y35.9175 
G01 X64.2214 Y35.8886 
G01 X64.2214 Y33.7786 
G01 X62.4154 Y33.7786 
G01 X60.9786 Y35.2154 
G01 X60.9786 Y39.0367 
G01 X60.9596 Y39.1075 
G01 X60.9229 Y39.1711 
G01 X57.3786 Y42.7154 
G01 X57.3786 Y42.8806 
G01 X57.4638 Y42.9375 
G01 X57.5805 Y43.0542 
G01 X57.6721 Y43.1913 
G01 X57.7352 Y43.3437 
G01 X57.7674 Y43.5055 
G01 X57.7674 Y45.1945 
G01 X57.7352 Y45.3563 
G01 X57.6721 Y45.5087 
G01 X57.5805 Y45.6458 
G01 X57.4638 Y45.7625 
G01 X57.3267 Y45.8541 
G01 X57.1743 Y45.9172 
G01 X57.0125 Y45.9494 
G01 X56.8475 Y45.9494 
G01 X56.6857 Y45.9172 
G01 X56.5333 Y45.8541 
G01 X56.3962 Y45.7625 
G01 X56.2795 Y45.6458 
G01 X56.1879 Y45.5087 
G01 X56.1248 Y45.3563 
G01 X56.0926 Y45.1945 
G01 X56.0926 Y43.5055 
G01 X56.1248 Y43.3437 
G01 X56.1879 Y43.1913 
G01 X56.2795 Y43.0542 
G01 X56.3962 Y42.9375 
G01 X56.5333 Y42.8459 
G01 X56.6857 Y42.7828 
G01 X56.8214 Y42.7558 
G01 X56.8214 Y42.5633 
G01 X56.8404 Y42.4925 
G01 X56.8771 Y42.4289 
G01 X56.9289 Y42.3771 
G01 X60.4214 Y38.8846 
G01 X60.4214 Y35.0633 
G01 X60.4404 Y34.9925 
G01 X60.4771 Y34.9289 
G01 X60.5289 Y34.8771 
G01 X62.1289 Y33.2771 
G01 X62.1925 Y33.2404 
G01 X62.2633 Y33.2214 
G01 X64.2214 Y33.2214 
G01 X64.2214 Y32.9154 
G01 X63.0289 Y31.7229 
G01 X62.9771 Y31.6711 
G01 X62.9404 Y31.6075 
G01 X62.9214 Y31.5367 
G01 X62.9214 Y26.0633 
G01 X62.9404 Y25.9925 
G01 X62.9771 Y25.9289 
G01 X64.7560 Y24.1500 
G01 X61.8289 Y21.2229 
G01 X61.7771 Y21.1711 
G01 X61.7404 Y21.1075 
G01 X61.7214 Y21.0367 
G01 X61.7214 Y16.2326 
G01 X60.7011 Y17.2529 
G01 X60.6375 Y17.2896 
G01 X60.5667 Y17.3086 
G01 X34.4194 Y17.3086 
G01 X34.4194 Y17.3735 
G01 X33.9335 Y17.8594 
G01 X33.2465 Y17.8594 
G01 X32.7606 Y17.3735 
G01 X32.7606 Y17.3086 
G01 X31.8794 Y17.3086 
G01 X31.8794 Y17.3735 
G01 X31.3935 Y17.8594 
G01 X30.7065 Y17.8594 
G01 X30.2206 Y17.3735 
G01 X30.2206 Y17.3086 
G01 X29.3394 Y17.3086 
G01 X29.3394 Y17.3735 
G01 X28.8535 Y17.8594 
G01 X28.1665 Y17.8594 
G01 X27.6806 Y17.3735 
G01 X27.6806 Y16.6865 
G01 X28.1665 Y16.2006 
G01 X28.8535 Y16.2006 
G01 X29.3394 Y16.6865 
G01 X29.3394 Y16.7514 
G01 X30.2206 Y16.7514 
G01 X30.2206 Y16.6865 
G01 X30.7065 Y16.2006 
G01 X31.3935 Y16.2006 
G01 X31.8794 Y16.6865 
G01 X31.8794 Y16.7514 
G01 X32.7606 Y16.7514 
G01 X32.7606 Y16.6865 
G01 X33.2465 Y16.2006 
G01 X33.9335 Y16.2006 
G01 X34.4194 Y16.6865 
G01 X34.4194 Y16.7514 
G01 X60.4146 Y16.7514 
G01 X65.6527 Y11.5133 
G01 X65.6342 Y11.4948 
G01 X65.6342 Y10.8852 
G01 X66.0652 Y10.4542 
G01 X66.6748 Y10.4542 
G01 X67.1058 Y10.8852 
G01 X67.1058 Y11.4948 
G01 X66.6748 Y11.9258 
G01 X66.6486 Y11.9258 
G01 X66.6486 Y13.2546 
G01 X68.1711 Y14.7771 
G01 X68.2229 Y14.8289 
G01 X68.2596 Y14.8925 
G01 X68.2786 Y14.9633 
G01 X68.2786 Y16.1580 
G01 X68.3658 Y16.2452 
G01 X68.3658 Y16.8548 
G01 X68.2786 Y16.9420 
G01 X68.2786 Y18.8846 
G01 X70.9711 Y21.5771 
G01 X71.0229 Y21.6289 
G01 X71.0596 Y21.6925 
G01 X71.0786 Y21.7633 
G01 X71.0786 Y31.2367 
G01 X71.0596 Y31.3075 
G01 X71.0229 Y31.3711 
G01 X70.5229 Y31.8711 
G01 X70.4711 Y31.9229 
G01 X70.4075 Y31.9596 
G01 X70.3367 Y31.9786 
G01 X67.5633 Y31.9786 
G01 X67.4925 Y31.9596 
G01 X67.4289 Y31.9229 
G01 X66.8289 Y31.3229 
G01 X66.7771 Y31.2711 
G01 X66.7404 Y31.2075 
G01 X66.7214 Y31.1367 
G01 X66.7214 Y30.9349 
G01 X66.6915 Y30.9225 
G01 X66.5710 Y30.8419 
G01 X66.4685 Y30.7394 
G01 X66.3879 Y30.6189 
G01 X66.3325 Y30.4850 
G01 X66.3042 Y30.3429 
G00 Z-1.2000 
G00 X58.6842 Y30.3429 
G01 Z0.2778  F254   
G01 X58.6842 Y28.8771 F508   
G01 X58.7125 Y28.7350 
G01 X58.7679 Y28.6011 
G01 X58.8485 Y28.4806 
G01 X58.9510 Y28.3781 
G01 X59.0715 Y28.2975 
G01 X59.2054 Y28.2421 
G01 X59.3475 Y28.2138 
G01 X59.4925 Y28.2138 
G01 X59.6346 Y28.2421 
G01 X59.7685 Y28.2975 
G01 X59.8890 Y28.3781 
G01 X59.9915 Y28.4806 
G01 X60.0721 Y28.6011 
G01 X60.1275 Y28.7350 
G01 X60.1558 Y28.8771 
G01 X60.1558 Y30.3429 
G01 X60.1275 Y30.4850 
G01 X60.0721 Y30.6189 
G01 X59.9915 Y30.7394 
G01 X59.8890 Y30.8419 
G01 X59.7685 Y30.9225 
G01 X59.6346 Y30.9779 
G01 X59.4925 Y31.0062 
G01 X59.3475 Y31.0062 
G01 X59.2054 Y30.9779 
G01 X59.0715 Y30.9225 
G01 X58.9510 Y30.8419 
G01 X58.8485 Y30.7394 
G01 X58.7679 Y30.6189 
G01 X58.7125 Y30.4850 
G01 X58.6842 Y30.3429 
G00 Z-1.2000 
G00 X56.1442 Y30.3429 
G01 Z0.2778  F254   
G01 X56.1442 Y28.8771 F508   
G01 X56.1725 Y28.7350 
G01 X56.2279 Y28.6011 
G01 X56.3085 Y28.4806 
G01 X56.4110 Y28.3781 
G01 X56.5315 Y28.2975 
G01 X56.6654 Y28.2421 
G01 X56.8075 Y28.2138 
G01 X56.9525 Y28.2138 
G01 X57.0946 Y28.2421 
G01 X57.2285 Y28.2975 
G01 X57.3490 Y28.3781 
G01 X57.4515 Y28.4806 
G01 X57.5321 Y28.6011 
G01 X57.5875 Y28.7350 
G01 X57.6158 Y28.8771 
G01 X57.6158 Y30.3429 
G01 X57.5875 Y30.4850 
G01 X57.5321 Y30.6189 
G01 X57.4515 Y30.7394 
G01 X57.3490 Y30.8419 
G01 X57.2285 Y30.9225 
G01 X57.0946 Y30.9779 
G01 X56.9525 Y31.0062 
G01 X56.8075 Y31.0062 
G01 X56.6654 Y30.9779 
G01 X56.5315 Y30.9225 
G01 X56.4110 Y30.8419 
G01 X56.3085 Y30.7394 
G01 X56.2279 Y30.6189 
G01 X56.1725 Y30.4850 
G01 X56.1442 Y30.3429 
G00 Z-1.2000 
G00 X51.0642 Y30.3429 
G01 Z0.2778  F254   
G01 X51.0642 Y28.8771 F508   
G01 X51.0925 Y28.7350 
G01 X51.1479 Y28.6011 
G01 X51.2214 Y28.4911 
G01 X51.2214 Y27.1154 
G01 X50.3846 Y26.2786 
G01 X43.6154 Y26.2786 
G01 X37.6711 Y32.2229 
G01 X37.6075 Y32.2596 
G01 X37.5367 Y32.2786 
G01 X18.6154 Y32.2786 
G01 X17.8701 Y33.0239 
G01 X17.9505 Y33.1042 
G01 X18.0421 Y33.2413 
G01 X18.1052 Y33.3937 
G01 X18.1374 Y33.5555 
G01 X18.1374 Y35.2445 
G01 X18.1052 Y35.4063 
G01 X18.0421 Y35.5587 
G01 X17.9505 Y35.6958 
G01 X17.8338 Y35.8124 
G01 X17.6967 Y35.9041 
G01 X17.5443 Y35.9672 
G01 X17.3825 Y35.9994 
G01 X17.2175 Y35.9994 
G01 X17.0557 Y35.9672 
G01 X16.9033 Y35.9041 
G01 X16.7662 Y35.8124 
G01 X16.6495 Y35.6958 
G01 X16.5579 Y35.5587 
G01 X16.4948 Y35.4063 
G01 X16.4626 Y35.2445 
G01 X16.4626 Y33.5555 
G01 X16.4948 Y33.3937 
G01 X16.5579 Y33.2413 
G01 X16.6495 Y33.1042 
G01 X16.7662 Y32.9875 
G01 X16.9033 Y32.8959 
G01 X17.0557 Y32.8328 
G01 X17.2175 Y32.8006 
G01 X17.3054 Y32.8006 
G01 X18.2771 Y31.8289 
G01 X18.3289 Y31.7771 
G01 X18.3925 Y31.7404 
G01 X18.4633 Y31.7214 
G01 X37.3846 Y31.7214 
G01 X43.2771 Y25.8289 
G01 X43.3289 Y25.7771 
G01 X43.3925 Y25.7404 
G01 X43.4633 Y25.7214 
G01 X50.5367 Y25.7214 
G01 X50.6075 Y25.7404 
G01 X50.6711 Y25.7771 
G01 X51.6711 Y26.7771 
G01 X51.7229 Y26.8289 
G01 X51.7596 Y26.8925 
G01 X51.7786 Y26.9633 
G01 X51.7786 Y28.2138 
G01 X51.8725 Y28.2138 
G01 X52.0146 Y28.2421 
G01 X52.1485 Y28.2975 
G01 X52.2690 Y28.3781 
G01 X52.3715 Y28.4806 
G01 X52.4521 Y28.6011 
G01 X52.5075 Y28.7350 
G01 X52.5358 Y28.8771 
G01 X52.5358 Y30.3429 
G01 X52.5075 Y30.4850 
G01 X52.4521 Y30.6189 
G01 X52.3715 Y30.7394 
G01 X52.2690 Y30.8419 
G01 X52.1485 Y30.9225 
G01 X52.0146 Y30.9779 
G01 X51.8725 Y31.0062 
G01 X51.7275 Y31.0062 
G01 X51.5854 Y30.9779 
G01 X51.4515 Y30.9225 
G01 X51.3310 Y30.8419 
G01 X51.2285 Y30.7394 
G01 X51.1479 Y30.6189 
G01 X51.0925 Y30.4850 
G01 X51.0642 Y30.3429 
G00 Z-1.2000 
G00 X48.5242 Y30.3429 
G01 Z0.2778  F254   
G01 X48.5242 Y28.8771 F508   
G01 X48.5525 Y28.7350 
G01 X48.6079 Y28.6011 
G01 X48.6885 Y28.4806 
G01 X48.7910 Y28.3781 
G01 X48.9115 Y28.2975 
G01 X49.0454 Y28.2421 
G01 X49.1875 Y28.2138 
G01 X49.3325 Y28.2138 
G01 X49.4746 Y28.2421 
G01 X49.6085 Y28.2975 
G01 X49.7290 Y28.3781 
G01 X49.8315 Y28.4806 
G01 X49.9121 Y28.6011 
G01 X49.9675 Y28.7350 
G01 X49.9958 Y28.8771 
G01 X49.9958 Y30.3429 
G01 X49.9675 Y30.4850 
G01 X49.9121 Y30.6189 
G01 X49.8315 Y30.7394 
G01 X49.7325 Y30.8385 
G01 X50.6154 Y31.7214 
G01 X54.3846 Y31.7214 
G01 X55.2214 Y30.8846 
G01 X55.2214 Y23.6154 
G01 X53.0846 Y21.4786 
G01 X50.8458 Y21.4786 
G01 X50.8458 Y21.5048 
G01 X50.4148 Y21.9358 
G01 X49.8052 Y21.9358 
G01 X49.3742 Y21.5048 
G01 X49.3742 Y20.8952 
G01 X49.8052 Y20.4642 
G01 X50.4148 Y20.4642 
G01 X50.8458 Y20.8952 
G01 X50.8458 Y20.9214 
G01 X53.2367 Y20.9214 
G01 X53.3075 Y20.9404 
G01 X53.3711 Y20.9771 
G01 X55.6711 Y23.2771 
G01 X55.7229 Y23.3289 
G01 X55.7596 Y23.3925 
G01 X55.7786 Y23.4633 
G01 X55.7786 Y31.0367 
G01 X55.7596 Y31.1075 
G01 X55.7229 Y31.1711 
G01 X54.7229 Y32.1711 
G01 X54.6711 Y32.2229 
G01 X54.6075 Y32.2596 
G01 X54.5367 Y32.2786 
G01 X50.4633 Y32.2786 
G01 X50.3925 Y32.2596 
G01 X50.3289 Y32.2229 
G01 X50.2771 Y32.1711 
G01 X49.0935 Y30.9875 
G01 X49.0454 Y30.9779 
G01 X48.9115 Y30.9225 
G01 X48.7910 Y30.8419 
G01 X48.6885 Y30.7394 
G01 X48.6079 Y30.6189 
G01 X48.5525 Y30.4850 
G01 X48.5242 Y30.3429 
G00 Z-1.2000 
G82 X107.4000 Y19.5000 Z-0.2794 F254   R-1.2000 P1.000000
G82 X67.6300 Y16.5500 
G82 X65.0900 Y16.5500 
G82 X66.3700 Y11.1900 
G82 X68.9100 Y11.1900 
G82 X110.9700 Y27.0600 
G82 X110.9700 Y29.6000 
G82 X23.6500 Y4.4400  
G82 X23.6500 Y6.9800  
G82 X46.7700 Y44.3500 
G82 X49.3100 Y44.3500 
G82 X51.8500 Y44.3500 
G82 X54.3900 Y44.3500 
G82 X56.9300 Y44.3500 
G82 X49.2600 Y29.6100 
G82 X51.8000 Y29.6100 
G82 X54.3400 Y29.6100 
G82 X56.8800 Y29.6100 
G82 X59.4200 Y29.6100 
G82 X61.9600 Y29.6100 
G82 X64.5000 Y29.6100 
G82 X67.0400 Y29.6100 
G82 X69.5800 Y29.6100 
G82 X72.1200 Y29.6100 
G82 X74.6600 Y29.6100 
G82 X77.2000 Y29.6100 
G82 X79.7400 Y29.6100 
G82 X82.2800 Y29.6100 
G82 X82.2800 Y37.2300 
G82 X79.7400 Y37.2300 
G82 X77.2000 Y37.2300 
G82 X74.6600 Y37.2300 
G82 X72.1200 Y37.2300 
G82 X69.5800 Y37.2300 
G82 X67.0400 Y37.2300 
G82 X64.5000 Y37.2300 
G82 X61.9600 Y37.2300 
G82 X59.4200 Y37.2300 
G82 X56.8800 Y37.2300 
G82 X54.3400 Y37.2300 
G82 X51.8000 Y37.2300 
G82 X49.2600 Y37.2300 
G82 X73.0630 Y21.9100 
G82 X68.2370 Y21.9100 
G82 X23.5900 Y28.2000 
G82 X23.5900 Y38.3600 
G82 X32.2900 Y28.0000 
G82 X32.2900 Y38.1600 
G82 X50.1100 Y21.2000 
G82 X50.1100 Y11.0400 
G82 X108.5288 Y40.1506 
G82 X115.0312 Y40.1506 
G82 X108.5288 Y35.6294 
G82 X115.0312 Y35.6294 
G82 X17.3000 Y34.4000 
G82 X14.7600 Y34.4000 
G82 X12.2200 Y34.4000 
G82 X9.6800  Y34.4000 
G82 X6.1300  Y3.8300  
G82 X6.1300  Y8.2300  
G82 X95.2300 Y17.0700 
G82 X95.2300 Y19.6100 
G82 X97.7700 Y17.0700 
G82 X97.7700 Y19.6100 
G82 X100.3100 Y17.0700 
G82 X100.3100 Y19.6100 
G82 X102.8500 Y17.0700 
G82 X102.8500 Y19.6100 
G82 X105.3900 Y17.0700 
G82 X105.3900 Y19.6100 
G82 X107.9300 Y17.0700 
G82 X107.9300 Y19.6100 
G82 X110.4700 Y17.0700 
G82 X110.4700 Y19.6100 
G82 X113.0100 Y17.0700 
G82 X113.0100 Y19.6100 
G82 X119.3700 Y58.6200 
G82 X121.9100 Y58.6200 
G82 X119.3700 Y56.0800 
G82 X121.9100 Y56.0800 
G82 X119.3700 Y53.5400 
G82 X121.9100 Y53.5400 
G82 X119.3700 Y51.0000 
G82 X121.9100 Y51.0000 
G82 X119.3700 Y48.4600 
G82 X121.9100 Y48.4600 
G82 X15.8100 Y17.0300 
G82 X15.8100 Y19.5700 
G82 X18.3500 Y17.0300 
G82 X18.3500 Y19.5700 
G82 X20.8900 Y17.0300 
G82 X20.8900 Y19.5700 
G82 X23.4300 Y17.0300 
G82 X23.4300 Y19.5700 
G82 X25.9700 Y17.0300 
G82 X25.9700 Y19.5700 
G82 X28.5100 Y17.0300 
G82 X28.5100 Y19.5700 
G82 X31.0500 Y17.0300 
G82 X31.0500 Y19.5700 
G82 X33.5900 Y17.0300 
G82 X33.5900 Y19.5700 
G00 Z1.2000  
M05
M02
