(.../Program Files (x86)/EAGLE-6.5.0/ulp/pcb-gcode.ulp)
(Copyright 2005 - 2012 by John Johnson)
(See readme.txt for licensing terms.)
(This file generated from the board:)
(.../Clock Atmega328p/ClockSure.brd)
(Current profile is .../EAGLE-6.5.0/ulp/profiles/mach.pp  )
(This file generated 06/11/2013 7:35:58 PM)
(Settings from pcb-machine.h)
(  Tool Size)
(0.1000  )
(Z Axis Settings)
(  High     Up        Down     Drill)
(1.2000  	-1.2000 	0.2778  	-0.8128 )
(spindle on time = 3.0000)
(milling depth = 0.1254)
(text depth = -0.1270)
(tool change at 12.7000 15.2400 25.4000 )
(feed rate xy = F508   )
(feed rate z  = F254   )
(Settings from pcb-defaults.h)
(isolate min = 0.0254)
(isolate max = 0.5080)
(isolate step = 0.1270)
(Generated top outlines, top drill, bottom outlines, bottom drill, )
(Unit of measure: mm)
(Metric Mode)
G21
(Absolute Coordinates)
G90
G00 X0.0000  Y0.0000  
M03
G04 P3.000000
G00 Z-1.2000 
G00 X48.5242 Y28.8771 
G01 Z0.2778  F254   
G01 X48.5525 Y28.7350 F508   
G01 X48.6079 Y28.6011 
G01 X48.6885 Y28.4806 
G01 X48.7910 Y28.3781 
G01 X48.9115 Y28.2975 
G01 X49.0454 Y28.2421 
G01 X49.1875 Y28.2138 
G01 X49.3325 Y28.2138 
G01 X49.4746 Y28.2421 
G01 X49.6085 Y28.2975 
G01 X49.7290 Y28.3781 
G01 X49.8315 Y28.4806 
G01 X49.9121 Y28.6011 
G01 X49.9675 Y28.7350 
G01 X49.9958 Y28.8771 
G01 X49.9958 Y30.3429 
G01 X49.9675 Y30.4850 
G01 X49.9121 Y30.6189 
G01 X49.8315 Y30.7394 
G01 X49.7290 Y30.8419 
G01 X49.6085 Y30.9225 
G01 X49.4746 Y30.9779 
G01 X49.3325 Y31.0062 
G01 X49.1875 Y31.0062 
G01 X49.0454 Y30.9779 
G01 X48.9115 Y30.9225 
G01 X48.7910 Y30.8419 
G01 X48.6885 Y30.7394 
G01 X48.6228 Y30.6412 
G01 X44.8786 Y34.3854 
G01 X44.8786 Y37.0846 
G01 X47.6660 Y39.8720 
G01 X106.9758 Y39.8720 
G01 X107.0247 Y39.7539 
G01 X107.1163 Y39.6168 
G01 X107.2330 Y39.5001 
G01 X107.3701 Y39.4085 
G01 X107.5225 Y39.3454 
G01 X107.6843 Y39.3132 
G01 X109.3733 Y39.3132 
G01 X109.5351 Y39.3454 
G01 X109.6875 Y39.4085 
G01 X109.8246 Y39.5001 
G01 X109.9413 Y39.6168 
G01 X110.0329 Y39.7539 
G01 X110.0960 Y39.9063 
G01 X110.1282 Y40.0681 
G01 X110.1282 Y40.2331 
G01 X110.0960 Y40.3949 
G01 X110.0329 Y40.5473 
G01 X109.9413 Y40.6844 
G01 X109.8246 Y40.8011 
G01 X109.6875 Y40.8927 
G01 X109.5351 Y40.9558 
G01 X109.3733 Y40.9880 
G01 X107.6843 Y40.9880 
G01 X107.5225 Y40.9558 
G01 X107.3701 Y40.8927 
G01 X107.2330 Y40.8011 
G01 X107.1163 Y40.6844 
G01 X107.0247 Y40.5473 
G01 X106.9758 Y40.4292 
G01 X47.5139 Y40.4292 
G01 X47.4431 Y40.4102 
G01 X47.3795 Y40.3735 
G01 X44.4289 Y37.4229 
G01 X44.3771 Y37.3711 
G01 X44.3404 Y37.3075 
G01 X44.3214 Y37.2367 
G01 X44.3214 Y34.2333 
G01 X44.3404 Y34.1625 
G01 X44.3771 Y34.0989 
G01 X48.5242 Y29.9518 
G01 X48.5242 Y28.8771 
G00 Z-1.2000 
G00 X51.0642 Y30.3429 
G01 Z0.2778  F254   
G01 X51.0642 Y28.8771 F508   
G01 X51.0925 Y28.7350 
G01 X51.1479 Y28.6011 
G01 X51.2285 Y28.4806 
G01 X51.3310 Y28.3781 
G01 X51.4515 Y28.2975 
G01 X51.5854 Y28.2421 
G01 X51.7275 Y28.2138 
G01 X51.8725 Y28.2138 
G01 X52.0146 Y28.2421 
G01 X52.1485 Y28.2975 
G01 X52.2690 Y28.3781 
G01 X52.3715 Y28.4806 
G01 X52.4521 Y28.6011 
G01 X52.5075 Y28.7350 
G01 X52.5358 Y28.8771 
G01 X52.5358 Y30.3429 
G01 X52.5075 Y30.4850 
G01 X52.4521 Y30.6189 
G01 X52.3715 Y30.7394 
G01 X52.2690 Y30.8419 
G01 X52.1485 Y30.9225 
G01 X52.0146 Y30.9779 
G01 X51.8725 Y31.0062 
G01 X51.7275 Y31.0062 
G01 X51.5854 Y30.9779 
G01 X51.4515 Y30.9225 
G01 X51.3310 Y30.8419 
G01 X51.2285 Y30.7394 
G01 X51.1479 Y30.6189 
G01 X51.0925 Y30.4850 
G01 X51.0642 Y30.3429 
G00 Z-1.2000 
G00 X53.6042 Y30.3429 
G01 Z0.2778  F254   
G01 X53.6042 Y28.8771 F508   
G01 X53.6325 Y28.7350 
G01 X53.6879 Y28.6011 
G01 X53.7685 Y28.4806 
G01 X53.8710 Y28.3781 
G01 X53.9915 Y28.2975 
G01 X54.1254 Y28.2421 
G01 X54.2675 Y28.2138 
G01 X54.4125 Y28.2138 
G01 X54.5546 Y28.2421 
G01 X54.6885 Y28.2975 
G01 X54.8090 Y28.3781 
G01 X54.9115 Y28.4806 
G01 X54.9921 Y28.6011 
G01 X55.0475 Y28.7350 
G01 X55.0758 Y28.8771 
G01 X55.0758 Y30.3429 
G01 X55.0475 Y30.4850 
G01 X54.9921 Y30.6189 
G01 X54.9115 Y30.7394 
G01 X54.8090 Y30.8419 
G01 X54.6885 Y30.9225 
G01 X54.5546 Y30.9779 
G01 X54.4125 Y31.0062 
G01 X54.2675 Y31.0062 
G01 X54.1254 Y30.9779 
G01 X53.9915 Y30.9225 
G01 X53.8710 Y30.8419 
G01 X53.7685 Y30.7394 
G01 X53.6879 Y30.6189 
G01 X53.6325 Y30.4850 
G01 X53.6042 Y30.3429 
G00 Z-1.2000 
G00 X56.1442 Y30.3429 
G01 Z0.2778  F254   
G01 X56.1442 Y28.8771 F508   
G01 X56.1725 Y28.7350 
G01 X56.2279 Y28.6011 
G01 X56.3085 Y28.4806 
G01 X56.4110 Y28.3781 
G01 X56.5315 Y28.2975 
G01 X56.6654 Y28.2421 
G01 X56.8075 Y28.2138 
G01 X56.9525 Y28.2138 
G01 X57.0946 Y28.2421 
G01 X57.2285 Y28.2975 
G01 X57.3490 Y28.3781 
G01 X57.4515 Y28.4806 
G01 X57.5321 Y28.6011 
G01 X57.5875 Y28.7350 
G01 X57.6158 Y28.8771 
G01 X57.6158 Y30.3429 
G01 X57.5875 Y30.4850 
G01 X57.5321 Y30.6189 
G01 X57.4515 Y30.7394 
G01 X57.3490 Y30.8419 
G01 X57.2285 Y30.9225 
G01 X57.0946 Y30.9779 
G01 X56.9525 Y31.0062 
G01 X56.8075 Y31.0062 
G01 X56.6654 Y30.9779 
G01 X56.5315 Y30.9225 
G01 X56.4110 Y30.8419 
G01 X56.3085 Y30.7394 
G01 X56.2279 Y30.6189 
G01 X56.1725 Y30.4850 
G01 X56.1442 Y30.3429 
G00 Z-1.2000 
G00 X58.6842 Y30.3429 
G01 Z0.2778  F254   
G01 X58.6842 Y28.8771 F508   
G01 X58.7125 Y28.7350 
G01 X58.7679 Y28.6011 
G01 X58.8485 Y28.4806 
G01 X58.9510 Y28.3781 
G01 X59.0715 Y28.2975 
G01 X59.2054 Y28.2421 
G01 X59.3475 Y28.2138 
G01 X59.4925 Y28.2138 
G01 X59.6346 Y28.2421 
G01 X59.7685 Y28.2975 
G01 X59.8890 Y28.3781 
G01 X59.9915 Y28.4806 
G01 X60.0721 Y28.6011 
G01 X60.1275 Y28.7350 
G01 X60.1558 Y28.8771 
G01 X60.1558 Y30.3429 
G01 X60.1275 Y30.4850 
G01 X60.0721 Y30.6189 
G01 X59.9915 Y30.7394 
G01 X59.8890 Y30.8419 
G01 X59.7685 Y30.9225 
G01 X59.6346 Y30.9779 
G01 X59.4925 Y31.0062 
G01 X59.3475 Y31.0062 
G01 X59.2054 Y30.9779 
G01 X59.0715 Y30.9225 
G01 X58.9510 Y30.8419 
G01 X58.8485 Y30.7394 
G01 X58.7679 Y30.6189 
G01 X58.7125 Y30.4850 
G01 X58.6842 Y30.3429 
G00 Z-1.2000 
G00 X61.2242 Y30.3429 
G01 Z0.2778  F254   
G01 X61.2242 Y28.8771 F508   
G01 X61.2525 Y28.7350 
G01 X61.3079 Y28.6011 
G01 X61.3885 Y28.4806 
G01 X61.4910 Y28.3781 
G01 X61.6115 Y28.2975 
G01 X61.7454 Y28.2421 
G01 X61.8875 Y28.2138 
G01 X62.0325 Y28.2138 
G01 X62.1746 Y28.2421 
G01 X62.3085 Y28.2975 
G01 X62.4290 Y28.3781 
G01 X62.5315 Y28.4806 
G01 X62.6121 Y28.6011 
G01 X62.6675 Y28.7350 
G01 X62.6958 Y28.8771 
G01 X62.6958 Y30.3429 
G01 X62.6675 Y30.4850 
G01 X62.6121 Y30.6189 
G01 X62.5315 Y30.7394 
G01 X62.4290 Y30.8419 
G01 X62.3085 Y30.9225 
G01 X62.1746 Y30.9779 
G01 X62.0325 Y31.0062 
G01 X61.8875 Y31.0062 
G01 X61.7454 Y30.9779 
G01 X61.6115 Y30.9225 
G01 X61.4910 Y30.8419 
G01 X61.3885 Y30.7394 
G01 X61.3079 Y30.6189 
G01 X61.2525 Y30.4850 
G01 X61.2242 Y30.3429 
G00 Z-1.2000 
G00 X63.7642 Y30.3429 
G01 Z0.2778  F254   
G01 X63.7642 Y28.8771 F508   
G01 X63.7925 Y28.7350 
G01 X63.8479 Y28.6011 
G01 X63.9285 Y28.4806 
G01 X64.0214 Y28.3876 
G01 X64.0214 Y27.5633 
G01 X64.0404 Y27.4925 
G01 X64.0771 Y27.4289 
G01 X64.1289 Y27.3771 
G01 X64.5289 Y26.9771 
G01 X64.5925 Y26.9404 
G01 X64.6633 Y26.9214 
G01 X64.6846 Y26.9214 
G01 X65.2289 Y26.3771 
G01 X65.2925 Y26.3404 
G01 X65.3633 Y26.3214 
G01 X76.6846 Y26.3214 
G01 X78.6289 Y24.3771 
G01 X78.6925 Y24.3404 
G01 X78.7633 Y24.3214 
G01 X104.5846 Y24.3214 
G01 X107.1214 Y21.7846 
G01 X107.1214 Y20.0786 
G01 X106.8818 Y20.0786 
G01 X106.8541 Y20.0671 
G01 X106.8329 Y20.0459 
G01 X106.8214 Y20.0182 
G01 X106.8214 Y18.9818 
G01 X106.8329 Y18.9541 
G01 X106.8541 Y18.9329 
G01 X106.8818 Y18.9214 
G01 X107.4457 Y18.9214 
G01 X107.5864 Y18.7806 
G01 X108.2735 Y18.7806 
G01 X108.7594 Y19.2665 
G01 X108.7594 Y19.9535 
G01 X108.2735 Y20.4394 
G01 X107.6786 Y20.4394 
G01 X107.6786 Y21.9367 
G01 X107.6596 Y22.0075 
G01 X107.6229 Y22.0711 
G01 X107.5711 Y22.1229 
G01 X104.9229 Y24.7711 
G01 X104.8711 Y24.8229 
G01 X104.8075 Y24.8596 
G01 X104.7367 Y24.8786 
G01 X78.9154 Y24.8786 
G01 X77.0229 Y26.7711 
G01 X76.9711 Y26.8229 
G01 X76.9075 Y26.8596 
G01 X76.8367 Y26.8786 
G01 X65.5154 Y26.8786 
G01 X65.0229 Y27.3711 
G01 X64.9711 Y27.4229 
G01 X64.9075 Y27.4596 
G01 X64.8367 Y27.4786 
G01 X64.8154 Y27.4786 
G01 X64.5786 Y27.7154 
G01 X64.5786 Y28.2150 
G01 X64.7146 Y28.2421 
G01 X64.8485 Y28.2975 
G01 X64.9690 Y28.3781 
G01 X65.0715 Y28.4806 
G01 X65.1521 Y28.6011 
G01 X65.2075 Y28.7350 
G01 X65.2358 Y28.8771 
G01 X65.2358 Y30.3429 
G01 X65.2075 Y30.4850 
G01 X65.1521 Y30.6189 
G01 X65.0715 Y30.7394 
G01 X64.9690 Y30.8419 
G01 X64.8485 Y30.9225 
G01 X64.7146 Y30.9779 
G01 X64.5725 Y31.0062 
G01 X64.4275 Y31.0062 
G01 X64.2854 Y30.9779 
G01 X64.1515 Y30.9225 
G01 X64.0310 Y30.8419 
G01 X63.9285 Y30.7394 
G01 X63.8479 Y30.6189 
G01 X63.7925 Y30.4850 
G01 X63.7642 Y30.3429 
G00 Z-1.2000 
G00 X66.3042 Y30.3429 
G01 Z0.2778  F254   
G01 X66.3042 Y28.8771 F508   
G01 X66.3325 Y28.7350 
G01 X66.3879 Y28.6011 
G01 X66.4685 Y28.4806 
G01 X66.5710 Y28.3781 
G01 X66.6915 Y28.2975 
G01 X66.8254 Y28.2421 
G01 X66.9675 Y28.2138 
G01 X67.1125 Y28.2138 
G01 X67.2546 Y28.2421 
G01 X67.3885 Y28.2975 
G01 X67.5090 Y28.3781 
G01 X67.6115 Y28.4806 
G01 X67.6921 Y28.6011 
G01 X67.7475 Y28.7350 
G01 X67.7758 Y28.8771 
G01 X67.7758 Y30.3429 
G01 X67.7475 Y30.4850 
G01 X67.6921 Y30.6189 
G01 X67.6115 Y30.7394 
G01 X67.5090 Y30.8419 
G01 X67.3885 Y30.9225 
G01 X67.2546 Y30.9779 
G01 X67.1125 Y31.0062 
G01 X66.9675 Y31.0062 
G01 X66.8254 Y30.9779 
G01 X66.6915 Y30.9225 
G01 X66.5710 Y30.8419 
G01 X66.4685 Y30.7394 
G01 X66.3879 Y30.6189 
G01 X66.3325 Y30.4850 
G01 X66.3042 Y30.3429 
G00 Z-1.2000 
G00 X68.8442 Y30.3429 
G01 Z0.2778  F254   
G01 X68.8442 Y28.8771 F508   
G01 X68.8725 Y28.7350 
G01 X68.9279 Y28.6011 
G01 X69.0085 Y28.4806 
G01 X69.1110 Y28.3781 
G01 X69.2315 Y28.2975 
G01 X69.3654 Y28.2421 
G01 X69.5075 Y28.2138 
G01 X69.6525 Y28.2138 
G01 X69.7946 Y28.2421 
G01 X69.9285 Y28.2975 
G01 X70.0490 Y28.3781 
G01 X70.1515 Y28.4806 
G01 X70.2321 Y28.6011 
G01 X70.2875 Y28.7350 
G01 X70.3158 Y28.8771 
G01 X70.3158 Y30.3429 
G01 X70.2875 Y30.4850 
G01 X70.2321 Y30.6189 
G01 X70.1515 Y30.7394 
G01 X70.0490 Y30.8419 
G01 X69.9285 Y30.9225 
G01 X69.7946 Y30.9779 
G01 X69.6525 Y31.0062 
G01 X69.5075 Y31.0062 
G01 X69.3654 Y30.9779 
G01 X69.2315 Y30.9225 
G01 X69.1110 Y30.8419 
G01 X69.0085 Y30.7394 
G01 X68.9279 Y30.6189 
G01 X68.8725 Y30.4850 
G01 X68.8442 Y30.3429 
G00 Z-1.2000 
G00 X71.3842 Y30.3429 
G01 Z0.2778  F254   
G01 X71.3842 Y28.8771 F508   
G01 X71.4125 Y28.7350 
G01 X71.4679 Y28.6011 
G01 X71.5485 Y28.4806 
G01 X71.6510 Y28.3781 
G01 X71.7715 Y28.2975 
G01 X71.9054 Y28.2421 
G01 X72.0475 Y28.2138 
G01 X72.1925 Y28.2138 
G01 X72.3346 Y28.2421 
G01 X72.4685 Y28.2975 
G01 X72.5890 Y28.3781 
G01 X72.6915 Y28.4806 
G01 X72.7721 Y28.6011 
G01 X72.8275 Y28.7350 
G01 X72.8558 Y28.8771 
G01 X72.8558 Y30.3429 
G01 X72.8275 Y30.4850 
G01 X72.7721 Y30.6189 
G01 X72.6915 Y30.7394 
G01 X72.5890 Y30.8419 
G01 X72.4685 Y30.9225 
G01 X72.3346 Y30.9779 
G01 X72.1925 Y31.0062 
G01 X72.0475 Y31.0062 
G01 X71.9054 Y30.9779 
G01 X71.7715 Y30.9225 
G01 X71.6510 Y30.8419 
G01 X71.5485 Y30.7394 
G01 X71.4679 Y30.6189 
G01 X71.4125 Y30.4850 
G01 X71.3842 Y30.3429 
G00 Z-1.2000 
G00 X73.9242 Y30.3429 
G01 Z0.2778  F254   
G01 X73.9242 Y28.8771 F508   
G01 X73.9525 Y28.7350 
G01 X74.0079 Y28.6011 
G01 X74.0885 Y28.4806 
G01 X74.1910 Y28.3781 
G01 X74.3115 Y28.2975 
G01 X74.4454 Y28.2421 
G01 X74.5875 Y28.2138 
G01 X74.7325 Y28.2138 
G01 X74.8746 Y28.2421 
G01 X75.0085 Y28.2975 
G01 X75.1290 Y28.3781 
G01 X75.2315 Y28.4806 
G01 X75.3121 Y28.6011 
G01 X75.3675 Y28.7350 
G01 X75.3958 Y28.8771 
G01 X75.3958 Y30.3429 
G01 X75.3675 Y30.4850 
G01 X75.3121 Y30.6189 
G01 X75.2315 Y30.7394 
G01 X75.1290 Y30.8419 
G01 X75.0085 Y30.9225 
G01 X74.8746 Y30.9779 
G01 X74.7325 Y31.0062 
G01 X74.5875 Y31.0062 
G01 X74.4454 Y30.9779 
G01 X74.3115 Y30.9225 
G01 X74.1910 Y30.8419 
G01 X74.0885 Y30.7394 
G01 X74.0079 Y30.6189 
G01 X73.9525 Y30.4850 
G01 X73.9242 Y30.3429 
G00 Z-1.2000 
G00 X76.4642 Y30.3429 
G01 Z0.2778  F254   
G01 X76.4642 Y28.8771 F508   
G01 X76.4925 Y28.7350 
G01 X76.5479 Y28.6011 
G01 X76.6285 Y28.4806 
G01 X76.7310 Y28.3781 
G01 X76.8515 Y28.2975 
G01 X76.9854 Y28.2421 
G01 X77.1275 Y28.2138 
G01 X77.2725 Y28.2138 
G01 X77.4146 Y28.2421 
G01 X77.5485 Y28.2975 
G01 X77.6690 Y28.3781 
G01 X77.7715 Y28.4806 
G01 X77.8521 Y28.6011 
G01 X77.9075 Y28.7350 
G01 X77.9358 Y28.8771 
G01 X77.9358 Y30.3429 
G01 X77.9075 Y30.4850 
G01 X77.8521 Y30.6189 
G01 X77.7715 Y30.7394 
G01 X77.6690 Y30.8419 
G01 X77.5485 Y30.9225 
G01 X77.4146 Y30.9779 
G01 X77.2725 Y31.0062 
G01 X77.1275 Y31.0062 
G01 X76.9854 Y30.9779 
G01 X76.8515 Y30.9225 
G01 X76.7310 Y30.8419 
G01 X76.6285 Y30.7394 
G01 X76.5479 Y30.6189 
G01 X76.4925 Y30.4850 
G01 X76.4642 Y30.3429 
G00 Z-1.2000 
G00 X79.0042 Y30.3429 
G01 Z0.2778  F254   
G01 X79.0042 Y28.8771 F508   
G01 X79.0325 Y28.7350 
G01 X79.0879 Y28.6011 
G01 X79.1685 Y28.4806 
G01 X79.2710 Y28.3781 
G01 X79.3915 Y28.2975 
G01 X79.5254 Y28.2421 
G01 X79.6675 Y28.2138 
G01 X79.8125 Y28.2138 
G01 X79.9546 Y28.2421 
G01 X80.0885 Y28.2975 
G01 X80.2090 Y28.3781 
G01 X80.3115 Y28.4806 
G01 X80.3921 Y28.6011 
G01 X80.4475 Y28.7350 
G01 X80.4758 Y28.8771 
G01 X80.4758 Y30.3429 
G01 X80.4475 Y30.4850 
G01 X80.3921 Y30.6189 
G01 X80.3115 Y30.7394 
G01 X80.2090 Y30.8419 
G01 X80.0885 Y30.9225 
G01 X79.9546 Y30.9779 
G01 X79.8125 Y31.0062 
G01 X79.6675 Y31.0062 
G01 X79.5254 Y30.9779 
G01 X79.3915 Y30.9225 
G01 X79.2710 Y30.8419 
G01 X79.1685 Y30.7394 
G01 X79.0879 Y30.6189 
G01 X79.0325 Y30.4850 
G01 X79.0042 Y30.3429 
G00 Z-1.2000 
G00 X81.5442 Y30.3429 
G01 Z0.2778  F254   
G01 X81.5442 Y28.8771 F508   
G01 X81.5725 Y28.7350 
G01 X81.6279 Y28.6011 
G01 X81.7085 Y28.4806 
G01 X81.8110 Y28.3781 
G01 X81.9315 Y28.2975 
G01 X82.0654 Y28.2421 
G01 X82.2075 Y28.2138 
G01 X82.3525 Y28.2138 
G01 X82.4946 Y28.2421 
G01 X82.6285 Y28.2975 
G01 X82.7490 Y28.3781 
G01 X82.8515 Y28.4806 
G01 X82.9321 Y28.6011 
G01 X82.9875 Y28.7350 
G01 X83.0158 Y28.8771 
G01 X83.0158 Y30.3429 
G01 X82.9875 Y30.4850 
G01 X82.9321 Y30.6189 
G01 X82.8515 Y30.7394 
G01 X82.7490 Y30.8419 
G01 X82.6285 Y30.9225 
G01 X82.4946 Y30.9779 
G01 X82.3525 Y31.0062 
G01 X82.2075 Y31.0062 
G01 X82.0654 Y30.9779 
G01 X81.9315 Y30.9225 
G01 X81.8110 Y30.8419 
G01 X81.7085 Y30.7394 
G01 X81.6279 Y30.6189 
G01 X81.5725 Y30.4850 
G01 X81.5442 Y30.3429 
G00 Z-1.2000 
G00 X81.5442 Y37.9629 
G01 Z0.2778  F254   
G01 X81.5442 Y36.4971 F508   
G01 X81.5725 Y36.3550 
G01 X81.6279 Y36.2211 
G01 X81.7085 Y36.1006 
G01 X81.8110 Y35.9981 
G01 X81.9315 Y35.9175 
G01 X82.0654 Y35.8621 
G01 X82.2075 Y35.8338 
G01 X82.3525 Y35.8338 
G01 X82.4946 Y35.8621 
G01 X82.6285 Y35.9175 
G01 X82.7490 Y35.9981 
G01 X82.8515 Y36.1006 
G01 X82.9321 Y36.2211 
G01 X82.9875 Y36.3550 
G01 X83.0158 Y36.4971 
G01 X83.0158 Y37.9629 
G01 X82.9875 Y38.1050 
G01 X82.9321 Y38.2389 
G01 X82.8515 Y38.3594 
G01 X82.7490 Y38.4619 
G01 X82.6285 Y38.5425 
G01 X82.4946 Y38.5979 
G01 X82.3525 Y38.6262 
G01 X82.2075 Y38.6262 
G01 X82.0654 Y38.5979 
G01 X81.9315 Y38.5425 
G01 X81.8110 Y38.4619 
G01 X81.7085 Y38.3594 
G01 X81.6279 Y38.2389 
G01 X81.5725 Y38.1050 
G01 X81.5442 Y37.9629 
G00 Z-1.2000 
G00 X79.0042 Y37.9629 
G01 Z0.2778  F254   
G01 X79.0042 Y36.4971 F508   
G01 X79.0325 Y36.3550 
G01 X79.0879 Y36.2211 
G01 X79.1685 Y36.1006 
G01 X79.2710 Y35.9981 
G01 X79.3915 Y35.9175 
G01 X79.5254 Y35.8621 
G01 X79.6675 Y35.8338 
G01 X79.8125 Y35.8338 
G01 X79.9546 Y35.8621 
G01 X80.0885 Y35.9175 
G01 X80.2090 Y35.9981 
G01 X80.3115 Y36.1006 
G01 X80.3921 Y36.2211 
G01 X80.4475 Y36.3550 
G01 X80.4758 Y36.4971 
G01 X80.4758 Y37.9629 
G01 X80.4475 Y38.1050 
G01 X80.3921 Y38.2389 
G01 X80.3115 Y38.3594 
G01 X80.2090 Y38.4619 
G01 X80.0885 Y38.5425 
G01 X79.9546 Y38.5979 
G01 X79.8125 Y38.6262 
G01 X79.6675 Y38.6262 
G01 X79.5254 Y38.5979 
G01 X79.3915 Y38.5425 
G01 X79.2710 Y38.4619 
G01 X79.1685 Y38.3594 
G01 X79.0879 Y38.2389 
G01 X79.0325 Y38.1050 
G01 X79.0042 Y37.9629 
G00 Z-1.2000 
G00 X76.4642 Y37.9629 
G01 Z0.2778  F254   
G01 X76.4642 Y36.4971 F508   
G01 X76.4925 Y36.3550 
G01 X76.5479 Y36.2211 
G01 X76.6285 Y36.1006 
G01 X76.7310 Y35.9981 
G01 X76.8515 Y35.9175 
G01 X76.9854 Y35.8621 
G01 X77.1275 Y35.8338 
G01 X77.2725 Y35.8338 
G01 X77.4146 Y35.8621 
G01 X77.5485 Y35.9175 
G01 X77.6690 Y35.9981 
G01 X77.7715 Y36.1006 
G01 X77.8521 Y36.2211 
G01 X77.9075 Y36.3550 
G01 X77.9358 Y36.4971 
G01 X77.9358 Y37.9629 
G01 X77.9075 Y38.1050 
G01 X77.8521 Y38.2389 
G01 X77.7715 Y38.3594 
G01 X77.6690 Y38.4619 
G01 X77.5485 Y38.5425 
G01 X77.4146 Y38.5979 
G01 X77.2725 Y38.6262 
G01 X77.1275 Y38.6262 
G01 X76.9854 Y38.5979 
G01 X76.8515 Y38.5425 
G01 X76.7310 Y38.4619 
G01 X76.6285 Y38.3594 
G01 X76.5479 Y38.2389 
G01 X76.4925 Y38.1050 
G01 X76.4642 Y37.9629 
G00 Z-1.2000 
G00 X73.9242 Y37.9629 
G01 Z0.2778  F254   
G01 X73.9242 Y36.4971 F508   
G01 X73.9525 Y36.3550 
G01 X74.0079 Y36.2211 
G01 X74.0885 Y36.1006 
G01 X74.1910 Y35.9981 
G01 X74.3115 Y35.9175 
G01 X74.4454 Y35.8621 
G01 X74.5875 Y35.8338 
G01 X74.7325 Y35.8338 
G01 X74.8746 Y35.8621 
G01 X75.0085 Y35.9175 
G01 X75.1290 Y35.9981 
G01 X75.2315 Y36.1006 
G01 X75.3121 Y36.2211 
G01 X75.3675 Y36.3550 
G01 X75.3958 Y36.4971 
G01 X75.3958 Y37.9629 
G01 X75.3675 Y38.1050 
G01 X75.3121 Y38.2389 
G01 X75.2315 Y38.3594 
G01 X75.1290 Y38.4619 
G01 X75.0085 Y38.5425 
G01 X74.8746 Y38.5979 
G01 X74.7325 Y38.6262 
G01 X74.5875 Y38.6262 
G01 X74.4454 Y38.5979 
G01 X74.3115 Y38.5425 
G01 X74.1910 Y38.4619 
G01 X74.0885 Y38.3594 
G01 X74.0079 Y38.2389 
G01 X73.9525 Y38.1050 
G01 X73.9242 Y37.9629 
G00 Z-1.2000 
G00 X71.3842 Y37.9629 
G01 Z0.2778  F254   
G01 X71.3842 Y36.4971 F508   
G01 X71.4125 Y36.3550 
G01 X71.4679 Y36.2211 
G01 X71.5485 Y36.1006 
G01 X71.6510 Y35.9981 
G01 X71.7715 Y35.9175 
G01 X71.9054 Y35.8621 
G01 X72.0475 Y35.8338 
G01 X72.1925 Y35.8338 
G01 X72.3346 Y35.8621 
G01 X72.4685 Y35.9175 
G01 X72.5890 Y35.9981 
G01 X72.6915 Y36.1006 
G01 X72.7721 Y36.2211 
G01 X72.8275 Y36.3550 
G01 X72.8558 Y36.4971 
G01 X72.8558 Y37.9629 
G01 X72.8275 Y38.1050 
G01 X72.7721 Y38.2389 
G01 X72.6915 Y38.3594 
G01 X72.5890 Y38.4619 
G01 X72.4685 Y38.5425 
G01 X72.3346 Y38.5979 
G01 X72.1925 Y38.6262 
G01 X72.0475 Y38.6262 
G01 X71.9054 Y38.5979 
G01 X71.7715 Y38.5425 
G01 X71.6510 Y38.4619 
G01 X71.5485 Y38.3594 
G01 X71.4679 Y38.2389 
G01 X71.4125 Y38.1050 
G01 X71.3842 Y37.9629 
G00 Z-1.2000 
G00 X68.8442 Y37.9629 
G01 Z0.2778  F254   
G01 X68.8442 Y36.4971 F508   
G01 X68.8725 Y36.3550 
G01 X68.9279 Y36.2211 
G01 X69.0085 Y36.1006 
G01 X69.1110 Y35.9981 
G01 X69.2315 Y35.9175 
G01 X69.3654 Y35.8621 
G01 X69.5075 Y35.8338 
G01 X69.6525 Y35.8338 
G01 X69.7946 Y35.8621 
G01 X69.9285 Y35.9175 
G01 X70.0490 Y35.9981 
G01 X70.1515 Y36.1006 
G01 X70.2321 Y36.2211 
G01 X70.2875 Y36.3550 
G01 X70.3158 Y36.4971 
G01 X70.3158 Y37.9629 
G01 X70.2875 Y38.1050 
G01 X70.2321 Y38.2389 
G01 X70.1515 Y38.3594 
G01 X70.0490 Y38.4619 
G01 X69.9285 Y38.5425 
G01 X69.7946 Y38.5979 
G01 X69.6525 Y38.6262 
G01 X69.5075 Y38.6262 
G01 X69.3654 Y38.5979 
G01 X69.2315 Y38.5425 
G01 X69.1110 Y38.4619 
G01 X69.0085 Y38.3594 
G01 X68.9279 Y38.2389 
G01 X68.8725 Y38.1050 
G01 X68.8442 Y37.9629 
G00 Z-1.2000 
G00 X66.3042 Y37.9629 
G01 Z0.2778  F254   
G01 X66.3042 Y36.4971 F508   
G01 X66.3325 Y36.3550 
G01 X66.3879 Y36.2211 
G01 X66.4685 Y36.1006 
G01 X66.5710 Y35.9981 
G01 X66.6915 Y35.9175 
G01 X66.8254 Y35.8621 
G01 X66.9675 Y35.8338 
G01 X67.1125 Y35.8338 
G01 X67.2546 Y35.8621 
G01 X67.3885 Y35.9175 
G01 X67.5090 Y35.9981 
G01 X67.6115 Y36.1006 
G01 X67.6921 Y36.2211 
G01 X67.7475 Y36.3550 
G01 X67.7758 Y36.4971 
G01 X67.7758 Y37.9629 
G01 X67.7475 Y38.1050 
G01 X67.6921 Y38.2389 
G01 X67.6115 Y38.3594 
G01 X67.5090 Y38.4619 
G01 X67.3885 Y38.5425 
G01 X67.2546 Y38.5979 
G01 X67.1125 Y38.6262 
G01 X66.9675 Y38.6262 
G01 X66.8254 Y38.5979 
G01 X66.6915 Y38.5425 
G01 X66.5710 Y38.4619 
G01 X66.4685 Y38.3594 
G01 X66.3879 Y38.2389 
G01 X66.3325 Y38.1050 
G01 X66.3042 Y37.9629 
G00 Z-1.2000 
G00 X63.7642 Y37.9629 
G01 Z0.2778  F254   
G01 X63.7642 Y36.4971 F508   
G01 X63.7925 Y36.3550 
G01 X63.8479 Y36.2211 
G01 X63.9285 Y36.1006 
G01 X64.0310 Y35.9981 
G01 X64.1515 Y35.9175 
G01 X64.2854 Y35.8621 
G01 X64.4275 Y35.8338 
G01 X64.5725 Y35.8338 
G01 X64.7146 Y35.8621 
G01 X64.8485 Y35.9175 
G01 X64.9690 Y35.9981 
G01 X65.0715 Y36.1006 
G01 X65.1521 Y36.2211 
G01 X65.2075 Y36.3550 
G01 X65.2358 Y36.4971 
G01 X65.2358 Y37.9629 
G01 X65.2075 Y38.1050 
G01 X65.1521 Y38.2389 
G01 X65.0715 Y38.3594 
G01 X64.9690 Y38.4619 
G01 X64.8485 Y38.5425 
G01 X64.7146 Y38.5979 
G01 X64.5725 Y38.6262 
G01 X64.4275 Y38.6262 
G01 X64.2854 Y38.5979 
G01 X64.1515 Y38.5425 
G01 X64.0310 Y38.4619 
G01 X63.9285 Y38.3594 
G01 X63.8479 Y38.2389 
G01 X63.7925 Y38.1050 
G01 X63.7642 Y37.9629 
G00 Z-1.2000 
G00 X61.2242 Y37.9629 
G01 Z0.2778  F254   
G01 X61.2242 Y36.4971 F508   
G01 X61.2525 Y36.3550 
G01 X61.3079 Y36.2211 
G01 X61.3885 Y36.1006 
G01 X61.4910 Y35.9981 
G01 X61.6115 Y35.9175 
G01 X61.7454 Y35.8621 
G01 X61.8875 Y35.8338 
G01 X62.0325 Y35.8338 
G01 X62.1746 Y35.8621 
G01 X62.3085 Y35.9175 
G01 X62.4290 Y35.9981 
G01 X62.5315 Y36.1006 
G01 X62.6121 Y36.2211 
G01 X62.6675 Y36.3550 
G01 X62.6958 Y36.4971 
G01 X62.6958 Y37.9629 
G01 X62.6675 Y38.1050 
G01 X62.6121 Y38.2389 
G01 X62.5315 Y38.3594 
G01 X62.4290 Y38.4619 
G01 X62.3085 Y38.5425 
G01 X62.1746 Y38.5979 
G01 X62.0325 Y38.6262 
G01 X61.8875 Y38.6262 
G01 X61.7454 Y38.5979 
G01 X61.6115 Y38.5425 
G01 X61.4910 Y38.4619 
G01 X61.3885 Y38.3594 
G01 X61.3079 Y38.2389 
G01 X61.2525 Y38.1050 
G01 X61.2242 Y37.9629 
G00 Z-1.2000 
G00 X58.6842 Y37.9629 
G01 Z0.2778  F254   
G01 X58.6842 Y36.4971 F508   
G01 X58.7125 Y36.3550 
G01 X58.7679 Y36.2211 
G01 X58.8485 Y36.1006 
G01 X58.9510 Y35.9981 
G01 X59.0715 Y35.9175 
G01 X59.2054 Y35.8621 
G01 X59.3475 Y35.8338 
G01 X59.4925 Y35.8338 
G01 X59.6346 Y35.8621 
G01 X59.7685 Y35.9175 
G01 X59.8890 Y35.9981 
G01 X59.9915 Y36.1006 
G01 X60.0721 Y36.2211 
G01 X60.1275 Y36.3550 
G01 X60.1558 Y36.4971 
G01 X60.1558 Y37.9629 
G01 X60.1275 Y38.1050 
G01 X60.0721 Y38.2389 
G01 X59.9915 Y38.3594 
G01 X59.8890 Y38.4619 
G01 X59.7685 Y38.5425 
G01 X59.6346 Y38.5979 
G01 X59.4925 Y38.6262 
G01 X59.3475 Y38.6262 
G01 X59.2054 Y38.5979 
G01 X59.0715 Y38.5425 
G01 X58.9510 Y38.4619 
G01 X58.8485 Y38.3594 
G01 X58.7679 Y38.2389 
G01 X58.7125 Y38.1050 
G01 X58.6842 Y37.9629 
G00 Z-1.2000 
G00 X56.1442 Y37.9629 
G01 Z0.2778  F254   
G01 X56.1442 Y36.4971 F508   
G01 X56.1725 Y36.3550 
G01 X56.2279 Y36.2211 
G01 X56.3085 Y36.1006 
G01 X56.4110 Y35.9981 
G01 X56.5315 Y35.9175 
G01 X56.6654 Y35.8621 
G01 X56.8075 Y35.8338 
G01 X56.9525 Y35.8338 
G01 X57.0946 Y35.8621 
G01 X57.2285 Y35.9175 
G01 X57.3490 Y35.9981 
G01 X57.4515 Y36.1006 
G01 X57.5321 Y36.2211 
G01 X57.5875 Y36.3550 
G01 X57.6158 Y36.4971 
G01 X57.6158 Y37.9629 
G01 X57.5875 Y38.1050 
G01 X57.5321 Y38.2389 
G01 X57.4515 Y38.3594 
G01 X57.3490 Y38.4619 
G01 X57.2285 Y38.5425 
G01 X57.0946 Y38.5979 
G01 X56.9525 Y38.6262 
G01 X56.8075 Y38.6262 
G01 X56.6654 Y38.5979 
G01 X56.5315 Y38.5425 
G01 X56.4110 Y38.4619 
G01 X56.3085 Y38.3594 
G01 X56.2279 Y38.2389 
G01 X56.1725 Y38.1050 
G01 X56.1442 Y37.9629 
G00 Z-1.2000 
G00 X53.6042 Y37.9629 
G01 Z0.2778  F254   
G01 X53.6042 Y36.4971 F508   
G01 X53.6325 Y36.3550 
G01 X53.6879 Y36.2211 
G01 X53.7685 Y36.1006 
G01 X53.8710 Y35.9981 
G01 X53.9915 Y35.9175 
G01 X54.1254 Y35.8621 
G01 X54.2675 Y35.8338 
G01 X54.4125 Y35.8338 
G01 X54.5546 Y35.8621 
G01 X54.6885 Y35.9175 
G01 X54.8090 Y35.9981 
G01 X54.9115 Y36.1006 
G01 X54.9921 Y36.2211 
G01 X55.0475 Y36.3550 
G01 X55.0758 Y36.4971 
G01 X55.0758 Y37.9629 
G01 X55.0475 Y38.1050 
G01 X54.9921 Y38.2389 
G01 X54.9115 Y38.3594 
G01 X54.8090 Y38.4619 
G01 X54.6885 Y38.5425 
G01 X54.5546 Y38.5979 
G01 X54.4125 Y38.6262 
G01 X54.2675 Y38.6262 
G01 X54.1254 Y38.5979 
G01 X53.9915 Y38.5425 
G01 X53.8710 Y38.4619 
G01 X53.7685 Y38.3594 
G01 X53.6879 Y38.2389 
G01 X53.6325 Y38.1050 
G01 X53.6042 Y37.9629 
G00 Z-1.2000 
G00 X51.0642 Y37.9629 
G01 Z0.2778  F254   
G01 X51.0642 Y36.4971 F508   
G01 X51.0925 Y36.3550 
G01 X51.1479 Y36.2211 
G01 X51.2285 Y36.1006 
G01 X51.3310 Y35.9981 
G01 X51.4515 Y35.9175 
G01 X51.5854 Y35.8621 
G01 X51.7275 Y35.8338 
G01 X51.8725 Y35.8338 
G01 X52.0146 Y35.8621 
G01 X52.1485 Y35.9175 
G01 X52.2690 Y35.9981 
G01 X52.3715 Y36.1006 
G01 X52.4521 Y36.2211 
G01 X52.5075 Y36.3550 
G01 X52.5358 Y36.4971 
G01 X52.5358 Y37.9629 
G01 X52.5075 Y38.1050 
G01 X52.4521 Y38.2389 
G01 X52.3715 Y38.3594 
G01 X52.2690 Y38.4619 
G01 X52.1485 Y38.5425 
G01 X52.0146 Y38.5979 
G01 X51.8725 Y38.6262 
G01 X51.7275 Y38.6262 
G01 X51.5854 Y38.5979 
G01 X51.4515 Y38.5425 
G01 X51.3310 Y38.4619 
G01 X51.2285 Y38.3594 
G01 X51.1479 Y38.2389 
G01 X51.0925 Y38.1050 
G01 X51.0642 Y37.9629 
G00 Z-1.2000 
G00 X48.5242 Y37.9629 
G01 Z0.2778  F254   
G01 X48.5242 Y36.4971 F508   
G01 X48.5525 Y36.3550 
G01 X48.6079 Y36.2211 
G01 X48.6885 Y36.1006 
G01 X48.7910 Y35.9981 
G01 X48.9115 Y35.9175 
G01 X49.0454 Y35.8621 
G01 X49.1875 Y35.8338 
G01 X49.3325 Y35.8338 
G01 X49.4746 Y35.8621 
G01 X49.6085 Y35.9175 
G01 X49.7290 Y35.9981 
G01 X49.8315 Y36.1006 
G01 X49.9121 Y36.2211 
G01 X49.9675 Y36.3550 
G01 X49.9958 Y36.4971 
G01 X49.9958 Y37.9629 
G01 X49.9675 Y38.1050 
G01 X49.9121 Y38.2389 
G01 X49.8315 Y38.3594 
G01 X49.7290 Y38.4619 
G01 X49.6085 Y38.5425 
G01 X49.4746 Y38.5979 
G01 X49.3325 Y38.6262 
G01 X49.1875 Y38.6262 
G01 X49.0454 Y38.5979 
G01 X48.9115 Y38.5425 
G01 X48.7910 Y38.4619 
G01 X48.6885 Y38.3594 
G01 X48.6079 Y38.2389 
G01 X48.5525 Y38.1050 
G01 X48.5242 Y37.9629 
G00 Z-1.2000 
G00 X73.7988 Y21.8375 
G01 Z0.2778  F254   
G01 X73.7988 Y21.9825 F508   
G01 X73.7705 Y22.1246 
G01 X73.7151 Y22.2585 
G01 X73.6345 Y22.3790 
G01 X73.5320 Y22.4815 
G01 X73.4115 Y22.5621 
G01 X73.2776 Y22.6175 
G01 X73.1355 Y22.6458 
G01 X72.9905 Y22.6458 
G01 X72.8484 Y22.6175 
G01 X72.7145 Y22.5621 
G01 X72.5940 Y22.4815 
G01 X72.4915 Y22.3790 
G01 X72.4109 Y22.2585 
G01 X72.3555 Y22.1246 
G01 X72.3272 Y21.9825 
G01 X72.3272 Y21.8375 
G01 X72.3555 Y21.6954 
G01 X72.4109 Y21.5615 
G01 X72.4915 Y21.4410 
G01 X72.5940 Y21.3385 
G01 X72.7145 Y21.2579 
G01 X72.8484 Y21.2025 
G01 X72.9905 Y21.1742 
G01 X73.1355 Y21.1742 
G01 X73.2776 Y21.2025 
G01 X73.4115 Y21.2579 
G01 X73.5320 Y21.3385 
G01 X73.6345 Y21.4410 
G01 X73.7151 Y21.5615 
G01 X73.7705 Y21.6954 
G01 X73.7988 Y21.8375 
G00 Z-1.2000 
G00 X68.9728 Y21.8375 
G01 Z0.2778  F254   
G01 X68.9728 Y21.9825 F508   
G01 X68.9445 Y22.1246 
G01 X68.8891 Y22.2585 
G01 X68.8085 Y22.3790 
G01 X68.7060 Y22.4815 
G01 X68.5855 Y22.5621 
G01 X68.4516 Y22.6175 
G01 X68.3095 Y22.6458 
G01 X68.1645 Y22.6458 
G01 X68.0224 Y22.6175 
G01 X67.8885 Y22.5621 
G01 X67.7680 Y22.4815 
G01 X67.6655 Y22.3790 
G01 X67.5849 Y22.2585 
G01 X67.5295 Y22.1246 
G01 X67.5012 Y21.9825 
G01 X67.5012 Y21.8375 
G01 X67.5295 Y21.6954 
G01 X67.5849 Y21.5615 
G01 X67.6655 Y21.4410 
G01 X67.7680 Y21.3385 
G01 X67.8885 Y21.2579 
G01 X68.0224 Y21.2025 
G01 X68.1645 Y21.1742 
G01 X68.3095 Y21.1742 
G01 X68.4516 Y21.2025 
G01 X68.5855 Y21.2579 
G01 X68.7060 Y21.3385 
G01 X68.8085 Y21.4410 
G01 X68.8891 Y21.5615 
G01 X68.9445 Y21.6954 
G01 X68.9728 Y21.8375 
G00 Z-1.2000 
G00 X68.3658 Y16.2452 
G01 Z0.2778  F254   
G01 X68.3658 Y16.8548 F508   
G01 X67.9348 Y17.2858 
G01 X67.3252 Y17.2858 
G01 X66.8942 Y16.8548 
G01 X66.8942 Y16.2452 
G01 X67.3252 Y15.8142 
G01 X67.9348 Y15.8142 
G01 X68.3658 Y16.2452 
G00 Z-1.2000 
G00 X65.8258 Y16.2452 
G01 Z0.2778  F254   
G01 X65.8258 Y16.8548 F508   
G01 X65.3948 Y17.2858 
G01 X64.7852 Y17.2858 
G01 X64.3542 Y16.8548 
G01 X64.3542 Y16.2452 
G01 X64.7852 Y15.8142 
G01 X65.3948 Y15.8142 
G01 X65.8258 Y16.2452 
G00 Z-1.2000 
G00 X67.1058 Y10.8852 
G01 Z0.2778  F254   
G01 X67.1058 Y11.4948 F508   
G01 X67.0873 Y11.5133 
G01 X69.4954 Y13.9214 
G01 X72.3367 Y13.9214 
G01 X72.4075 Y13.9404 
G01 X72.4711 Y13.9771 
G01 X72.5229 Y14.0289 
G01 X80.9154 Y22.4214 
G01 X101.7846 Y22.4214 
G01 X102.5714 Y21.6346 
G01 X102.5714 Y20.4394 
G01 X102.5065 Y20.4394 
G01 X102.0206 Y19.9535 
G01 X102.0206 Y19.2665 
G01 X102.5065 Y18.7806 
G01 X103.1935 Y18.7806 
G01 X103.6794 Y19.2665 
G01 X103.6794 Y19.9535 
G01 X103.1935 Y20.4394 
G01 X103.1286 Y20.4394 
G01 X103.1286 Y21.7867 
G01 X103.1096 Y21.8575 
G01 X103.0729 Y21.9211 
G01 X102.1229 Y22.8711 
G01 X102.0711 Y22.9229 
G01 X102.0075 Y22.9596 
G01 X101.9367 Y22.9786 
G01 X80.7633 Y22.9786 
G01 X80.6925 Y22.9596 
G01 X80.6289 Y22.9229 
G01 X72.1846 Y14.4786 
G01 X69.3433 Y14.4786 
G01 X69.2725 Y14.4596 
G01 X69.2089 Y14.4229 
G01 X66.6933 Y11.9073 
G01 X66.6748 Y11.9258 
G01 X66.0652 Y11.9258 
G01 X65.6342 Y11.4948 
G01 X65.6342 Y10.8852 
G01 X66.0652 Y10.4542 
G01 X66.6748 Y10.4542 
G01 X67.1058 Y10.8852 
G00 Z-1.2000 
G00 X69.6458 Y10.8852 
G01 Z0.2778  F254   
G01 X69.6458 Y11.4948 F508   
G01 X69.2148 Y11.9258 
G01 X68.6052 Y11.9258 
G01 X68.1742 Y11.4948 
G01 X68.1742 Y10.8852 
G01 X68.6052 Y10.4542 
G01 X69.2148 Y10.4542 
G01 X69.6458 Y10.8852 
G00 Z-1.2000 
G00 X109.3733 Y36.4668 
G01 Z0.2778  F254   
G01 X107.6843 Y36.4668 F508   
G01 X107.5225 Y36.4346 
G01 X107.3701 Y36.3715 
G01 X107.2330 Y36.2799 
G01 X107.1163 Y36.1632 
G01 X107.0247 Y36.0261 
G01 X106.9616 Y35.8737 
G01 X106.9294 Y35.7119 
G01 X106.9294 Y35.5469 
G01 X106.9616 Y35.3851 
G01 X107.0247 Y35.2327 
G01 X107.1163 Y35.0956 
G01 X107.2330 Y34.9789 
G01 X107.3701 Y34.8873 
G01 X107.5225 Y34.8242 
G01 X107.6843 Y34.7920 
G01 X109.3733 Y34.7920 
G01 X109.5351 Y34.8242 
G01 X109.6875 Y34.8873 
G01 X109.8246 Y34.9789 
G01 X109.9413 Y35.0956 
G01 X110.0329 Y35.2327 
G01 X110.0960 Y35.3851 
G01 X110.1282 Y35.5469 
G01 X110.1282 Y35.7119 
G01 X110.0960 Y35.8737 
G01 X110.0329 Y36.0261 
G01 X109.9413 Y36.1632 
G01 X109.8246 Y36.2799 
G01 X109.6875 Y36.3715 
G01 X109.5351 Y36.4346 
G01 X109.3733 Y36.4668 
G00 Z-1.2000 
G00 X115.8757 Y40.9880 
G01 Z0.2778  F254   
G01 X114.1867 Y40.9880 F508   
G01 X114.0249 Y40.9558 
G01 X113.8725 Y40.8927 
G01 X113.7354 Y40.8011 
G01 X113.6187 Y40.6844 
G01 X113.5271 Y40.5473 
G01 X113.4640 Y40.3949 
G01 X113.4318 Y40.2331 
G01 X113.4318 Y40.0681 
G01 X113.4640 Y39.9063 
G01 X113.5271 Y39.7539 
G01 X113.6187 Y39.6168 
G01 X113.7354 Y39.5001 
G01 X113.8725 Y39.4085 
G01 X114.0249 Y39.3454 
G01 X114.1867 Y39.3132 
G01 X115.8757 Y39.3132 
G01 X116.0375 Y39.3454 
G01 X116.1899 Y39.4085 
G01 X116.3270 Y39.5001 
G01 X116.4437 Y39.6168 
G01 X116.5353 Y39.7539 
G01 X116.5984 Y39.9063 
G01 X116.6306 Y40.0681 
G01 X116.6306 Y40.2331 
G01 X116.5984 Y40.3949 
G01 X116.5353 Y40.5473 
G01 X116.4437 Y40.6844 
G01 X116.3270 Y40.8011 
G01 X116.1899 Y40.8927 
G01 X116.0375 Y40.9558 
G01 X115.8757 Y40.9880 
G00 Z-1.2000 
G00 X115.8757 Y36.4668 
G01 Z0.2778  F254   
G01 X114.1867 Y36.4668 F508   
G01 X114.0249 Y36.4346 
G01 X113.8725 Y36.3715 
G01 X113.7354 Y36.2799 
G01 X113.6187 Y36.1632 
G01 X113.5271 Y36.0261 
G01 X113.4640 Y35.8737 
G01 X113.4318 Y35.7119 
G01 X113.4318 Y35.5469 
G01 X113.4640 Y35.3851 
G01 X113.5271 Y35.2327 
G01 X113.6187 Y35.0956 
G01 X113.7354 Y34.9789 
G01 X113.8725 Y34.8873 
G01 X114.0249 Y34.8242 
G01 X114.1867 Y34.7920 
G01 X115.8757 Y34.7920 
G01 X116.0375 Y34.8242 
G01 X116.1899 Y34.8873 
G01 X116.3270 Y34.9789 
G01 X116.4437 Y35.0956 
G01 X116.5353 Y35.2327 
G01 X116.5984 Y35.3851 
G01 X116.6306 Y35.5469 
G01 X116.6306 Y35.7119 
G01 X116.5984 Y35.8737 
G01 X116.5353 Y36.0261 
G01 X116.4437 Y36.1632 
G01 X116.3270 Y36.2799 
G01 X116.1899 Y36.3715 
G01 X116.0375 Y36.4346 
G01 X115.8757 Y36.4668 
G00 Z-1.2000 
G00 X24.3258 Y27.8952 
G01 Z0.2778  F254   
G01 X24.3258 Y28.5048 F508   
G01 X23.8948 Y28.9358 
G01 X23.2852 Y28.9358 
G01 X22.8542 Y28.5048 
G01 X22.8542 Y27.8952 
G01 X23.2852 Y27.4642 
G01 X23.8948 Y27.4642 
G01 X24.3258 Y27.8952 
G00 Z-1.2000 
G00 X24.3258 Y38.0552 
G01 Z0.2778  F254   
G01 X24.3258 Y38.6648 F508   
G01 X23.8948 Y39.0958 
G01 X23.2852 Y39.0958 
G01 X22.8542 Y38.6648 
G01 X22.8542 Y38.0552 
G01 X23.2852 Y37.6242 
G01 X23.8948 Y37.6242 
G01 X24.3258 Y38.0552 
G00 Z-1.2000 
G00 X33.0258 Y27.6952 
G01 Z0.2778  F254   
G01 X33.0258 Y28.3048 F508   
G01 X32.5948 Y28.7358 
G01 X31.9852 Y28.7358 
G01 X31.5542 Y28.3048 
G01 X31.5542 Y27.6952 
G01 X31.9852 Y27.2642 
G01 X32.5948 Y27.2642 
G01 X33.0258 Y27.6952 
G00 Z-1.2000 
G00 X33.0258 Y37.8552 
G01 Z0.2778  F254   
G01 X33.0258 Y38.4648 F508   
G01 X32.5948 Y38.8958 
G01 X31.9852 Y38.8958 
G01 X31.5542 Y38.4648 
G01 X31.5542 Y37.8552 
G01 X31.9852 Y37.4242 
G01 X32.5948 Y37.4242 
G01 X33.0258 Y37.8552 
G00 Z-1.2000 
G00 X50.8458 Y20.8952 
G01 Z0.2778  F254   
G01 X50.8458 Y21.5048 F508   
G01 X50.4148 Y21.9358 
G01 X49.8052 Y21.9358 
G01 X49.3742 Y21.5048 
G01 X49.3742 Y20.8952 
G01 X49.8052 Y20.4642 
G01 X50.4148 Y20.4642 
G01 X50.8458 Y20.8952 
G00 Z-1.2000 
G00 X50.8458 Y10.7352 
G01 Z0.2778  F254   
G01 X50.8458 Y11.3448 F508   
G01 X50.4148 Y11.7758 
G01 X49.8052 Y11.7758 
G01 X49.3742 Y11.3448 
G01 X49.3742 Y10.7352 
G01 X49.8052 Y10.3042 
G01 X50.4148 Y10.3042 
G01 X50.8458 Y10.7352 
G00 Z-1.2000 
G00 X96.0594 Y16.7264 
G01 Z0.2778  F254   
G01 X96.0594 Y17.4135 F508   
G01 X95.5735 Y17.8994 
G01 X94.8865 Y17.8994 
G01 X94.4006 Y17.4135 
G01 X94.4006 Y16.7264 
G01 X94.8865 Y16.2406 
G01 X95.5735 Y16.2406 
G01 X96.0594 Y16.7264 
G00 Z-1.2000 
G00 X96.0594 Y19.2665 
G01 Z0.2778  F254   
G01 X96.0594 Y19.9535 F508   
G01 X95.5735 Y20.4394 
G01 X94.8865 Y20.4394 
G01 X94.4006 Y19.9535 
G01 X94.4006 Y19.2665 
G01 X94.8865 Y18.7806 
G01 X95.5735 Y18.7806 
G01 X96.0594 Y19.2665 
G00 Z-1.2000 
G00 X98.5994 Y16.7264 
G01 Z0.2778  F254   
G01 X98.5994 Y17.4135 F508   
G01 X98.1135 Y17.8994 
G01 X97.4265 Y17.8994 
G01 X96.9406 Y17.4135 
G01 X96.9406 Y16.7264 
G01 X97.4265 Y16.2406 
G01 X98.1135 Y16.2406 
G01 X98.5994 Y16.7264 
G00 Z-1.2000 
G00 X98.5994 Y19.2665 
G01 Z0.2778  F254   
G01 X98.5994 Y19.9535 F508   
G01 X98.1135 Y20.4394 
G01 X97.4265 Y20.4394 
G01 X96.9406 Y19.9535 
G01 X96.9406 Y19.2665 
G01 X97.4265 Y18.7806 
G01 X98.1135 Y18.7806 
G01 X98.5994 Y19.2665 
G00 Z-1.2000 
G00 X101.1394 Y16.7264 
G01 Z0.2778  F254   
G01 X101.1394 Y17.4135 F508   
G01 X100.6535 Y17.8994 
G01 X99.9665 Y17.8994 
G01 X99.4806 Y17.4135 
G01 X99.4806 Y16.7264 
G01 X99.9665 Y16.2406 
G01 X100.6535 Y16.2406 
G01 X101.1394 Y16.7264 
G00 Z-1.2000 
G00 X101.1394 Y19.2665 
G01 Z0.2778  F254   
G01 X101.1394 Y19.9535 F508   
G01 X100.6535 Y20.4394 
G01 X99.9665 Y20.4394 
G01 X99.4806 Y19.9535 
G01 X99.4806 Y19.2665 
G01 X99.9665 Y18.7806 
G01 X100.6535 Y18.7806 
G01 X101.1394 Y19.2665 
G00 Z-1.2000 
G00 X103.6794 Y16.7264 
G01 Z0.2778  F254   
G01 X103.6794 Y17.4135 F508   
G01 X103.1935 Y17.8994 
G01 X102.5065 Y17.8994 
G01 X102.0206 Y17.4135 
G01 X102.0206 Y16.7264 
G01 X102.5065 Y16.2406 
G01 X103.1935 Y16.2406 
G01 X103.6794 Y16.7264 
G00 Z-1.2000 
G00 X106.2194 Y16.7264 
G01 Z0.2778  F254   
G01 X106.2194 Y17.4135 F508   
G01 X105.7335 Y17.8994 
G01 X105.0465 Y17.8994 
G01 X104.5606 Y17.4135 
G01 X104.5606 Y16.7264 
G01 X105.0465 Y16.2406 
G01 X105.7335 Y16.2406 
G01 X106.2194 Y16.7264 
G00 Z-1.2000 
G00 X106.2194 Y19.2665 
G01 Z0.2778  F254   
G01 X106.2194 Y19.9535 F508   
G01 X105.7335 Y20.4394 
G01 X105.0465 Y20.4394 
G01 X104.5606 Y19.9535 
G01 X104.5606 Y19.2665 
G01 X105.0465 Y18.7806 
G01 X105.7335 Y18.7806 
G01 X106.2194 Y19.2665 
G00 Z-1.2000 
G00 X108.7594 Y16.7264 
G01 Z0.2778  F254   
G01 X108.7594 Y17.4135 F508   
G01 X108.2735 Y17.8994 
G01 X107.5864 Y17.8994 
G01 X107.1006 Y17.4135 
G01 X107.1006 Y16.7264 
G01 X107.5864 Y16.2406 
G01 X108.2735 Y16.2406 
G01 X108.7594 Y16.7264 
G00 Z-1.2000 
G00 X111.2994 Y16.7264 
G01 Z0.2778  F254   
G01 X111.2994 Y17.4135 F508   
G01 X110.8135 Y17.8994 
G01 X110.1265 Y17.8994 
G01 X109.6406 Y17.4135 
G01 X109.6406 Y16.7264 
G01 X110.1265 Y16.2406 
G01 X110.8135 Y16.2406 
G01 X111.2994 Y16.7264 
G00 Z-1.2000 
G00 X111.2994 Y19.2665 
G01 Z0.2778  F254   
G01 X111.2994 Y19.9535 F508   
G01 X110.8135 Y20.4394 
G01 X110.1265 Y20.4394 
G01 X109.6406 Y19.9535 
G01 X109.6406 Y19.2665 
G01 X110.1265 Y18.7806 
G01 X110.8135 Y18.7806 
G01 X111.2994 Y19.2665 
G00 Z-1.2000 
G00 X113.8394 Y16.7264 
G01 Z0.2778  F254   
G01 X113.8394 Y17.4135 F508   
G01 X113.3535 Y17.8994 
G01 X112.6665 Y17.8994 
G01 X112.1806 Y17.4135 
G01 X112.1806 Y16.7264 
G01 X112.6665 Y16.2406 
G01 X113.3535 Y16.2406 
G01 X113.8394 Y16.7264 
G00 Z-1.2000 
G00 X113.8394 Y19.2665 
G01 Z0.2778  F254   
G01 X113.8394 Y19.9535 F508   
G01 X113.3535 Y20.4394 
G01 X112.6665 Y20.4394 
G01 X112.1806 Y19.9535 
G01 X112.1806 Y19.2665 
G01 X112.6665 Y18.7806 
G01 X113.3535 Y18.7806 
G01 X113.8394 Y19.2665 
G00 Z-1.2000 
G00 X111.8455 Y29.2374 
G01 Z0.2778  F254   
G01 X111.8455 Y29.9626 F508   
G01 X111.3326 Y30.4755 
G01 X110.6074 Y30.4755 
G01 X110.0945 Y29.9626 
G01 X110.0945 Y29.2374 
G01 X110.6074 Y28.7245 
G01 X111.3326 Y28.7245 
G01 X111.8455 Y29.2374 
G00 Z-1.2000 
G00 X111.8455 Y26.9738 
G01 Z0.2778  F254   
G01 X111.8455 Y27.1462 F508   
G01 X111.8119 Y27.3154 
G01 X111.7459 Y27.4747 
G01 X111.6500 Y27.6181 
G01 X111.5281 Y27.7400 
G01 X111.3847 Y27.8359 
G01 X111.2254 Y27.9019 
G01 X111.0562 Y27.9355 
G01 X110.8838 Y27.9355 
G01 X110.7146 Y27.9019 
G01 X110.5553 Y27.8359 
G01 X110.4119 Y27.7400 
G01 X110.2900 Y27.6181 
G01 X110.1941 Y27.4747 
G01 X110.1281 Y27.3154 
G01 X110.0945 Y27.1462 
G01 X110.0945 Y26.9738 
G01 X110.1281 Y26.8046 
G01 X110.1941 Y26.6453 
G01 X110.2900 Y26.5019 
G01 X110.4119 Y26.3800 
G01 X110.5553 Y26.2841 
G01 X110.7146 Y26.2181 
G01 X110.8838 Y26.1845 
G01 X111.0562 Y26.1845 
G01 X111.2254 Y26.2181 
G01 X111.3847 Y26.2841 
G01 X111.5281 Y26.3800 
G01 X111.6500 Y26.5019 
G01 X111.7459 Y26.6453 
G01 X111.8119 Y26.8046 
G01 X111.8455 Y26.9738 
G00 Z-1.2000 
G00 X24.5255 Y6.6174  
G01 Z0.2778  F254   
G01 X24.5255 Y7.3426  F508   
G01 X24.4661 Y7.4021  
G01 X28.7329 Y11.6689 
G01 X28.7696 Y11.7325 
G01 X28.7886 Y11.8033 
G01 X28.7886 Y16.2006 
G01 X28.8535 Y16.2006 
G01 X29.3394 Y16.6865 
G01 X29.3394 Y17.3735 
G01 X28.8535 Y17.8594 
G01 X28.1665 Y17.8594 
G01 X27.6806 Y17.3735 
G01 X27.6806 Y16.6865 
G01 X28.1665 Y16.2006 
G01 X28.2314 Y16.2006 
G01 X28.2314 Y11.9554 
G01 X24.0721 Y7.7961  
G01 X24.0126 Y7.8555  
G01 X23.2874 Y7.8555  
G01 X22.7745 Y7.3426  
G01 X22.7745 Y6.6174  
G01 X23.2874 Y6.1045  
G01 X24.0126 Y6.1045  
G01 X24.5255 Y6.6174  
G00 Z-1.2000 
G00 X24.5255 Y4.3538  
G01 Z0.2778  F254   
G01 X24.5255 Y4.5262  F508   
G01 X24.4919 Y4.6954  
G01 X24.4259 Y4.8547  
G01 X24.3300 Y4.9981  
G01 X24.2081 Y5.1200  
G01 X24.0647 Y5.2159  
G01 X23.9054 Y5.2819  
G01 X23.7362 Y5.3155  
G01 X23.5638 Y5.3155  
G01 X23.3946 Y5.2819  
G01 X23.2353 Y5.2159  
G01 X23.0919 Y5.1200  
G01 X22.9700 Y4.9981  
G01 X22.8741 Y4.8547  
G01 X22.8081 Y4.6954  
G01 X22.7745 Y4.5262  
G01 X22.7745 Y4.3538  
G01 X22.8081 Y4.1846  
G01 X22.8741 Y4.0253  
G01 X22.9700 Y3.8819  
G01 X23.0919 Y3.7600  
G01 X23.2353 Y3.6641  
G01 X23.3946 Y3.5981  
G01 X23.5638 Y3.5645  
G01 X23.7362 Y3.5645  
G01 X23.9054 Y3.5981  
G01 X24.0647 Y3.6641  
G01 X24.2081 Y3.7600  
G01 X24.3300 Y3.8819  
G01 X24.4259 Y4.0253  
G01 X24.4919 Y4.1846  
G01 X24.5255 Y4.3538  
G00 Z-1.2000 
G00 X45.9326 Y45.1945 
G01 Z0.2778  F254   
G01 X45.9326 Y43.5055 F508   
G01 X45.9648 Y43.3437 
G01 X46.0279 Y43.1913 
G01 X46.1195 Y43.0542 
G01 X46.2362 Y42.9375 
G01 X46.3733 Y42.8459 
G01 X46.5257 Y42.7828 
G01 X46.6875 Y42.7506 
G01 X46.8525 Y42.7506 
G01 X47.0143 Y42.7828 
G01 X47.1667 Y42.8459 
G01 X47.3038 Y42.9375 
G01 X47.4205 Y43.0542 
G01 X47.5121 Y43.1913 
G01 X47.5752 Y43.3437 
G01 X47.6074 Y43.5055 
G01 X47.6074 Y45.1945 
G01 X47.5752 Y45.3563 
G01 X47.5121 Y45.5087 
G01 X47.4205 Y45.6458 
G01 X47.3038 Y45.7625 
G01 X47.1667 Y45.8541 
G01 X47.0143 Y45.9172 
G01 X46.8525 Y45.9494 
G01 X46.6875 Y45.9494 
G01 X46.5257 Y45.9172 
G01 X46.3733 Y45.8541 
G01 X46.2362 Y45.7625 
G01 X46.1195 Y45.6458 
G01 X46.0279 Y45.5087 
G01 X45.9648 Y45.3563 
G01 X45.9326 Y45.1945 
G00 Z-1.2000 
G00 X48.4726 Y45.1945 
G01 Z0.2778  F254   
G01 X48.4726 Y43.5055 F508   
G01 X48.5048 Y43.3437 
G01 X48.5679 Y43.1913 
G01 X48.6595 Y43.0542 
G01 X48.7762 Y42.9375 
G01 X48.9133 Y42.8459 
G01 X49.0657 Y42.7828 
G01 X49.2275 Y42.7506 
G01 X49.3925 Y42.7506 
G01 X49.5543 Y42.7828 
G01 X49.7067 Y42.8459 
G01 X49.8438 Y42.9375 
G01 X49.9605 Y43.0542 
G01 X50.0521 Y43.1913 
G01 X50.1152 Y43.3437 
G01 X50.1474 Y43.5055 
G01 X50.1474 Y45.1945 
G01 X50.1152 Y45.3563 
G01 X50.0521 Y45.5087 
G01 X49.9605 Y45.6458 
G01 X49.8438 Y45.7625 
G01 X49.7067 Y45.8541 
G01 X49.5543 Y45.9172 
G01 X49.3925 Y45.9494 
G01 X49.2275 Y45.9494 
G01 X49.0657 Y45.9172 
G01 X48.9133 Y45.8541 
G01 X48.7762 Y45.7625 
G01 X48.6595 Y45.6458 
G01 X48.5679 Y45.5087 
G01 X48.5048 Y45.3563 
G01 X48.4726 Y45.1945 
G00 Z-1.2000 
G00 X51.0126 Y45.1945 
G01 Z0.2778  F254   
G01 X51.0126 Y43.5055 F508   
G01 X51.0448 Y43.3437 
G01 X51.1079 Y43.1913 
G01 X51.1995 Y43.0542 
G01 X51.3162 Y42.9375 
G01 X51.4533 Y42.8459 
G01 X51.6057 Y42.7828 
G01 X51.7675 Y42.7506 
G01 X51.9325 Y42.7506 
G01 X52.0943 Y42.7828 
G01 X52.2467 Y42.8459 
G01 X52.3838 Y42.9375 
G01 X52.5005 Y43.0542 
G01 X52.5921 Y43.1913 
G01 X52.6552 Y43.3437 
G01 X52.6874 Y43.5055 
G01 X52.6874 Y45.1945 
G01 X52.6552 Y45.3563 
G01 X52.5921 Y45.5087 
G01 X52.5005 Y45.6458 
G01 X52.3838 Y45.7625 
G01 X52.2467 Y45.8541 
G01 X52.0943 Y45.9172 
G01 X51.9325 Y45.9494 
G01 X51.7675 Y45.9494 
G01 X51.6057 Y45.9172 
G01 X51.4533 Y45.8541 
G01 X51.3162 Y45.7625 
G01 X51.1995 Y45.6458 
G01 X51.1079 Y45.5087 
G01 X51.0448 Y45.3563 
G01 X51.0126 Y45.1945 
G00 Z-1.2000 
G00 X53.5526 Y45.1945 
G01 Z0.2778  F254   
G01 X53.5526 Y43.5055 F508   
G01 X53.5848 Y43.3437 
G01 X53.6479 Y43.1913 
G01 X53.7395 Y43.0542 
G01 X53.8562 Y42.9375 
G01 X53.9933 Y42.8459 
G01 X54.1457 Y42.7828 
G01 X54.3075 Y42.7506 
G01 X54.4725 Y42.7506 
G01 X54.6343 Y42.7828 
G01 X54.7867 Y42.8459 
G01 X54.9238 Y42.9375 
G01 X55.0404 Y43.0542 
G01 X55.1321 Y43.1913 
G01 X55.1952 Y43.3437 
G01 X55.2274 Y43.5055 
G01 X55.2274 Y45.1945 
G01 X55.1952 Y45.3563 
G01 X55.1321 Y45.5087 
G01 X55.0404 Y45.6458 
G01 X54.9238 Y45.7625 
G01 X54.7867 Y45.8541 
G01 X54.6343 Y45.9172 
G01 X54.4725 Y45.9494 
G01 X54.3075 Y45.9494 
G01 X54.1457 Y45.9172 
G01 X53.9933 Y45.8541 
G01 X53.8562 Y45.7625 
G01 X53.7395 Y45.6458 
G01 X53.6479 Y45.5087 
G01 X53.5848 Y45.3563 
G01 X53.5526 Y45.1945 
G00 Z-1.2000 
G00 X56.0926 Y45.1945 
G01 Z0.2778  F254   
G01 X56.0926 Y43.5055 F508   
G01 X56.1248 Y43.3437 
G01 X56.1879 Y43.1913 
G01 X56.2795 Y43.0542 
G01 X56.3962 Y42.9375 
G01 X56.5333 Y42.8459 
G01 X56.6857 Y42.7828 
G01 X56.8475 Y42.7506 
G01 X57.0125 Y42.7506 
G01 X57.1743 Y42.7828 
G01 X57.3267 Y42.8459 
G01 X57.4638 Y42.9375 
G01 X57.5805 Y43.0542 
G01 X57.6721 Y43.1913 
G01 X57.7352 Y43.3437 
G01 X57.7674 Y43.5055 
G01 X57.7674 Y45.1945 
G01 X57.7352 Y45.3563 
G01 X57.6721 Y45.5087 
G01 X57.5805 Y45.6458 
G01 X57.4638 Y45.7625 
G01 X57.3267 Y45.8541 
G01 X57.1743 Y45.9172 
G01 X57.0125 Y45.9494 
G01 X56.8475 Y45.9494 
G01 X56.6857 Y45.9172 
G01 X56.5333 Y45.8541 
G01 X56.3962 Y45.7625 
G01 X56.2795 Y45.6458 
G01 X56.1879 Y45.5087 
G01 X56.1248 Y45.3563 
G01 X56.0926 Y45.1945 
G00 Z-1.2000 
G00 X18.1374 Y33.5555 
G01 Z0.2778  F254   
G01 X18.1374 Y35.2445 F508   
G01 X18.1052 Y35.4063 
G01 X18.0421 Y35.5587 
G01 X17.9505 Y35.6958 
G01 X17.8338 Y35.8124 
G01 X17.6967 Y35.9041 
G01 X17.5443 Y35.9672 
G01 X17.3825 Y35.9994 
G01 X17.2175 Y35.9994 
G01 X17.0557 Y35.9672 
G01 X16.9033 Y35.9041 
G01 X16.7662 Y35.8124 
G01 X16.6495 Y35.6958 
G01 X16.5579 Y35.5587 
G01 X16.4948 Y35.4063 
G01 X16.4626 Y35.2445 
G01 X16.4626 Y33.5555 
G01 X16.4948 Y33.3937 
G01 X16.5579 Y33.2413 
G01 X16.6495 Y33.1042 
G01 X16.7662 Y32.9875 
G01 X16.9033 Y32.8959 
G01 X17.0557 Y32.8328 
G01 X17.2175 Y32.8006 
G01 X17.3825 Y32.8006 
G01 X17.5443 Y32.8328 
G01 X17.6967 Y32.8959 
G01 X17.8338 Y32.9875 
G01 X17.9505 Y33.1042 
G01 X18.0421 Y33.2413 
G01 X18.1052 Y33.3937 
G01 X18.1374 Y33.5555 
G00 Z-1.2000 
G00 X15.5974 Y33.5555 
G01 Z0.2778  F254   
G01 X15.5974 Y35.2445 F508   
G01 X15.5652 Y35.4063 
G01 X15.5021 Y35.5587 
G01 X15.4105 Y35.6958 
G01 X15.2938 Y35.8124 
G01 X15.1567 Y35.9041 
G01 X15.0043 Y35.9672 
G01 X14.8425 Y35.9994 
G01 X14.6775 Y35.9994 
G01 X14.5157 Y35.9672 
G01 X14.3633 Y35.9041 
G01 X14.2262 Y35.8124 
G01 X14.1095 Y35.6958 
G01 X14.0179 Y35.5587 
G01 X13.9548 Y35.4063 
G01 X13.9226 Y35.2445 
G01 X13.9226 Y33.5555 
G01 X13.9548 Y33.3937 
G01 X14.0179 Y33.2413 
G01 X14.1095 Y33.1042 
G01 X14.2262 Y32.9875 
G01 X14.3633 Y32.8959 
G01 X14.5157 Y32.8328 
G01 X14.6775 Y32.8006 
G01 X14.8425 Y32.8006 
G01 X15.0043 Y32.8328 
G01 X15.1567 Y32.8959 
G01 X15.2938 Y32.9875 
G01 X15.4105 Y33.1042 
G01 X15.5021 Y33.2413 
G01 X15.5652 Y33.3937 
G01 X15.5974 Y33.5555 
G00 Z-1.2000 
G00 X13.0574 Y33.5555 
G01 Z0.2778  F254   
G01 X13.0574 Y35.2445 F508   
G01 X13.0252 Y35.4063 
G01 X12.9621 Y35.5587 
G01 X12.8704 Y35.6958 
G01 X12.7538 Y35.8124 
G01 X12.6167 Y35.9041 
G01 X12.4643 Y35.9672 
G01 X12.3025 Y35.9994 
G01 X12.1375 Y35.9994 
G01 X11.9757 Y35.9672 
G01 X11.8233 Y35.9041 
G01 X11.6862 Y35.8124 
G01 X11.5695 Y35.6958 
G01 X11.4779 Y35.5587 
G01 X11.4148 Y35.4063 
G01 X11.3826 Y35.2445 
G01 X11.3826 Y33.5555 
G01 X11.4148 Y33.3937 
G01 X11.4779 Y33.2413 
G01 X11.5695 Y33.1042 
G01 X11.6862 Y32.9875 
G01 X11.8233 Y32.8959 
G01 X11.9757 Y32.8328 
G01 X12.1375 Y32.8006 
G01 X12.3025 Y32.8006 
G01 X12.4643 Y32.8328 
G01 X12.6167 Y32.8959 
G01 X12.7538 Y32.9875 
G01 X12.8704 Y33.1042 
G01 X12.9621 Y33.2413 
G01 X13.0252 Y33.3937 
G01 X13.0574 Y33.5555 
G00 Z-1.2000 
G00 X10.5174 Y33.5555 
G01 Z0.2778  F254   
G01 X10.5174 Y35.2445 F508   
G01 X10.4852 Y35.4063 
G01 X10.4221 Y35.5587 
G01 X10.3305 Y35.6958 
G01 X10.2138 Y35.8124 
G01 X10.0767 Y35.9041 
G01 X9.9243  Y35.9672 
G01 X9.7625  Y35.9994 
G01 X9.5975  Y35.9994 
G01 X9.4357  Y35.9672 
G01 X9.2833  Y35.9041 
G01 X9.1462  Y35.8124 
G01 X9.0295  Y35.6958 
G01 X8.9379  Y35.5587 
G01 X8.8748  Y35.4063 
G01 X8.8426  Y35.2445 
G01 X8.8426  Y33.5555 
G01 X8.8748  Y33.3937 
G01 X8.9379  Y33.2413 
G01 X9.0295  Y33.1042 
G01 X9.1462  Y32.9875 
G01 X9.2833  Y32.8959 
G01 X9.4357  Y32.8328 
G01 X9.5975  Y32.8006 
G01 X9.7625  Y32.8006 
G01 X9.9243  Y32.8328 
G01 X10.0767 Y32.8959 
G01 X10.2138 Y32.9875 
G01 X10.3305 Y33.1042 
G01 X10.4221 Y33.2413 
G01 X10.4852 Y33.3937 
G01 X10.5174 Y33.5555 
G00 Z-1.2000 
G00 X120.1994 Y58.5383 
G01 Z0.2778  F254   
G01 X120.1994 Y58.7017 F508   
G01 X120.1675 Y58.8619 
G01 X120.1050 Y59.0129 
G01 X120.0142 Y59.1487 
G01 X119.8987 Y59.2642 
G01 X119.7629 Y59.3550 
G01 X119.6119 Y59.4175 
G01 X119.4517 Y59.4494 
G01 X119.2883 Y59.4494 
G01 X119.1281 Y59.4175 
G01 X118.9771 Y59.3550 
G01 X118.8413 Y59.2642 
G01 X118.7258 Y59.1487 
G01 X118.6350 Y59.0129 
G01 X118.5725 Y58.8619 
G01 X118.5406 Y58.7017 
G01 X118.5406 Y58.5383 
G01 X118.5725 Y58.3781 
G01 X118.6350 Y58.2271 
G01 X118.7258 Y58.0913 
G01 X118.8413 Y57.9758 
G01 X118.9771 Y57.8850 
G01 X119.1281 Y57.8225 
G01 X119.2883 Y57.7906 
G01 X119.4517 Y57.7906 
G01 X119.6119 Y57.8225 
G01 X119.7629 Y57.8850 
G01 X119.8987 Y57.9758 
G01 X120.0142 Y58.0913 
G01 X120.1050 Y58.2271 
G01 X120.1675 Y58.3781 
G01 X120.1994 Y58.5383 
G00 Z-1.2000 
G00 X122.7394 Y58.5383 
G01 Z0.2778  F254   
G01 X122.7394 Y58.7017 F508   
G01 X122.7075 Y58.8619 
G01 X122.6450 Y59.0129 
G01 X122.5542 Y59.1487 
G01 X122.4387 Y59.2642 
G01 X122.3029 Y59.3550 
G01 X122.1519 Y59.4175 
G01 X121.9917 Y59.4494 
G01 X121.8283 Y59.4494 
G01 X121.6681 Y59.4175 
G01 X121.5171 Y59.3550 
G01 X121.3813 Y59.2642 
G01 X121.2658 Y59.1487 
G01 X121.1750 Y59.0129 
G01 X121.1125 Y58.8619 
G01 X121.0806 Y58.7017 
G01 X121.0806 Y58.5383 
G01 X121.1125 Y58.3781 
G01 X121.1750 Y58.2271 
G01 X121.2658 Y58.0913 
G01 X121.3813 Y57.9758 
G01 X121.5171 Y57.8850 
G01 X121.6681 Y57.8225 
G01 X121.8283 Y57.7906 
G01 X121.9917 Y57.7906 
G01 X122.1519 Y57.8225 
G01 X122.3029 Y57.8850 
G01 X122.4387 Y57.9758 
G01 X122.5542 Y58.0913 
G01 X122.6450 Y58.2271 
G01 X122.7075 Y58.3781 
G01 X122.7394 Y58.5383 
G00 Z-1.2000 
G00 X120.1994 Y55.9983 
G01 Z0.2778  F254   
G01 X120.1994 Y56.1617 F508   
G01 X120.1675 Y56.3219 
G01 X120.1050 Y56.4729 
G01 X120.0142 Y56.6087 
G01 X119.8987 Y56.7242 
G01 X119.7629 Y56.8150 
G01 X119.6119 Y56.8775 
G01 X119.4517 Y56.9094 
G01 X119.2883 Y56.9094 
G01 X119.1281 Y56.8775 
G01 X118.9771 Y56.8150 
G01 X118.8413 Y56.7242 
G01 X118.7258 Y56.6087 
G01 X118.6350 Y56.4729 
G01 X118.5725 Y56.3219 
G01 X118.5406 Y56.1617 
G01 X118.5406 Y55.9983 
G01 X118.5725 Y55.8381 
G01 X118.6350 Y55.6871 
G01 X118.7258 Y55.5513 
G01 X118.8413 Y55.4358 
G01 X118.9771 Y55.3450 
G01 X119.1281 Y55.2825 
G01 X119.2883 Y55.2506 
G01 X119.4517 Y55.2506 
G01 X119.6119 Y55.2825 
G01 X119.7629 Y55.3450 
G01 X119.8987 Y55.4358 
G01 X120.0142 Y55.5513 
G01 X120.1050 Y55.6871 
G01 X120.1675 Y55.8381 
G01 X120.1994 Y55.9983 
G00 Z-1.2000 
G00 X122.7394 Y55.9983 
G01 Z0.2778  F254   
G01 X122.7394 Y56.1617 F508   
G01 X122.7075 Y56.3219 
G01 X122.6450 Y56.4729 
G01 X122.5542 Y56.6087 
G01 X122.4387 Y56.7242 
G01 X122.3029 Y56.8150 
G01 X122.1519 Y56.8775 
G01 X121.9917 Y56.9094 
G01 X121.8283 Y56.9094 
G01 X121.6681 Y56.8775 
G01 X121.5171 Y56.8150 
G01 X121.3813 Y56.7242 
G01 X121.2658 Y56.6087 
G01 X121.1750 Y56.4729 
G01 X121.1125 Y56.3219 
G01 X121.0806 Y56.1617 
G01 X121.0806 Y55.9983 
G01 X121.1125 Y55.8381 
G01 X121.1750 Y55.6871 
G01 X121.2658 Y55.5513 
G01 X121.3813 Y55.4358 
G01 X121.5171 Y55.3450 
G01 X121.6681 Y55.2825 
G01 X121.8283 Y55.2506 
G01 X121.9917 Y55.2506 
G01 X122.1519 Y55.2825 
G01 X122.3029 Y55.3450 
G01 X122.4387 Y55.4358 
G01 X122.5542 Y55.5513 
G01 X122.6450 Y55.6871 
G01 X122.7075 Y55.8381 
G01 X122.7394 Y55.9983 
G00 Z-1.2000 
G00 X120.1994 Y53.4583 
G01 Z0.2778  F254   
G01 X120.1994 Y53.6217 F508   
G01 X120.1675 Y53.7819 
G01 X120.1050 Y53.9329 
G01 X120.0142 Y54.0687 
G01 X119.8987 Y54.1842 
G01 X119.7629 Y54.2750 
G01 X119.6119 Y54.3375 
G01 X119.4517 Y54.3694 
G01 X119.2883 Y54.3694 
G01 X119.1281 Y54.3375 
G01 X118.9771 Y54.2750 
G01 X118.8413 Y54.1842 
G01 X118.7258 Y54.0687 
G01 X118.6350 Y53.9329 
G01 X118.5725 Y53.7819 
G01 X118.5406 Y53.6217 
G01 X118.5406 Y53.4583 
G01 X118.5725 Y53.2981 
G01 X118.6350 Y53.1471 
G01 X118.7258 Y53.0113 
G01 X118.8413 Y52.8958 
G01 X118.9771 Y52.8050 
G01 X119.1281 Y52.7425 
G01 X119.2883 Y52.7106 
G01 X119.4517 Y52.7106 
G01 X119.6119 Y52.7425 
G01 X119.7629 Y52.8050 
G01 X119.8987 Y52.8958 
G01 X120.0142 Y53.0113 
G01 X120.1050 Y53.1471 
G01 X120.1675 Y53.2981 
G01 X120.1994 Y53.4583 
G00 Z-1.2000 
G00 X122.7394 Y53.4583 
G01 Z0.2778  F254   
G01 X122.7394 Y53.6217 F508   
G01 X122.7075 Y53.7819 
G01 X122.6450 Y53.9329 
G01 X122.5542 Y54.0687 
G01 X122.4387 Y54.1842 
G01 X122.3029 Y54.2750 
G01 X122.1519 Y54.3375 
G01 X121.9917 Y54.3694 
G01 X121.8283 Y54.3694 
G01 X121.6681 Y54.3375 
G01 X121.5171 Y54.2750 
G01 X121.3813 Y54.1842 
G01 X121.2658 Y54.0687 
G01 X121.1750 Y53.9329 
G01 X121.1125 Y53.7819 
G01 X121.0806 Y53.6217 
G01 X121.0806 Y53.4583 
G01 X121.1125 Y53.2981 
G01 X121.1750 Y53.1471 
G01 X121.2658 Y53.0113 
G01 X121.3813 Y52.8958 
G01 X121.5171 Y52.8050 
G01 X121.6681 Y52.7425 
G01 X121.8283 Y52.7106 
G01 X121.9917 Y52.7106 
G01 X122.1519 Y52.7425 
G01 X122.3029 Y52.8050 
G01 X122.4387 Y52.8958 
G01 X122.5542 Y53.0113 
G01 X122.6450 Y53.1471 
G01 X122.7075 Y53.2981 
G01 X122.7394 Y53.4583 
G00 Z-1.2000 
G00 X120.1994 Y50.9183 
G01 Z0.2778  F254   
G01 X120.1994 Y51.0817 F508   
G01 X120.1675 Y51.2419 
G01 X120.1050 Y51.3929 
G01 X120.0142 Y51.5287 
G01 X119.8987 Y51.6442 
G01 X119.7629 Y51.7350 
G01 X119.6119 Y51.7975 
G01 X119.4517 Y51.8294 
G01 X119.2883 Y51.8294 
G01 X119.1281 Y51.7975 
G01 X118.9771 Y51.7350 
G01 X118.8413 Y51.6442 
G01 X118.7258 Y51.5287 
G01 X118.6350 Y51.3929 
G01 X118.5725 Y51.2419 
G01 X118.5406 Y51.0817 
G01 X118.5406 Y50.9183 
G01 X118.5725 Y50.7581 
G01 X118.6350 Y50.6071 
G01 X118.7258 Y50.4713 
G01 X118.8413 Y50.3558 
G01 X118.9771 Y50.2650 
G01 X119.1281 Y50.2025 
G01 X119.2883 Y50.1706 
G01 X119.4517 Y50.1706 
G01 X119.6119 Y50.2025 
G01 X119.7629 Y50.2650 
G01 X119.8987 Y50.3558 
G01 X120.0142 Y50.4713 
G01 X120.1050 Y50.6071 
G01 X120.1675 Y50.7581 
G01 X120.1994 Y50.9183 
G00 Z-1.2000 
G00 X122.7394 Y50.9183 
G01 Z0.2778  F254   
G01 X122.7394 Y51.0817 F508   
G01 X122.7075 Y51.2419 
G01 X122.6450 Y51.3929 
G01 X122.5542 Y51.5287 
G01 X122.4387 Y51.6442 
G01 X122.3029 Y51.7350 
G01 X122.1519 Y51.7975 
G01 X121.9917 Y51.8294 
G01 X121.8283 Y51.8294 
G01 X121.6681 Y51.7975 
G01 X121.5171 Y51.7350 
G01 X121.3813 Y51.6442 
G01 X121.2658 Y51.5287 
G01 X121.1750 Y51.3929 
G01 X121.1125 Y51.2419 
G01 X121.0806 Y51.0817 
G01 X121.0806 Y50.9183 
G01 X121.1125 Y50.7581 
G01 X121.1750 Y50.6071 
G01 X121.2658 Y50.4713 
G01 X121.3813 Y50.3558 
G01 X121.5171 Y50.2650 
G01 X121.6681 Y50.2025 
G01 X121.8283 Y50.1706 
G01 X121.9917 Y50.1706 
G01 X122.1519 Y50.2025 
G01 X122.3029 Y50.2650 
G01 X122.4387 Y50.3558 
G01 X122.5542 Y50.4713 
G01 X122.6450 Y50.6071 
G01 X122.7075 Y50.7581 
G01 X122.7394 Y50.9183 
G00 Z-1.2000 
G00 X120.1994 Y48.3783 
G01 Z0.2778  F254   
G01 X120.1994 Y48.5417 F508   
G01 X120.1675 Y48.7019 
G01 X120.1050 Y48.8529 
G01 X120.0142 Y48.9887 
G01 X119.8987 Y49.1042 
G01 X119.7629 Y49.1950 
G01 X119.6119 Y49.2575 
G01 X119.4517 Y49.2894 
G01 X119.2883 Y49.2894 
G01 X119.1281 Y49.2575 
G01 X118.9771 Y49.1950 
G01 X118.8413 Y49.1042 
G01 X118.7258 Y48.9887 
G01 X118.6350 Y48.8529 
G01 X118.5725 Y48.7019 
G01 X118.5406 Y48.5417 
G01 X118.5406 Y48.3783 
G01 X118.5725 Y48.2181 
G01 X118.6350 Y48.0671 
G01 X118.7258 Y47.9313 
G01 X118.8413 Y47.8158 
G01 X118.9771 Y47.7250 
G01 X119.1281 Y47.6625 
G01 X119.2883 Y47.6306 
G01 X119.4517 Y47.6306 
G01 X119.6119 Y47.6625 
G01 X119.7629 Y47.7250 
G01 X119.8987 Y47.8158 
G01 X120.0142 Y47.9313 
G01 X120.1050 Y48.0671 
G01 X120.1675 Y48.2181 
G01 X120.1994 Y48.3783 
G00 Z-1.2000 
G00 X122.7394 Y48.3783 
G01 Z0.2778  F254   
G01 X122.7394 Y48.5417 F508   
G01 X122.7075 Y48.7019 
G01 X122.6450 Y48.8529 
G01 X122.5542 Y48.9887 
G01 X122.4387 Y49.1042 
G01 X122.3029 Y49.1950 
G01 X122.1519 Y49.2575 
G01 X121.9917 Y49.2894 
G01 X121.8283 Y49.2894 
G01 X121.6681 Y49.2575 
G01 X121.5171 Y49.1950 
G01 X121.3813 Y49.1042 
G01 X121.2658 Y48.9887 
G01 X121.1750 Y48.8529 
G01 X121.1125 Y48.7019 
G01 X121.0806 Y48.5417 
G01 X121.0806 Y48.3783 
G01 X121.1125 Y48.2181 
G01 X121.1750 Y48.0671 
G01 X121.2658 Y47.9313 
G01 X121.3813 Y47.8158 
G01 X121.5171 Y47.7250 
G01 X121.6681 Y47.6625 
G01 X121.8283 Y47.6306 
G01 X121.9917 Y47.6306 
G01 X122.1519 Y47.6625 
G01 X122.3029 Y47.7250 
G01 X122.4387 Y47.8158 
G01 X122.5542 Y47.9313 
G01 X122.6450 Y48.0671 
G01 X122.7075 Y48.2181 
G01 X122.7394 Y48.3783 
G00 Z-1.2000 
G00 X16.6394 Y16.6865 
G01 Z0.2778  F254   
G01 X16.6394 Y17.3735 F508   
G01 X16.1535 Y17.8594 
G01 X15.4665 Y17.8594 
G01 X14.9806 Y17.3735 
G01 X14.9806 Y16.6865 
G01 X15.4665 Y16.2006 
G01 X16.1535 Y16.2006 
G01 X16.6394 Y16.6865 
G00 Z-1.2000 
G00 X16.6394 Y19.2264 
G01 Z0.2778  F254   
G01 X16.6394 Y19.9135 F508   
G01 X16.1535 Y20.3994 
G01 X15.4665 Y20.3994 
G01 X14.9806 Y19.9135 
G01 X14.9806 Y19.2264 
G01 X15.4665 Y18.7406 
G01 X16.1535 Y18.7406 
G01 X16.6394 Y19.2264 
G00 Z-1.2000 
G00 X19.1794 Y16.6865 
G01 Z0.2778  F254   
G01 X19.1794 Y17.3735 F508   
G01 X18.6935 Y17.8594 
G01 X18.0065 Y17.8594 
G01 X17.5206 Y17.3735 
G01 X17.5206 Y16.6865 
G01 X18.0065 Y16.2006 
G01 X18.6935 Y16.2006 
G01 X19.1794 Y16.6865 
G00 Z-1.2000 
G00 X19.1794 Y19.2264 
G01 Z0.2778  F254   
G01 X19.1794 Y19.9135 F508   
G01 X18.6935 Y20.3994 
G01 X18.0065 Y20.3994 
G01 X17.5206 Y19.9135 
G01 X17.5206 Y19.2264 
G01 X18.0065 Y18.7406 
G01 X18.6935 Y18.7406 
G01 X19.1794 Y19.2264 
G00 Z-1.2000 
G00 X21.7194 Y16.6865 
G01 Z0.2778  F254   
G01 X21.7194 Y17.3735 F508   
G01 X21.2335 Y17.8594 
G01 X20.5465 Y17.8594 
G01 X20.0606 Y17.3735 
G01 X20.0606 Y16.6865 
G01 X20.5465 Y16.2006 
G01 X21.2335 Y16.2006 
G01 X21.7194 Y16.6865 
G00 Z-1.2000 
G00 X21.7194 Y19.2264 
G01 Z0.2778  F254   
G01 X21.7194 Y19.9135 F508   
G01 X21.2335 Y20.3994 
G01 X20.5465 Y20.3994 
G01 X20.0606 Y19.9135 
G01 X20.0606 Y19.2264 
G01 X20.5465 Y18.7406 
G01 X21.2335 Y18.7406 
G01 X21.7194 Y19.2264 
G00 Z-1.2000 
G00 X24.2594 Y16.6865 
G01 Z0.2778  F254   
G01 X24.2594 Y17.3735 F508   
G01 X23.7735 Y17.8594 
G01 X23.0865 Y17.8594 
G01 X22.6006 Y17.3735 
G01 X22.6006 Y16.6865 
G01 X23.0865 Y16.2006 
G01 X23.7735 Y16.2006 
G01 X24.2594 Y16.6865 
G00 Z-1.2000 
G00 X24.2594 Y19.2264 
G01 Z0.2778  F254   
G01 X24.2594 Y19.9135 F508   
G01 X23.7735 Y20.3994 
G01 X23.0865 Y20.3994 
G01 X22.6006 Y19.9135 
G01 X22.6006 Y19.2264 
G01 X23.0865 Y18.7406 
G01 X23.7735 Y18.7406 
G01 X24.2594 Y19.2264 
G00 Z-1.2000 
G00 X26.7994 Y16.6865 
G01 Z0.2778  F254   
G01 X26.7994 Y17.3735 F508   
G01 X26.3135 Y17.8594 
G01 X25.6265 Y17.8594 
G01 X25.1406 Y17.3735 
G01 X25.1406 Y16.6865 
G01 X25.6265 Y16.2006 
G01 X26.3135 Y16.2006 
G01 X26.7994 Y16.6865 
G00 Z-1.2000 
G00 X26.7994 Y19.2264 
G01 Z0.2778  F254   
G01 X26.7994 Y19.9135 F508   
G01 X26.3135 Y20.3994 
G01 X25.6265 Y20.3994 
G01 X25.1406 Y19.9135 
G01 X25.1406 Y19.2264 
G01 X25.6265 Y18.7406 
G01 X26.3135 Y18.7406 
G01 X26.7994 Y19.2264 
G00 Z-1.2000 
G00 X29.3394 Y19.2264 
G01 Z0.2778  F254   
G01 X29.3394 Y19.9135 F508   
G01 X28.8535 Y20.3994 
G01 X28.1665 Y20.3994 
G01 X27.6806 Y19.9135 
G01 X27.6806 Y19.2264 
G01 X28.1665 Y18.7406 
G01 X28.8535 Y18.7406 
G01 X29.3394 Y19.2264 
G00 Z-1.2000 
G00 X31.8794 Y16.6865 
G01 Z0.2778  F254   
G01 X31.8794 Y17.3735 F508   
G01 X31.3935 Y17.8594 
G01 X30.7065 Y17.8594 
G01 X30.2206 Y17.3735 
G01 X30.2206 Y16.6865 
G01 X30.7065 Y16.2006 
G01 X31.3935 Y16.2006 
G01 X31.8794 Y16.6865 
G00 Z-1.2000 
G00 X31.8794 Y19.2264 
G01 Z0.2778  F254   
G01 X31.8794 Y19.9135 F508   
G01 X31.3935 Y20.3994 
G01 X30.7065 Y20.3994 
G01 X30.2206 Y19.9135 
G01 X30.2206 Y19.2264 
G01 X30.7065 Y18.7406 
G01 X31.3935 Y18.7406 
G01 X31.8794 Y19.2264 
G00 Z-1.2000 
G00 X34.4194 Y16.6865 
G01 Z0.2778  F254   
G01 X34.4194 Y17.3735 F508   
G01 X33.9335 Y17.8594 
G01 X33.2465 Y17.8594 
G01 X32.7606 Y17.3735 
G01 X32.7606 Y16.6865 
G01 X33.2465 Y16.2006 
G01 X33.9335 Y16.2006 
G01 X34.4194 Y16.6865 
G00 Z-1.2000 
G00 X34.4194 Y19.2264 
G01 Z0.2778  F254   
G01 X34.4194 Y19.9135 F508   
G01 X33.9335 Y20.3994 
G01 X33.2465 Y20.3994 
G01 X32.7606 Y19.9135 
G01 X32.7606 Y19.2264 
G01 X33.2465 Y18.7406 
G01 X33.9335 Y18.7406 
G01 X34.4194 Y19.2264 
G00 Z-1.2000 
G82 X107.4000 Y19.5000 Z-0.2794 F254   R-1.2000 P1.000000
G82 X67.6300 Y16.5500 
G82 X65.0900 Y16.5500 
G82 X66.3700 Y11.1900 
G82 X68.9100 Y11.1900 
G82 X110.9700 Y27.0600 
G82 X110.9700 Y29.6000 
G82 X23.6500 Y4.4400  
G82 X23.6500 Y6.9800  
G82 X46.7700 Y44.3500 
G82 X49.3100 Y44.3500 
G82 X51.8500 Y44.3500 
G82 X54.3900 Y44.3500 
G82 X56.9300 Y44.3500 
G82 X49.2600 Y29.6100 
G82 X51.8000 Y29.6100 
G82 X54.3400 Y29.6100 
G82 X56.8800 Y29.6100 
G82 X59.4200 Y29.6100 
G82 X61.9600 Y29.6100 
G82 X64.5000 Y29.6100 
G82 X67.0400 Y29.6100 
G82 X69.5800 Y29.6100 
G82 X72.1200 Y29.6100 
G82 X74.6600 Y29.6100 
G82 X77.2000 Y29.6100 
G82 X79.7400 Y29.6100 
G82 X82.2800 Y29.6100 
G82 X82.2800 Y37.2300 
G82 X79.7400 Y37.2300 
G82 X77.2000 Y37.2300 
G82 X74.6600 Y37.2300 
G82 X72.1200 Y37.2300 
G82 X69.5800 Y37.2300 
G82 X67.0400 Y37.2300 
G82 X64.5000 Y37.2300 
G82 X61.9600 Y37.2300 
G82 X59.4200 Y37.2300 
G82 X56.8800 Y37.2300 
G82 X54.3400 Y37.2300 
G82 X51.8000 Y37.2300 
G82 X49.2600 Y37.2300 
G82 X73.0630 Y21.9100 
G82 X68.2370 Y21.9100 
G82 X23.5900 Y28.2000 
G82 X23.5900 Y38.3600 
G82 X32.2900 Y28.0000 
G82 X32.2900 Y38.1600 
G82 X50.1100 Y21.2000 
G82 X50.1100 Y11.0400 
G82 X108.5288 Y40.1506 
G82 X115.0312 Y40.1506 
G82 X108.5288 Y35.6294 
G82 X115.0312 Y35.6294 
G82 X17.3000 Y34.4000 
G82 X14.7600 Y34.4000 
G82 X12.2200 Y34.4000 
G82 X9.6800  Y34.4000 
G82 X6.1300  Y3.8300  
G82 X6.1300  Y8.2300  
G82 X95.2300 Y17.0700 
G82 X95.2300 Y19.6100 
G82 X97.7700 Y17.0700 
G82 X97.7700 Y19.6100 
G82 X100.3100 Y17.0700 
G82 X100.3100 Y19.6100 
G82 X102.8500 Y17.0700 
G82 X102.8500 Y19.6100 
G82 X105.3900 Y17.0700 
G82 X105.3900 Y19.6100 
G82 X107.9300 Y17.0700 
G82 X107.9300 Y19.6100 
G82 X110.4700 Y17.0700 
G82 X110.4700 Y19.6100 
G82 X113.0100 Y17.0700 
G82 X113.0100 Y19.6100 
G82 X119.3700 Y58.6200 
G82 X121.9100 Y58.6200 
G82 X119.3700 Y56.0800 
G82 X121.9100 Y56.0800 
G82 X119.3700 Y53.5400 
G82 X121.9100 Y53.5400 
G82 X119.3700 Y51.0000 
G82 X121.9100 Y51.0000 
G82 X119.3700 Y48.4600 
G82 X121.9100 Y48.4600 
G82 X15.8100 Y17.0300 
G82 X15.8100 Y19.5700 
G82 X18.3500 Y17.0300 
G82 X18.3500 Y19.5700 
G82 X20.8900 Y17.0300 
G82 X20.8900 Y19.5700 
G82 X23.4300 Y17.0300 
G82 X23.4300 Y19.5700 
G82 X25.9700 Y17.0300 
G82 X25.9700 Y19.5700 
G82 X28.5100 Y17.0300 
G82 X28.5100 Y19.5700 
G82 X31.0500 Y17.0300 
G82 X31.0500 Y19.5700 
G82 X33.5900 Y17.0300 
G82 X33.5900 Y19.5700 
G00 Z1.2000  
M05
M02
