(.../Program Files (x86)/EAGLE-6.5.0/ulp/pcb-gcode.ulp)
(Copyright 2005 - 2012 by John Johnson)
(See readme.txt for licensing terms.)
(This file generated from the board:)
(.../Eagle Designs/Atmega128A/Atmega128A.brd)
(Current profile is .../EAGLE-6.5.0/ulp/profiles/mach.pp  )
(This file generated 31/10/2013 2:35:11 PM)
(Settings from pcb-machine.h)
(  Tool Size)
(0.1000  )
(Z Axis Settings)
(  High     Up        Down     Drill)
(1.2000  	1.2000  	-0.1778 	-0.8128 )
(spindle on time = 3.0000)
(milling depth = -0.2540)
(text depth = -0.1270)
(tool change at 12.7000 15.2400 25.4000 )
(feed rate xy = F508   )
(feed rate z  = F254   )
(Settings from pcb-defaults.h)
(isolate min = 0.0254)
(isolate max = 0.5080)
(isolate step = 0.1270)
(Generated top outlines, top drill, )
(Unit of measure: mm)
(Metric Mode)
G21
(Absolute Coordinates)
G90
G00 X0.0000  Y0.0000  
M03
G04 P3.000000
G00 Z1.2000  
G00 X30.1724 Y15.8071 
G01 Z-0.1778 F254   
G01 X29.0905 Y14.7252 F508   
G01 X29.0790 Y14.6975 
G01 X29.0790 Y14.6675 
G01 X29.0849 Y14.6534 
G01 X28.6344 Y14.2029 
G01 X28.4363 Y14.0272 
G01 X28.4289 Y14.0229 
G01 X28.4089 Y14.0029 
G01 X28.3877 Y13.9841 
G01 X28.3830 Y13.9770 
G01 X28.3771 Y13.9711 
G01 X28.3629 Y13.9465 
G01 X28.3473 Y13.9229 
G01 X28.3446 Y13.9149 
G01 X28.3404 Y13.9075 
G01 X28.3331 Y13.8802 
G01 X28.3241 Y13.8533 
G01 X28.3236 Y13.8448 
G01 X28.3214 Y13.8367 
G01 X28.3214 Y13.8083 
G01 X28.3197 Y13.7800 
G01 X28.3214 Y13.7718 
G01 X28.3214 Y13.7633 
G01 X28.3287 Y13.7359 
G01 X28.3344 Y13.7082 
G01 X28.3382 Y13.7006 
G01 X28.3404 Y13.6925 
G01 X28.3546 Y13.6679 
G01 X28.3672 Y13.6426 
G01 X28.3728 Y13.6363 
G01 X28.3771 Y13.6289 
G01 X28.3971 Y13.6089 
G01 X28.4159 Y13.5877 
G01 X28.4230 Y13.5830 
G01 X28.8289 Y13.1771 
G01 X28.8925 Y13.1404 
G01 X28.9633 Y13.1214 
G01 X31.5846 Y13.1214 
G01 X36.5289 Y8.1771  
G01 X36.5925 Y8.1404  
G01 X36.6633 Y8.1214  
G01 X41.6846 Y8.1214  
G01 X42.0514 Y7.7546  
G01 X42.0514 Y6.3530  
G01 X41.9333 Y6.3041  
G01 X41.7962 Y6.2125  
G01 X41.6795 Y6.0958  
G01 X41.5879 Y5.9587  
G01 X41.5248 Y5.8063  
G01 X41.4926 Y5.6445  
G01 X41.4926 Y3.9555  
G01 X41.5248 Y3.7937  
G01 X41.5879 Y3.6413  
G01 X41.6795 Y3.5042  
G01 X41.7962 Y3.3875  
G01 X41.9333 Y3.2959  
G01 X42.0857 Y3.2328  
G01 X42.2475 Y3.2006  
G01 X42.4125 Y3.2006  
G01 X42.5743 Y3.2328  
G01 X42.7267 Y3.2959  
G01 X42.8638 Y3.3875  
G01 X42.9805 Y3.5042  
G01 X43.0721 Y3.6413  
G01 X43.1352 Y3.7937  
G01 X43.1674 Y3.9555  
G01 X43.1674 Y5.6445  
G01 X43.1352 Y5.8063  
G01 X43.0721 Y5.9587  
G01 X42.9805 Y6.0958  
G01 X42.8638 Y6.2125  
G01 X42.7267 Y6.3041  
G01 X42.6086 Y6.3530  
G01 X42.6086 Y7.9067  
G01 X42.5896 Y7.9775  
G01 X42.5529 Y8.0411  
G01 X41.9711 Y8.6229  
G01 X41.9075 Y8.6596  
G01 X41.8367 Y8.6786  
G01 X36.8154 Y8.6786  
G01 X31.9229 Y13.5711 
G01 X31.8711 Y13.6229 
G01 X31.8075 Y13.6596 
G01 X31.7367 Y13.6786 
G01 X29.1154 Y13.6786 
G01 X29.0067 Y13.7873 
G01 X29.0166 Y13.7971 
G01 X29.0378 Y13.8159 
G01 X29.0424 Y13.8230 
G01 X29.4789 Y14.2594 
G01 X29.4930 Y14.2535 
G01 X29.5230 Y14.2535 
G01 X29.5507 Y14.2650 
G01 X30.6325 Y15.3469 
G01 X30.6440 Y15.3746 
G01 X30.6440 Y15.4046 
G01 X30.6325 Y15.4323 
G01 X30.2578 Y15.8071 
G01 X30.2301 Y15.8185 
G01 X30.2001 Y15.8185 
G01 X30.1724 Y15.8071 
G00 Z1.2000  
G00 X29.0410 Y16.9384 
G01 Z-0.1778 F254   
G01 X27.9591 Y15.8566 F508   
G01 X27.9476 Y15.8289 
G01 X27.9476 Y15.7989 
G01 X27.9535 Y15.7847 
G01 X26.1771 Y14.0083 
G01 X26.1404 Y13.9448 
G01 X26.1214 Y13.8739 
G01 X26.1214 Y13.7633 
G01 X26.1404 Y13.6925 
G01 X26.1771 Y13.6289 
G01 X26.2289 Y13.5771 
G01 X28.2289 Y11.5771 
G01 X28.2925 Y11.5404 
G01 X28.3633 Y11.5214 
G01 X30.6846 Y11.5214 
G01 X35.7289 Y6.4771  
G01 X35.7925 Y6.4404  
G01 X35.8633 Y6.4214  
G01 X36.9714 Y6.4214  
G01 X36.9714 Y6.3530  
G01 X36.8533 Y6.3041  
G01 X36.7162 Y6.2125  
G01 X36.5995 Y6.0958  
G01 X36.5079 Y5.9587  
G01 X36.4448 Y5.8063  
G01 X36.4126 Y5.6445  
G01 X36.4126 Y3.9555  
G01 X36.4448 Y3.7937  
G01 X36.5079 Y3.6413  
G01 X36.5995 Y3.5042  
G01 X36.7162 Y3.3875  
G01 X36.8533 Y3.2959  
G01 X37.0057 Y3.2328  
G01 X37.1675 Y3.2006  
G01 X37.3325 Y3.2006  
G01 X37.4943 Y3.2328  
G01 X37.6467 Y3.2959  
G01 X37.7838 Y3.3875  
G01 X37.9004 Y3.5042  
G01 X37.9921 Y3.6413  
G01 X38.0552 Y3.7937  
G01 X38.0874 Y3.9555  
G01 X38.0874 Y5.6445  
G01 X38.0552 Y5.8063  
G01 X37.9921 Y5.9587  
G01 X37.9004 Y6.0958  
G01 X37.7838 Y6.2125  
G01 X37.6467 Y6.3041  
G01 X37.5286 Y6.3530  
G01 X37.5286 Y6.6867  
G01 X37.5096 Y6.7575  
G01 X37.4729 Y6.8211  
G01 X37.4229 Y6.8711  
G01 X37.3711 Y6.9229  
G01 X37.3075 Y6.9596  
G01 X37.2367 Y6.9786  
G01 X36.0154 Y6.9786  
G01 X31.0229 Y11.9711 
G01 X30.9711 Y12.0229 
G01 X30.9075 Y12.0596 
G01 X30.8367 Y12.0786 
G01 X28.5154 Y12.0786 
G01 X26.7754 Y13.8186 
G01 X28.3475 Y15.3908 
G01 X28.3616 Y15.3849 
G01 X28.3916 Y15.3849 
G01 X28.4193 Y15.3964 
G01 X29.5012 Y16.4782 
G01 X29.5127 Y16.5060 
G01 X29.5127 Y16.5360 
G01 X29.5012 Y16.5637 
G01 X29.1264 Y16.9384 
G01 X29.0987 Y16.9499 
G01 X29.0687 Y16.9499 
G01 X29.0410 Y16.9384 
G00 Z1.2000  
G00 X27.9096 Y18.0698 
G01 Z-0.1778 F254   
G01 X26.8278 Y16.9879 F508   
G01 X26.8163 Y16.9602 
G01 X26.8163 Y16.9302 
G01 X26.8221 Y16.9161 
G01 X23.7289 Y13.8229 
G01 X23.6771 Y13.7711 
G01 X23.6404 Y13.7075 
G01 X23.6214 Y13.6367 
G01 X23.6214 Y13.5633 
G01 X23.6404 Y13.4925 
G01 X23.6771 Y13.4289 
G01 X23.7289 Y13.3771 
G01 X23.7925 Y13.3404 
G01 X23.8633 Y13.3214 
G01 X23.8846 Y13.3214 
G01 X32.2214 Y4.9846  
G01 X32.2214 Y3.5154  
G01 X31.8846 Y3.1786  
G01 X31.8633 Y3.1786  
G01 X31.7925 Y3.1596  
G01 X31.7289 Y3.1229  
G01 X31.2846 Y2.6786  
G01 X10.0548 Y2.6786  
G01 X9.0080  Y3.7254  
G01 X9.0080  Y5.0133  
G01 X8.9758  Y5.1751  
G01 X8.9127  Y5.3275  
G01 X8.8210  Y5.4646  
G01 X8.7044  Y5.5813  
G01 X8.5673  Y5.6729  
G01 X8.4149  Y5.7360  
G01 X8.2531  Y5.7682  
G01 X8.0881  Y5.7682  
G01 X7.9263  Y5.7360  
G01 X7.7739  Y5.6729  
G01 X7.6368  Y5.5813  
G01 X7.5201  Y5.4646  
G01 X7.4285  Y5.3275  
G01 X7.3654  Y5.1751  
G01 X7.3332  Y5.0133  
G01 X7.3332  Y3.3243  
G01 X7.3654  Y3.1625  
G01 X7.4285  Y3.0101  
G01 X7.5201  Y2.8730  
G01 X7.6368  Y2.7563  
G01 X7.7739  Y2.6647  
G01 X7.9263  Y2.6016  
G01 X8.0881  Y2.5694  
G01 X8.2531  Y2.5694  
G01 X8.4149  Y2.6016  
G01 X8.5673  Y2.6647  
G01 X8.7044  Y2.7563  
G01 X8.8210  Y2.8730  
G01 X8.9127  Y3.0101  
G01 X8.9193  Y3.0261  
G01 X9.7683  Y2.1771  
G01 X9.8319  Y2.1404  
G01 X9.9027  Y2.1214  
G01 X31.4367 Y2.1214  
G01 X31.5075 Y2.1404  
G01 X31.5711 Y2.1771  
G01 X31.6229 Y2.2289  
G01 X32.0154 Y2.6214  
G01 X32.0367 Y2.6214  
G01 X32.1075 Y2.6404  
G01 X32.1711 Y2.6771  
G01 X32.2229 Y2.7289  
G01 X32.7229 Y3.2289  
G01 X32.7596 Y3.2925  
G01 X32.7786 Y3.3633  
G01 X32.7786 Y5.1367  
G01 X32.7596 Y5.2075  
G01 X32.7229 Y5.2711  
G01 X32.6711 Y5.3229  
G01 X24.3440 Y13.6500 
G01 X27.2161 Y16.5221 
G01 X27.2302 Y16.5163 
G01 X27.2602 Y16.5163 
G01 X27.2879 Y16.5278 
G01 X28.3698 Y17.6096 
G01 X28.3813 Y17.6373 
G01 X28.3813 Y17.6673 
G01 X28.3698 Y17.6950 
G01 X27.9950 Y18.0698 
G01 X27.9673 Y18.0813 
G01 X27.9373 Y18.0813 
G01 X27.9096 Y18.0698 
G00 Z1.2000  
G00 X29.4653 Y28.5350 
G01 Z-0.1778 F254   
G01 X29.4621 Y28.5319 F508   
G01 X25.3229 Y32.6711 
G01 X25.2711 Y32.7229 
G01 X25.2075 Y32.7596 
G01 X25.1367 Y32.7786 
G01 X21.7154 Y32.7786 
G01 X21.1786 Y33.3154 
G01 X21.1786 Y35.2262 
G01 X21.3075 Y35.2006 
G01 X21.4725 Y35.2006 
G01 X21.6343 Y35.2328 
G01 X21.7867 Y35.2959 
G01 X21.9238 Y35.3875 
G01 X22.0404 Y35.5042 
G01 X22.1321 Y35.6413 
G01 X22.1952 Y35.7937 
G01 X22.2274 Y35.9555 
G01 X22.2274 Y37.6445 
G01 X22.1952 Y37.8063 
G01 X22.1321 Y37.9587 
G01 X22.0404 Y38.0958 
G01 X21.9238 Y38.2125 
G01 X21.7867 Y38.3041 
G01 X21.6343 Y38.3672 
G01 X21.4725 Y38.3994 
G01 X21.3075 Y38.3994 
G01 X21.1457 Y38.3672 
G01 X20.9933 Y38.3041 
G01 X20.8562 Y38.2125 
G01 X20.7395 Y38.0958 
G01 X20.6479 Y37.9587 
G01 X20.5848 Y37.8063 
G01 X20.5526 Y37.6445 
G01 X20.5526 Y35.9555 
G01 X20.5848 Y35.7937 
G01 X20.6214 Y35.7053 
G01 X20.6214 Y33.1633 
G01 X20.6404 Y33.0925 
G01 X20.6771 Y33.0289 
G01 X20.7289 Y32.9771 
G01 X21.4289 Y32.2771 
G01 X21.4925 Y32.2404 
G01 X21.5633 Y32.2214 
G01 X24.9846 Y32.2214 
G01 X29.0790 Y28.1270 
G01 X29.0790 Y28.1025 
G01 X29.0905 Y28.0748 
G01 X30.1724 Y26.9929 
G01 X30.2001 Y26.9815 
G01 X30.2301 Y26.9815 
G01 X30.2578 Y26.9929 
G01 X30.6325 Y27.3677 
G01 X30.6440 Y27.3954 
G01 X30.6440 Y27.4254 
G01 X30.6325 Y27.4531 
G01 X29.5507 Y28.5350 
G01 X29.5230 Y28.5465 
G01 X29.4930 Y28.5465 
G01 X29.4653 Y28.5350 
G00 Z1.2000  
G00 X33.8493 Y28.5350 
G01 Z-0.1778 F254   
G01 X32.7674 Y27.4531 F508   
G01 X32.7560 Y27.4254 
G01 X32.7560 Y27.3954 
G01 X32.7674 Y27.3677 
G01 X33.1422 Y26.9929 
G01 X33.1699 Y26.9815 
G01 X33.1999 Y26.9815 
G01 X33.2276 Y26.9929 
G01 X34.3095 Y28.0748 
G01 X34.3210 Y28.1025 
G01 X34.3210 Y28.1325 
G01 X34.3151 Y28.1466 
G01 X34.8229 Y28.6544 
G01 X34.8596 Y28.7179 
G01 X34.8786 Y28.7888 
G01 X34.8786 Y29.0367 
G01 X34.8596 Y29.1075 
G01 X34.8229 Y29.1711 
G01 X34.7711 Y29.2229 
G01 X29.2886 Y34.7054 
G01 X29.2886 Y35.2470 
G01 X29.4067 Y35.2959 
G01 X29.5438 Y35.3875 
G01 X29.6605 Y35.5042 
G01 X29.7521 Y35.6413 
G01 X29.8152 Y35.7937 
G01 X29.8474 Y35.9555 
G01 X29.8474 Y37.6445 
G01 X29.8152 Y37.8063 
G01 X29.7521 Y37.9587 
G01 X29.6605 Y38.0958 
G01 X29.5438 Y38.2125 
G01 X29.4067 Y38.3041 
G01 X29.2543 Y38.3672 
G01 X29.0925 Y38.3994 
G01 X28.9275 Y38.3994 
G01 X28.7657 Y38.3672 
G01 X28.6133 Y38.3041 
G01 X28.4762 Y38.2125 
G01 X28.3595 Y38.0958 
G01 X28.2679 Y37.9587 
G01 X28.2048 Y37.8063 
G01 X28.1726 Y37.6445 
G01 X28.1726 Y35.9555 
G01 X28.2048 Y35.7937 
G01 X28.2679 Y35.6413 
G01 X28.3595 Y35.5042 
G01 X28.4762 Y35.3875 
G01 X28.6133 Y35.2959 
G01 X28.7314 Y35.2470 
G01 X28.7314 Y34.5533 
G01 X28.7504 Y34.4825 
G01 X28.7871 Y34.4189 
G01 X34.2933 Y28.9127 
G01 X33.9211 Y28.5406 
G01 X33.9070 Y28.5465 
G01 X33.8770 Y28.5465 
G01 X33.8493 Y28.5350 
G00 Z1.2000  
G00 X34.9807 Y27.4036 
G01 Z-0.1778 F254   
G01 X33.8988 Y26.3217 F508   
G01 X33.8873 Y26.2940 
G01 X33.8873 Y26.2640 
G01 X33.8988 Y26.2363 
G01 X34.2736 Y25.8616 
G01 X34.3013 Y25.8501 
G01 X34.3313 Y25.8501 
G01 X34.3590 Y25.8616 
G01 X35.4409 Y26.9434 
G01 X35.4524 Y26.9711 
G01 X35.4524 Y27.0011 
G01 X35.4465 Y27.0152 
G01 X37.3229 Y28.8917 
G01 X37.3596 Y28.9552 
G01 X37.3786 Y29.0261 
G01 X37.3786 Y29.3367 
G01 X37.3596 Y29.4075 
G01 X37.3229 Y29.4711 
G01 X37.2711 Y29.5229 
G01 X34.3686 Y32.4254 
G01 X34.3686 Y35.2470 
G01 X34.4867 Y35.2959 
G01 X34.6238 Y35.3875 
G01 X34.7405 Y35.5042 
G01 X34.8321 Y35.6413 
G01 X34.8952 Y35.7937 
G01 X34.9274 Y35.9555 
G01 X34.9274 Y37.6445 
G01 X34.8952 Y37.8063 
G01 X34.8321 Y37.9587 
G01 X34.7405 Y38.0958 
G01 X34.6238 Y38.2125 
G01 X34.4867 Y38.3041 
G01 X34.3343 Y38.3672 
G01 X34.1725 Y38.3994 
G01 X34.0075 Y38.3994 
G01 X33.8457 Y38.3672 
G01 X33.6933 Y38.3041 
G01 X33.5562 Y38.2125 
G01 X33.4395 Y38.0958 
G01 X33.3479 Y37.9587 
G01 X33.2848 Y37.8063 
G01 X33.2526 Y37.6445 
G01 X33.2526 Y35.9555 
G01 X33.2848 Y35.7937 
G01 X33.3479 Y35.6413 
G01 X33.4395 Y35.5042 
G01 X33.5562 Y35.3875 
G01 X33.6933 Y35.2959 
G01 X33.8114 Y35.2470 
G01 X33.8114 Y32.2733 
G01 X33.8304 Y32.2025 
G01 X33.8671 Y32.1389 
G01 X36.8214 Y29.1846 
G01 X36.8214 Y29.1781 
G01 X35.0525 Y27.4092 
G01 X35.0384 Y27.4151 
G01 X35.0084 Y27.4151 
G01 X34.9807 Y27.4036 
G00 Z1.2000  
G00 X37.6677 Y20.3325 
G01 Z-0.1778 F254   
G01 X37.2929 Y19.9578 F508   
G01 X37.2815 Y19.9301 
G01 X37.2815 Y19.9001 
G01 X37.2929 Y19.8724 
G01 X38.3748 Y18.7905 
G01 X38.4025 Y18.7790 
G01 X38.4325 Y18.7790 
G01 X38.4466 Y18.7849 
G01 X38.9544 Y18.2771 
G01 X39.0179 Y18.2404 
G01 X39.0888 Y18.2214 
G01 X39.4367 Y18.2214 
G01 X39.5075 Y18.2404 
G01 X39.5711 Y18.2771 
G01 X39.6229 Y18.3289 
G01 X49.5229 Y28.2289 
G01 X49.5596 Y28.2925 
G01 X49.5786 Y28.3633 
G01 X49.5786 Y31.4846 
G01 X52.9929 Y34.8989 
G01 X53.0296 Y34.9625 
G01 X53.0486 Y35.0333 
G01 X53.0486 Y35.2370 
G01 X53.1667 Y35.2859 
G01 X53.3038 Y35.3775 
G01 X53.4205 Y35.4942 
G01 X53.5121 Y35.6313 
G01 X53.5752 Y35.7837 
G01 X53.6074 Y35.9455 
G01 X53.6074 Y37.6345 
G01 X53.5752 Y37.7963 
G01 X53.5121 Y37.9487 
G01 X53.4205 Y38.0858 
G01 X53.3038 Y38.2024 
G01 X53.1667 Y38.2941 
G01 X53.0143 Y38.3572 
G01 X52.8525 Y38.3894 
G01 X52.6875 Y38.3894 
G01 X52.5257 Y38.3572 
G01 X52.3733 Y38.2941 
G01 X52.2362 Y38.2024 
G01 X52.1195 Y38.0858 
G01 X52.0279 Y37.9487 
G01 X51.9648 Y37.7963 
G01 X51.9326 Y37.6345 
G01 X51.9326 Y35.9455 
G01 X51.9648 Y35.7837 
G01 X52.0279 Y35.6313 
G01 X52.1195 Y35.4942 
G01 X52.2362 Y35.3775 
G01 X52.3733 Y35.2859 
G01 X52.4914 Y35.2370 
G01 X52.4914 Y35.1854 
G01 X49.0771 Y31.7711 
G01 X49.0404 Y31.7075 
G01 X49.0214 Y31.6367 
G01 X49.0214 Y28.5154 
G01 X39.2846 Y18.7786 
G01 X39.2409 Y18.7786 
G01 X38.8406 Y19.1789 
G01 X38.8465 Y19.1930 
G01 X38.8465 Y19.2230 
G01 X38.8350 Y19.2507 
G01 X37.7531 Y20.3325 
G01 X37.7254 Y20.3440 
G01 X37.6954 Y20.3440 
G01 X37.6677 Y20.3325 
G00 Z1.2000  
G00 X36.5363 Y19.2012 
G01 Z-0.1778 F254   
G01 X36.1616 Y18.8264 F508   
G01 X36.1501 Y18.7987 
G01 X36.1501 Y18.7687 
G01 X36.1616 Y18.7410 
G01 X37.2434 Y17.6591 
G01 X37.2711 Y17.6476 
G01 X37.3011 Y17.6476 
G01 X37.3289 Y17.6591 
G01 X37.3431 Y17.6734 
G01 X39.2698 Y15.8989 
G01 X39.2917 Y15.8771 
G01 X39.2967 Y15.8742 
G01 X39.3010 Y15.8702 
G01 X39.3284 Y15.8559 
G01 X39.3552 Y15.8404 
G01 X39.3608 Y15.8389 
G01 X39.3660 Y15.8362 
G01 X39.3961 Y15.8294 
G01 X39.4261 Y15.8214 
G01 X39.4319 Y15.8214 
G01 X39.4375 Y15.8201 
G01 X39.4685 Y15.8214 
G01 X40.0971 Y15.8214 
G01 X40.1308 Y15.8207 
G01 X40.1337 Y15.8214 
G01 X40.1367 Y15.8214 
G01 X40.1693 Y15.8301 
G01 X40.2020 Y15.8382 
G01 X40.2046 Y15.8396 
G01 X40.2075 Y15.8404 
G01 X40.2368 Y15.8573 
G01 X40.2663 Y15.8735 
G01 X40.2711 Y15.8771 
G01 X40.2950 Y15.9010 
G01 X54.7245 Y29.7339 
G01 X56.4223 Y29.7339 
G01 X55.5402 Y28.8519 
G01 X55.5287 Y28.8241 
G01 X55.5287 Y28.7941 
G01 X55.5402 Y28.7664 
G01 X56.9264 Y27.3802 
G01 X56.9541 Y27.3687 
G01 X56.9841 Y27.3687 
G01 X57.0119 Y27.3802 
G01 X58.9337 Y29.3021 
G01 X61.3623 Y28.0375 
G01 X61.2954 Y27.9705 
G01 X61.2839 Y27.9428 
G01 X61.2839 Y27.9128 
G01 X61.2954 Y27.8851 
G01 X62.1651 Y27.0154 
G01 X62.1928 Y27.0039 
G01 X62.2228 Y27.0039 
G01 X62.2505 Y27.0154 
G01 X62.9788 Y27.7437 
G01 X62.9903 Y27.7714 
G01 X62.9903 Y27.8014 
G01 X62.9788 Y27.8291 
G01 X62.1091 Y28.6988 
G01 X62.0814 Y28.7103 
G01 X62.0514 Y28.7103 
G01 X62.0237 Y28.6988 
G01 X61.7754 Y28.4506 
G01 X59.3468 Y29.7152 
G01 X60.8048 Y31.1731 
G01 X60.8162 Y31.2009 
G01 X60.8162 Y31.2308 
G01 X60.8048 Y31.2586 
G01 X59.4186 Y32.6448 
G01 X59.3908 Y32.6562 
G01 X59.3609 Y32.6562 
G01 X59.3331 Y32.6448 
G01 X56.9795 Y30.2911 
G01 X54.6154 Y30.2911 
G01 X54.5817 Y30.2918 
G01 X54.5788 Y30.2911 
G01 X54.5758 Y30.2911 
G01 X54.5432 Y30.2824 
G01 X54.5105 Y30.2743 
G01 X54.5079 Y30.2729 
G01 X54.5050 Y30.2721 
G01 X54.4757 Y30.2552 
G01 X54.4462 Y30.2390 
G01 X54.4414 Y30.2354 
G01 X54.4175 Y30.2115 
G01 X39.9880 Y16.3786 
G01 X39.5715 Y16.3786 
G01 X37.7151 Y18.0882 
G01 X37.7151 Y18.0916 
G01 X37.7036 Y18.1193 
G01 X36.6217 Y19.2012 
G01 X36.5940 Y19.2127 
G01 X36.5640 Y19.2127 
G01 X36.5363 Y19.2012 
G00 Z1.2000  
G00 X33.1422 Y15.8071 
G01 Z-0.1778 F254   
G01 X32.7674 Y15.4323 F508   
G01 X32.7560 Y15.4046 
G01 X32.7560 Y15.3746 
G01 X32.7674 Y15.3469 
G01 X33.8493 Y14.2650 
G01 X33.8770 Y14.2535 
G01 X33.9070 Y14.2535 
G01 X33.9347 Y14.2650 
G01 X33.9949 Y14.3252 
G01 X37.2042 Y11.2018 
G01 X37.2289 Y11.1771 
G01 X37.2320 Y11.1748 
G01 X37.2622 Y11.1578 
G01 X37.2925 Y11.1404 
G01 X37.2960 Y11.1390 
G01 X37.3297 Y11.1304 
G01 X37.3633 Y11.1214 
G01 X37.3671 Y11.1209 
G01 X37.4019 Y11.1214 
G01 X48.7846 Y11.1214 
G01 X49.3214 Y10.5846 
G01 X49.3214 Y6.1177  
G01 X49.2995 Y6.0958  
G01 X49.2079 Y5.9587  
G01 X49.1448 Y5.8063  
G01 X49.1126 Y5.6445  
G01 X49.1126 Y3.9555  
G01 X49.1448 Y3.7937  
G01 X49.2079 Y3.6413  
G01 X49.2995 Y3.5042  
G01 X49.4162 Y3.3875  
G01 X49.5533 Y3.2959  
G01 X49.7057 Y3.2328  
G01 X49.8675 Y3.2006  
G01 X50.0325 Y3.2006  
G01 X50.1943 Y3.2328  
G01 X50.3467 Y3.2959  
G01 X50.4838 Y3.3875  
G01 X50.6005 Y3.5042  
G01 X50.6921 Y3.6413  
G01 X50.7552 Y3.7937  
G01 X50.7874 Y3.9555  
G01 X50.7874 Y5.6445  
G01 X50.7552 Y5.8063  
G01 X50.6921 Y5.9587  
G01 X50.6005 Y6.0958  
G01 X50.4838 Y6.2125  
G01 X50.3467 Y6.3041  
G01 X50.1943 Y6.3672  
G01 X50.0325 Y6.3994  
G01 X49.8786 Y6.3994  
G01 X49.8786 Y10.7367 
G01 X49.8596 Y10.8075 
G01 X49.8229 Y10.8711 
G01 X49.7711 Y10.9229 
G01 X49.0711 Y11.6229 
G01 X49.0075 Y11.6596 
G01 X48.9367 Y11.6786 
G01 X37.5132 Y11.6786 
G01 X33.8598 Y15.2342 
G01 X33.8350 Y15.2590 
G01 X33.8320 Y15.2613 
G01 X33.8017 Y15.2782 
G01 X33.7715 Y15.2957 
G01 X33.7680 Y15.2971 
G01 X33.7342 Y15.3056 
G01 X33.7272 Y15.3075 
G01 X33.2276 Y15.8071 
G01 X33.1999 Y15.8185 
G01 X33.1699 Y15.8185 
G01 X33.1422 Y15.8071 
G00 Z1.2000  
G00 X55.0346 Y19.8849 
G01 Z-0.1778 F254   
G01 X54.1649 Y20.7546 F508   
G01 X54.1372 Y20.7661 
G01 X54.1072 Y20.7661 
G01 X54.0795 Y20.7546 
G01 X53.9237 Y20.5989 
G01 X53.8001 Y20.7286 
G01 X52.2208 Y22.5892 
G01 X53.9798 Y24.3481 
G01 X53.9913 Y24.3759 
G01 X53.9913 Y24.4059 
G01 X53.9798 Y24.4336 
G01 X52.5936 Y25.8198 
G01 X52.5659 Y25.8313 
G01 X52.5359 Y25.8313 
G01 X52.5081 Y25.8198 
G01 X50.1545 Y23.4661 
G01 X49.1933 Y23.4661 
G01 X49.1625 Y23.4674 
G01 X49.1568 Y23.4661 
G01 X49.1508 Y23.4661 
G01 X49.1210 Y23.4581 
G01 X49.0909 Y23.4514 
G01 X49.0857 Y23.4486 
G01 X49.0800 Y23.4471 
G01 X49.0533 Y23.4317 
G01 X49.0259 Y23.4174 
G01 X49.0216 Y23.4134 
G01 X49.0164 Y23.4104 
G01 X48.9946 Y23.3886 
G01 X40.3914 Y15.4786 
G01 X39.4382 Y15.4786 
G01 X37.1429 Y17.5416 
G01 X37.1379 Y17.5536 
G01 X36.0561 Y18.6355 
G01 X36.0283 Y18.6470 
G01 X35.9984 Y18.6470 
G01 X35.9706 Y18.6355 
G01 X35.5959 Y18.2607 
G01 X35.5844 Y18.2330 
G01 X35.5844 Y18.2030 
G01 X35.5959 Y18.1753 
G01 X36.6777 Y17.0934 
G01 X36.7055 Y17.0820 
G01 X36.7355 Y17.0820 
G01 X36.7632 Y17.0934 
G01 X36.7844 Y17.1147 
G01 X39.1396 Y14.9978 
G01 X39.1603 Y14.9771 
G01 X39.1668 Y14.9733 
G01 X39.1724 Y14.9683 
G01 X39.1985 Y14.9550 
G01 X39.2238 Y14.9404 
G01 X39.2311 Y14.9384 
G01 X39.2378 Y14.9350 
G01 X39.2664 Y14.9290 
G01 X39.2947 Y14.9214 
G01 X39.3022 Y14.9214 
G01 X39.3096 Y14.9198 
G01 X39.3388 Y14.9214 
G01 X40.4942 Y14.9214 
G01 X40.5250 Y14.9201 
G01 X40.5307 Y14.9214 
G01 X40.5367 Y14.9214 
G01 X40.5665 Y14.9294 
G01 X40.5966 Y14.9361 
G01 X40.6018 Y14.9389 
G01 X40.6075 Y14.9404 
G01 X40.6342 Y14.9558 
G01 X40.6616 Y14.9701 
G01 X40.6659 Y14.9741 
G01 X40.6711 Y14.9771 
G01 X40.6929 Y14.9989 
G01 X49.2961 Y22.9089 
G01 X49.5973 Y22.9089 
G01 X48.7152 Y22.0269 
G01 X48.7037 Y21.9991 
G01 X48.7037 Y21.9691 
G01 X48.7152 Y21.9414 
G01 X50.1014 Y20.5552 
G01 X50.1291 Y20.5437 
G01 X50.1591 Y20.5437 
G01 X50.1869 Y20.5552 
G01 X51.8255 Y22.1939 
G01 X53.3620 Y20.3836 
G01 X53.3660 Y20.3764 
G01 X53.3857 Y20.3557 
G01 X53.4042 Y20.3339 
G01 X53.4109 Y20.3292 
G01 X53.5296 Y20.2048 
G01 X53.3512 Y20.0263 
G01 X53.3397 Y19.9986 
G01 X53.3397 Y19.9686 
G01 X53.3512 Y19.9409 
G01 X54.2209 Y19.0712 
G01 X54.2486 Y19.0597 
G01 X54.2786 Y19.0597 
G01 X54.3063 Y19.0712 
G01 X55.0346 Y19.7995 
G01 X55.0461 Y19.8272 
G01 X55.0461 Y19.8572 
G01 X55.0346 Y19.8849 
G00 Z1.2000  
G00 X54.4726 Y37.6345 
G01 Z-0.1778 F254   
G01 X54.4726 Y35.9455 F508   
G01 X54.5048 Y35.7837 
G01 X54.5679 Y35.6313 
G01 X54.6595 Y35.4942 
G01 X54.7762 Y35.3775 
G01 X54.9133 Y35.2859 
G01 X55.0314 Y35.2370 
G01 X55.0314 Y34.5254 
G01 X50.5289 Y30.0229 
G01 X50.4771 Y29.9711 
G01 X50.4404 Y29.9075 
G01 X50.4214 Y29.8367 
G01 X50.4214 Y28.1154 
G01 X39.5971 Y17.2911 
G01 X38.2749 Y18.6132 
G01 X38.2808 Y18.6273 
G01 X38.2808 Y18.6573 
G01 X38.2693 Y18.6850 
G01 X37.1874 Y19.7669 
G01 X37.1597 Y19.7783 
G01 X37.1297 Y19.7783 
G01 X37.1020 Y19.7669 
G01 X36.7272 Y19.3921 
G01 X36.7158 Y19.3644 
G01 X36.7158 Y19.3344 
G01 X36.7272 Y19.3067 
G01 X37.8091 Y18.2248 
G01 X37.8368 Y18.2133 
G01 X37.8668 Y18.2133 
G01 X37.8809 Y18.2192 
G01 X39.3230 Y16.7771 
G01 X39.3866 Y16.7404 
G01 X39.4574 Y16.7214 
G01 X39.7367 Y16.7214 
G01 X39.8075 Y16.7404 
G01 X39.8711 Y16.7771 
G01 X39.9229 Y16.8289 
G01 X50.9229 Y27.8289 
G01 X50.9596 Y27.8925 
G01 X50.9786 Y27.9633 
G01 X50.9786 Y29.6846 
G01 X55.5329 Y34.2389 
G01 X55.5696 Y34.3025 
G01 X55.5886 Y34.3733 
G01 X55.5886 Y35.2370 
G01 X55.7067 Y35.2859 
G01 X55.8438 Y35.3775 
G01 X55.9605 Y35.4942 
G01 X56.0521 Y35.6313 
G01 X56.1152 Y35.7837 
G01 X56.1474 Y35.9455 
G01 X56.1474 Y37.6345 
G01 X56.1152 Y37.7963 
G01 X56.0521 Y37.9487 
G01 X55.9605 Y38.0858 
G01 X55.8438 Y38.2024 
G01 X55.7067 Y38.2941 
G01 X55.5543 Y38.3572 
G01 X55.3925 Y38.3894 
G01 X55.2275 Y38.3894 
G01 X55.0657 Y38.3572 
G01 X54.9133 Y38.2941 
G01 X54.7762 Y38.2024 
G01 X54.6595 Y38.0858 
G01 X54.5679 Y37.9487 
G01 X54.5048 Y37.7963 
G01 X54.4726 Y37.6345 
G00 Z1.2000  
G00 X49.3926 Y37.6345 
G01 Z-0.1778 F254   
G01 X49.3926 Y35.9455 F508   
G01 X49.4248 Y35.7837 
G01 X49.4879 Y35.6313 
G01 X49.5795 Y35.4942 
G01 X49.6962 Y35.3775 
G01 X49.8333 Y35.2859 
G01 X49.9514 Y35.2370 
G01 X49.9514 Y35.0454 
G01 X47.8289 Y32.9229 
G01 X47.7771 Y32.8711 
G01 X47.7404 Y32.8075 
G01 X47.7214 Y32.7367 
G01 X47.7214 Y30.3154 
G01 X38.9289 Y21.5229 
G01 X38.8771 Y21.4711 
G01 X38.8404 Y21.4075 
G01 X38.8214 Y21.3367 
G01 X38.8214 Y20.7130 
G01 X38.6627 Y20.5543 
G01 X38.3188 Y20.8982 
G01 X38.2911 Y20.9097 
G01 X38.2611 Y20.9097 
G01 X38.2334 Y20.8982 
G01 X37.8586 Y20.5235 
G01 X37.8471 Y20.4958 
G01 X37.8471 Y20.4658 
G01 X37.8586 Y20.4380 
G01 X38.9405 Y19.3562 
G01 X38.9682 Y19.3447 
G01 X38.9982 Y19.3447 
G01 X39.0259 Y19.3562 
G01 X39.4007 Y19.7309 
G01 X39.4121 Y19.7587 
G01 X39.4121 Y19.7887 
G01 X39.4007 Y19.8164 
G01 X39.0567 Y20.1603 
G01 X39.3229 Y20.4265 
G01 X39.3596 Y20.4900 
G01 X39.3786 Y20.5609 
G01 X39.3786 Y21.1846 
G01 X48.2229 Y30.0289 
G01 X48.2596 Y30.0925 
G01 X48.2786 Y30.1633 
G01 X48.2786 Y32.5846 
G01 X50.4529 Y34.7589 
G01 X50.4896 Y34.8225 
G01 X50.5086 Y34.8933 
G01 X50.5086 Y35.2370 
G01 X50.6267 Y35.2859 
G01 X50.7638 Y35.3775 
G01 X50.8805 Y35.4942 
G01 X50.9721 Y35.6313 
G01 X51.0352 Y35.7837 
G01 X51.0674 Y35.9455 
G01 X51.0674 Y37.6345 
G01 X51.0352 Y37.7963 
G01 X50.9721 Y37.9487 
G01 X50.8805 Y38.0858 
G01 X50.7638 Y38.2024 
G01 X50.6267 Y38.2941 
G01 X50.4743 Y38.3572 
G01 X50.3125 Y38.3894 
G01 X50.1475 Y38.3894 
G01 X49.9857 Y38.3572 
G01 X49.8333 Y38.2941 
G01 X49.6962 Y38.2024 
G01 X49.5795 Y38.0858 
G01 X49.4879 Y37.9487 
G01 X49.4248 Y37.7963 
G01 X49.3926 Y37.6345 
G00 Z1.2000  
G00 X46.8526 Y37.6345 
G01 Z-0.1778 F254   
G01 X46.8526 Y35.9455 F508   
G01 X46.8848 Y35.7837 
G01 X46.9479 Y35.6313 
G01 X47.0395 Y35.4942 
G01 X47.1562 Y35.3775 
G01 X47.2933 Y35.2859 
G01 X47.3214 Y35.2743 
G01 X47.3214 Y34.5154 
G01 X46.1771 Y33.3711 
G01 X46.1404 Y33.3075 
G01 X46.1214 Y33.2367 
G01 X46.1214 Y30.4154 
G01 X39.0879 Y23.3819 
G01 X39.0259 Y23.4438 
G01 X38.9982 Y23.4553 
G01 X38.9682 Y23.4553 
G01 X38.9405 Y23.4438 
G01 X37.8586 Y22.3619 
G01 X37.8471 Y22.3342 
G01 X37.8471 Y22.3042 
G01 X37.8586 Y22.2765 
G01 X38.2334 Y21.9018 
G01 X38.2611 Y21.8903 
G01 X38.2911 Y21.8903 
G01 X38.3188 Y21.9018 
G01 X38.8119 Y22.3948 
G01 X38.8803 Y22.4132 
G01 X38.9439 Y22.4499 
G01 X46.5711 Y30.0771 
G01 X46.6229 Y30.1289 
G01 X46.6596 Y30.1925 
G01 X46.6786 Y30.2633 
G01 X46.6786 Y33.0846 
G01 X47.7711 Y34.1771 
G01 X47.8229 Y34.2289 
G01 X47.8596 Y34.2925 
G01 X47.8786 Y34.3633 
G01 X47.8786 Y35.2117 
G01 X47.9343 Y35.2228 
G01 X48.0867 Y35.2859 
G01 X48.2238 Y35.3775 
G01 X48.3405 Y35.4942 
G01 X48.4321 Y35.6313 
G01 X48.4952 Y35.7837 
G01 X48.5274 Y35.9455 
G01 X48.5274 Y37.6345 
G01 X48.4952 Y37.7963 
G01 X48.4321 Y37.9487 
G01 X48.3405 Y38.0858 
G01 X48.2238 Y38.2024 
G01 X48.0867 Y38.2941 
G01 X47.9343 Y38.3572 
G01 X47.7725 Y38.3894 
G01 X47.6075 Y38.3894 
G01 X47.4457 Y38.3572 
G01 X47.2933 Y38.2941 
G01 X47.1562 Y38.2024 
G01 X47.0395 Y38.0858 
G01 X46.9479 Y37.9487 
G01 X46.8848 Y37.7963 
G01 X46.8526 Y37.6345 
G00 Z1.2000  
G00 X44.3126 Y37.6345 
G01 Z-0.1778 F254   
G01 X44.3126 Y35.9455 F508   
G01 X44.3448 Y35.7837 
G01 X44.4079 Y35.6313 
G01 X44.4995 Y35.4942 
G01 X44.6162 Y35.3775 
G01 X44.7533 Y35.2859 
G01 X44.8214 Y35.2577 
G01 X44.8214 Y34.3154 
G01 X44.4771 Y33.9711 
G01 X44.4404 Y33.9075 
G01 X44.4214 Y33.8367 
G01 X44.4214 Y29.9154 
G01 X38.4879 Y23.9819 
G01 X38.4602 Y24.0095 
G01 X38.4325 Y24.0210 
G01 X38.4025 Y24.0210 
G01 X38.3748 Y24.0095 
G01 X37.2929 Y22.9276 
G01 X37.2815 Y22.8999 
G01 X37.2815 Y22.8699 
G01 X37.2929 Y22.8422 
G01 X37.6677 Y22.4674 
G01 X37.6954 Y22.4560 
G01 X37.7254 Y22.4560 
G01 X37.7531 Y22.4674 
G01 X38.2898 Y23.0042 
G01 X38.3095 Y23.0155 
G01 X44.8711 Y29.5771 
G01 X44.9229 Y29.6289 
G01 X44.9596 Y29.6925 
G01 X44.9786 Y29.7633 
G01 X44.9786 Y33.6846 
G01 X45.2711 Y33.9771 
G01 X45.3229 Y34.0289 
G01 X45.3596 Y34.0925 
G01 X45.3786 Y34.1633 
G01 X45.3786 Y35.2197 
G01 X45.3943 Y35.2228 
G01 X45.5467 Y35.2859 
G01 X45.6838 Y35.3775 
G01 X45.8005 Y35.4942 
G01 X45.8921 Y35.6313 
G01 X45.9552 Y35.7837 
G01 X45.9874 Y35.9455 
G01 X45.9874 Y37.6345 
G01 X45.9552 Y37.7963 
G01 X45.8921 Y37.9487 
G01 X45.8005 Y38.0858 
G01 X45.6838 Y38.2024 
G01 X45.5467 Y38.2941 
G01 X45.3943 Y38.3572 
G01 X45.2325 Y38.3894 
G01 X45.0675 Y38.3894 
G01 X44.9057 Y38.3572 
G01 X44.7533 Y38.2941 
G01 X44.6162 Y38.2024 
G01 X44.4995 Y38.0858 
G01 X44.4079 Y37.9487 
G01 X44.3448 Y37.7963 
G01 X44.3126 Y37.6345 
G00 Z1.2000  
G00 X41.7726 Y37.6345 
G01 Z-0.1778 F254   
G01 X41.7726 Y35.9455 F508   
G01 X41.8048 Y35.7837 
G01 X41.8679 Y35.6313 
G01 X41.9595 Y35.4942 
G01 X42.0762 Y35.3775 
G01 X42.2133 Y35.2859 
G01 X42.3657 Y35.2228 
G01 X42.4214 Y35.2117 
G01 X42.4214 Y29.2154 
G01 X37.2753 Y24.0693 
G01 X37.2387 Y24.0058 
G01 X36.7272 Y23.4933 
G01 X36.7158 Y23.4656 
G01 X36.7158 Y23.4356 
G01 X36.7272 Y23.4079 
G01 X37.1020 Y23.0331 
G01 X37.1297 Y23.0217 
G01 X37.1597 Y23.0217 
G01 X37.1874 Y23.0331 
G01 X38.2693 Y24.1150 
G01 X38.2808 Y24.1427 
G01 X38.2808 Y24.1727 
G01 X38.2693 Y24.2004 
G01 X38.2319 Y24.2379 
G01 X42.8711 Y28.8771 
G01 X42.9229 Y28.9289 
G01 X42.9596 Y28.9925 
G01 X42.9786 Y29.0633 
G01 X42.9786 Y35.2743 
G01 X43.0067 Y35.2859 
G01 X43.1438 Y35.3775 
G01 X43.2604 Y35.4942 
G01 X43.3521 Y35.6313 
G01 X43.4152 Y35.7837 
G01 X43.4474 Y35.9455 
G01 X43.4474 Y37.6345 
G01 X43.4152 Y37.7963 
G01 X43.3521 Y37.9487 
G01 X43.2604 Y38.0858 
G01 X43.1438 Y38.2024 
G01 X43.0067 Y38.2941 
G01 X42.8543 Y38.3572 
G01 X42.6925 Y38.3894 
G01 X42.5275 Y38.3894 
G01 X42.3657 Y38.3572 
G01 X42.2133 Y38.2941 
G01 X42.0762 Y38.2024 
G01 X41.9595 Y38.0858 
G01 X41.8679 Y37.9487 
G01 X41.8048 Y37.7963 
G01 X41.7726 Y37.6345 
G00 Z1.2000  
G00 X39.2326 Y37.6345 
G01 Z-0.1778 F254   
G01 X39.2326 Y35.9455 F508   
G01 X39.2648 Y35.7837 
G01 X39.3279 Y35.6313 
G01 X39.4195 Y35.4942 
G01 X39.5362 Y35.3775 
G01 X39.6733 Y35.2859 
G01 X39.8257 Y35.2228 
G01 X39.9214 Y35.2038 
G01 X39.9214 Y27.8154 
G01 X37.2493 Y25.1433 
G01 X37.2434 Y25.1409 
G01 X36.1616 Y24.0590 
G01 X36.1501 Y24.0313 
G01 X36.1501 Y24.0013 
G01 X36.1616 Y23.9736 
G01 X36.5363 Y23.5988 
G01 X36.5640 Y23.5873 
G01 X36.5940 Y23.5873 
G01 X36.6217 Y23.5988 
G01 X37.7036 Y24.6807 
G01 X37.7151 Y24.7084 
G01 X37.7151 Y24.7384 
G01 X37.7036 Y24.7661 
G01 X37.6819 Y24.7879 
G01 X40.3711 Y27.4771 
G01 X40.4229 Y27.5289 
G01 X40.4596 Y27.5925 
G01 X40.4786 Y27.6633 
G01 X40.4786 Y35.2939 
G01 X40.6038 Y35.3775 
G01 X40.7204 Y35.4942 
G01 X40.8121 Y35.6313 
G01 X40.8752 Y35.7837 
G01 X40.9074 Y35.9455 
G01 X40.9074 Y37.6345 
G01 X40.8752 Y37.7963 
G01 X40.8121 Y37.9487 
G01 X40.7204 Y38.0858 
G01 X40.6038 Y38.2024 
G01 X40.4667 Y38.2941 
G01 X40.3143 Y38.3572 
G01 X40.1525 Y38.3894 
G01 X39.9875 Y38.3894 
G01 X39.8257 Y38.3572 
G01 X39.6733 Y38.2941 
G01 X39.5362 Y38.2024 
G01 X39.4195 Y38.0858 
G01 X39.3279 Y37.9487 
G01 X39.2648 Y37.7963 
G01 X39.2326 Y37.6345 
G00 Z1.2000  
G00 X36.6926 Y37.6345 
G01 Z-0.1778 F254   
G01 X36.6926 Y35.9455 F508   
G01 X36.7248 Y35.7837 
G01 X36.7879 Y35.6313 
G01 X36.8795 Y35.4942 
G01 X36.9962 Y35.3775 
G01 X37.1333 Y35.2859 
G01 X37.2857 Y35.2228 
G01 X37.4475 Y35.1906 
G01 X37.6125 Y35.1906 
G01 X37.7743 Y35.2228 
G01 X37.9267 Y35.2859 
G01 X38.0638 Y35.3775 
G01 X38.1602 Y35.4740 
G01 X38.7526 Y34.6763 
G01 X38.8214 Y29.3983 
G01 X38.8214 Y27.9783 
G01 X36.7153 Y25.7180 
G01 X36.7055 Y25.7180 
G01 X36.6777 Y25.7066 
G01 X35.5959 Y24.6247 
G01 X35.5844 Y24.5970 
G01 X35.5844 Y24.5670 
G01 X35.5959 Y24.5393 
G01 X35.9706 Y24.1645 
G01 X35.9984 Y24.1530 
G01 X36.0283 Y24.1530 
G01 X36.0561 Y24.1645 
G01 X37.1379 Y25.2464 
G01 X37.1494 Y25.2741 
G01 X37.1494 Y25.3041 
G01 X37.1379 Y25.3318 
G01 X37.1271 Y25.3427 
G01 X39.3004 Y27.6751 
G01 X39.3229 Y27.6976 
G01 X39.3254 Y27.7019 
G01 X39.3288 Y27.7055 
G01 X39.3437 Y27.7336 
G01 X39.3596 Y27.7611 
G01 X39.3609 Y27.7659 
G01 X39.3632 Y27.7703 
G01 X39.3704 Y27.8013 
G01 X39.3786 Y27.8319 
G01 X39.3786 Y27.8369 
G01 X39.3797 Y27.8418 
G01 X39.3786 Y27.8735 
G01 X39.3786 Y29.3652 
G01 X39.3786 Y29.4017 
G01 X39.3786 Y29.4367 
G01 X39.3089 Y34.7513 
G01 X39.3110 Y34.7656 
G01 X39.3084 Y34.7879 
G01 X39.3081 Y34.8103 
G01 X39.3042 Y34.8242 
G01 X39.3025 Y34.8384 
G01 X39.2943 Y34.8593 
G01 X39.2882 Y34.8809 
G01 X39.2808 Y34.8933 
G01 X39.2755 Y34.9066 
G01 X39.2622 Y34.9247 
G01 X39.2507 Y34.9440 
G01 X39.2404 Y34.9540 
G01 X38.3674 Y36.1296 
G01 X38.3674 Y37.6345 
G01 X38.3352 Y37.7963 
G01 X38.2721 Y37.9487 
G01 X38.1805 Y38.0858 
G01 X38.0638 Y38.2024 
G01 X37.9267 Y38.2941 
G01 X37.7743 Y38.3572 
G01 X37.6125 Y38.3894 
G01 X37.4475 Y38.3894 
G01 X37.2857 Y38.3572 
G01 X37.1333 Y38.2941 
G01 X36.9962 Y38.2024 
G01 X36.8795 Y38.0858 
G01 X36.7879 Y37.9487 
G01 X36.7248 Y37.7963 
G01 X36.6926 Y37.6345 
G00 Z1.2000  
G00 X11.7154 Y28.1950 
G01 Z-0.1778 F254   
G01 X11.7154 Y28.7250 F508   
G01 X11.7039 Y28.7527 
G01 X11.6827 Y28.7739 
G01 X11.6550 Y28.7854 
G01 X8.5250  Y28.7854 
G01 X8.4973  Y28.7739 
G01 X8.4761  Y28.7527 
G01 X8.4646  Y28.7250 
G01 X8.4646  Y28.1950 
G01 X8.4761  Y28.1673 
G01 X8.4973  Y28.1461 
G01 X8.5250  Y28.1346 
G01 X11.6550 Y28.1346 
G01 X11.6827 Y28.1461 
G01 X11.7039 Y28.1673 
G01 X11.7154 Y28.1950 
G00 Z1.2000  
G00 X11.7154 Y28.9950 
G01 Z-0.1778 F254   
G01 X11.7154 Y29.5250 F508   
G01 X11.7039 Y29.5527 
G01 X11.6827 Y29.5739 
G01 X11.6550 Y29.5854 
G01 X8.5250  Y29.5854 
G01 X8.4973  Y29.5739 
G01 X8.4761  Y29.5527 
G01 X8.4646  Y29.5250 
G01 X8.4646  Y28.9950 
G01 X8.4761  Y28.9673 
G01 X8.4973  Y28.9461 
G01 X8.5250  Y28.9346 
G01 X11.6550 Y28.9346 
G01 X11.6827 Y28.9461 
G01 X11.7039 Y28.9673 
G01 X11.7154 Y28.9950 
G00 Z1.2000  
G00 X11.7154 Y29.7950 
G01 Z-0.1778 F254   
G01 X11.7154 Y30.3250 F508   
G01 X11.7039 Y30.3527 
G01 X11.6827 Y30.3739 
G01 X11.6550 Y30.3854 
G01 X8.5250  Y30.3854 
G01 X8.4973  Y30.3739 
G01 X8.4761  Y30.3527 
G01 X8.4646  Y30.3250 
G01 X8.4646  Y29.7950 
G01 X8.4761  Y29.7673 
G01 X8.4973  Y29.7461 
G01 X8.5250  Y29.7346 
G01 X11.6550 Y29.7346 
G01 X11.6827 Y29.7461 
G01 X11.7039 Y29.7673 
G01 X11.7154 Y29.7950 
G00 Z1.2000  
G00 X5.4154  Y22.9950 
G01 Z-0.1778 F254   
G01 X5.4154  Y23.7314 F508   
G01 X8.2646  Y23.7314 
G01 X8.2646  Y22.9950 
G01 X8.2761  Y22.9673 
G01 X8.2973  Y22.9461 
G01 X8.3250  Y22.9346 
G01 X11.6550 Y22.9346 
G01 X11.6827 Y22.9461 
G01 X11.7039 Y22.9673 
G01 X11.7154 Y22.9950 
G01 X11.7154 Y25.0250 
G01 X11.7039 Y25.0527 
G01 X11.6827 Y25.0739 
G01 X11.6550 Y25.0854 
G01 X10.2686 Y25.0854 
G01 X10.2686 Y26.5346 
G01 X11.6550 Y26.5346 
G01 X11.6827 Y26.5461 
G01 X11.7039 Y26.5673 
G01 X11.7154 Y26.5950 
G01 X11.7154 Y27.1250 
G01 X11.7039 Y27.1527 
G01 X11.6827 Y27.1739 
G01 X11.6550 Y27.1854 
G01 X8.5250  Y27.1854 
G01 X8.4973  Y27.1739 
G01 X8.4761  Y27.1527 
G01 X8.4646  Y27.1250 
G01 X8.4646  Y26.5950 
G01 X8.4761  Y26.5673 
G01 X8.4973  Y26.5461 
G01 X8.5250  Y26.5346 
G01 X9.7114  Y26.5346 
G01 X9.7114  Y25.0854 
G01 X8.3250  Y25.0854 
G01 X8.2973  Y25.0739 
G01 X8.2761  Y25.0527 
G01 X8.2646  Y25.0250 
G01 X8.2646  Y24.2886 
G01 X5.4154  Y24.2886 
G01 X5.4154  Y25.0250 
G01 X5.4039  Y25.0527 
G01 X5.3827  Y25.0739 
G01 X5.3550  Y25.0854 
G01 X4.4786  Y25.0854 
G01 X4.4786  Y31.8346 
G01 X5.3550  Y31.8346 
G01 X5.3827  Y31.8461 
G01 X5.4039  Y31.8673 
G01 X5.4154  Y31.8950 
G01 X5.4154  Y32.6314 
G01 X8.2646  Y32.6314 
G01 X8.2646  Y31.8950 
G01 X8.2761  Y31.8673 
G01 X8.2973  Y31.8461 
G01 X8.3250  Y31.8346 
G01 X11.6550 Y31.8346 
G01 X11.6827 Y31.8461 
G01 X11.7039 Y31.8673 
G01 X11.7154 Y31.8950 
G01 X11.7154 Y33.9250 
G01 X11.7039 Y33.9527 
G01 X11.6827 Y33.9739 
G01 X11.6550 Y33.9854 
G01 X8.3250  Y33.9854 
G01 X8.2973  Y33.9739 
G01 X8.2761  Y33.9527 
G01 X8.2646  Y33.9250 
G01 X8.2646  Y33.1886 
G01 X5.4154  Y33.1886 
G01 X5.4154  Y33.9250 
G01 X5.4039  Y33.9527 
G01 X5.3827  Y33.9739 
G01 X5.3550  Y33.9854 
G01 X4.3786  Y33.9854 
G01 X4.3786  Y34.8846 
G01 X8.0154  Y38.5214 
G01 X14.1474 Y38.5214 
G01 X13.5787 Y37.9527 
G01 X13.5721 Y37.9687 
G01 X13.4805 Y38.1058 
G01 X13.3638 Y38.2225 
G01 X13.2267 Y38.3141 
G01 X13.0743 Y38.3772 
G01 X12.9125 Y38.4094 
G01 X12.7475 Y38.4094 
G01 X12.5857 Y38.3772 
G01 X12.4333 Y38.3141 
G01 X12.2962 Y38.2225 
G01 X12.1795 Y38.1058 
G01 X12.0879 Y37.9687 
G01 X12.0248 Y37.8163 
G01 X11.9926 Y37.6545 
G01 X11.9926 Y35.9655 
G01 X12.0248 Y35.8037 
G01 X12.0879 Y35.6513 
G01 X12.1795 Y35.5142 
G01 X12.2962 Y35.3975 
G01 X12.4333 Y35.3059 
G01 X12.5857 Y35.2428 
G01 X12.7475 Y35.2106 
G01 X12.9125 Y35.2106 
G01 X13.0743 Y35.2428 
G01 X13.2267 Y35.3059 
G01 X13.3638 Y35.3975 
G01 X13.4805 Y35.5142 
G01 X13.5721 Y35.6513 
G01 X13.6352 Y35.8037 
G01 X13.6674 Y35.9655 
G01 X13.6674 Y37.2534 
G01 X14.9354 Y38.5214 
G01 X35.3214 Y38.5214 
G01 X35.3214 Y32.9633 
G01 X35.3404 Y32.8925 
G01 X35.3771 Y32.8289 
G01 X35.4289 Y32.7771 
G01 X37.9214 Y30.2846 
G01 X37.9214 Y29.1154 
G01 X35.6379 Y26.8319 
G01 X35.6318 Y26.8379 
G01 X35.6041 Y26.8494 
G01 X35.5741 Y26.8494 
G01 X35.5464 Y26.8379 
G01 X34.4645 Y25.7561 
G01 X34.4530 Y25.7283 
G01 X34.4530 Y25.6984 
G01 X34.4645 Y25.6706 
G01 X34.8393 Y25.2959 
G01 X34.8670 Y25.2844 
G01 X34.8970 Y25.2844 
G01 X34.9247 Y25.2959 
G01 X36.0066 Y26.3777 
G01 X36.0180 Y26.4055 
G01 X36.0180 Y26.4240 
G01 X38.3711 Y28.7771 
G01 X38.4229 Y28.8289 
G01 X38.4596 Y28.8925 
G01 X38.4786 Y28.9633 
G01 X38.4786 Y30.4367 
G01 X38.4596 Y30.5075 
G01 X38.4229 Y30.5711 
G01 X35.8786 Y33.1154 
G01 X35.8786 Y38.8367 
G01 X35.8596 Y38.9075 
G01 X35.8229 Y38.9711 
G01 X35.7711 Y39.0229 
G01 X35.7075 Y39.0596 
G01 X35.6367 Y39.0786 
G01 X7.8633  Y39.0786 
G01 X7.7925  Y39.0596 
G01 X7.7289  Y39.0229 
G01 X3.8771  Y35.1711 
G01 X3.8404  Y35.1075 
G01 X3.8214  Y35.0367 
G01 X3.8214  Y33.9854 
G01 X2.8250  Y33.9854 
G01 X2.7973  Y33.9739 
G01 X2.7761  Y33.9527 
G01 X2.7646  Y33.9250 
G01 X2.7646  Y31.8950 
G01 X2.7761  Y31.8673 
G01 X2.7973  Y31.8461 
G01 X2.8250  Y31.8346 
G01 X3.9214  Y31.8346 
G01 X3.9214  Y25.0854 
G01 X2.8250  Y25.0854 
G01 X2.7973  Y25.0739 
G01 X2.7761  Y25.0527 
G01 X2.7646  Y25.0250 
G01 X2.7646  Y22.9950 
G01 X2.7761  Y22.9673 
G01 X2.7973  Y22.9461 
G01 X2.8250  Y22.9346 
G01 X3.8114  Y22.9346 
G01 X3.8114  Y20.6254 
G01 X2.8650  Y20.6254 
G01 X2.8373  Y20.6139 
G01 X2.8161  Y20.5927 
G01 X2.8046  Y20.5650 
G01 X2.8046  Y18.9350 
G01 X2.8161  Y18.9073 
G01 X2.8373  Y18.8861 
G01 X2.8650  Y18.8746 
G01 X3.0814  Y18.8746 
G01 X3.0814  Y17.3654 
G01 X2.8450  Y17.3654 
G01 X2.8173  Y17.3539 
G01 X2.7961  Y17.3327 
G01 X2.7846  Y17.3050 
G01 X2.7846  Y16.0750 
G01 X2.7961  Y16.0473 
G01 X2.8173  Y16.0261 
G01 X2.8450  Y16.0146 
G01 X3.0214  Y16.0146 
G01 X3.0214  Y15.7722 
G01 X3.0007  Y15.7618 
G01 X2.9925  Y15.7596 
G01 X2.9679  Y15.7454 
G01 X2.9426  Y15.7328 
G01 X2.9363  Y15.7272 
G01 X2.9289  Y15.7229 
G01 X2.9089  Y15.7029 
G01 X2.8877  Y15.6841 
G01 X2.8831  Y15.6770 
G01 X2.8771  Y15.6711 
G01 X2.8629  Y15.6465 
G01 X2.8473  Y15.6229 
G01 X2.8446  Y15.6149 
G01 X2.8404  Y15.6075 
G01 X2.8331  Y15.5802 
G01 X2.8241  Y15.5533 
G01 X2.8236  Y15.5449 
G01 X2.8214  Y15.5367 
G01 X2.8214  Y15.5084 
G01 X2.8197  Y15.4801 
G01 X2.8214  Y15.4718 
G01 X2.8214  Y15.4633 
G01 X2.8287  Y15.4360 
G01 X2.8344  Y15.4082 
G01 X2.8382  Y15.4006 
G01 X2.8404  Y15.3925 
G01 X2.8546  Y15.3679 
G01 X2.8672  Y15.3426 
G01 X2.8728  Y15.3363 
G01 X2.8771  Y15.3289 
G01 X2.8971  Y15.3089 
G01 X2.9159  Y15.2877 
G01 X2.9230  Y15.2831 
G01 X2.9289  Y15.2771 
G01 X2.9535  Y15.2629 
G01 X2.9771  Y15.2473 
G01 X2.9851  Y15.2446 
G01 X2.9925  Y15.2404 
G01 X3.0198  Y15.2331 
G01 X3.0214  Y14.9754 
G01 X2.7850  Y14.9754 
G01 X2.7573  Y14.9639 
G01 X2.7361  Y14.9427 
G01 X2.7246  Y14.9150 
G01 X2.7246  Y13.6850 
G01 X2.7361  Y13.6573 
G01 X2.7573  Y13.6361 
G01 X2.7850  Y13.6246 
G01 X3.8150  Y13.6246 
G01 X3.8427  Y13.6361 
G01 X3.8639  Y13.6573 
G01 X3.8754  Y13.6850 
G01 X3.8754  Y14.9150 
G01 X3.8639  Y14.9427 
G01 X3.8427  Y14.9639 
G01 X3.8150  Y14.9754 
G01 X3.5786  Y14.9754 
G01 X3.5786  Y15.2214 
G01 X10.8646 Y15.2214 
G01 X10.9013 Y15.2214 
G01 X10.9367 Y15.2214 
G01 X10.9732 Y15.2312 
G01 X11.0075 Y15.2404 
G01 X11.0402 Y15.2593 
G01 X11.0711 Y15.2771 
G01 X11.0978 Y15.3038 
G01 X11.1229 Y15.3289 
G01 X22.1169 Y26.5214 
G01 X26.1846 Y26.5214 
G01 X26.8221 Y25.8839 
G01 X26.8163 Y25.8698 
G01 X26.8163 Y25.8398 
G01 X26.8278 Y25.8121 
G01 X27.9096 Y24.7302 
G01 X27.9373 Y24.7187 
G01 X27.9673 Y24.7187 
G01 X27.9950 Y24.7302 
G01 X28.3698 Y25.1050 
G01 X28.3813 Y25.1327 
G01 X28.3813 Y25.1627 
G01 X28.3698 Y25.1904 
G01 X27.2879 Y26.2722 
G01 X27.2602 Y26.2837 
G01 X27.2302 Y26.2837 
G01 X27.2161 Y26.2779 
G01 X26.5229 Y26.9711 
G01 X26.4711 Y27.0229 
G01 X26.4075 Y27.0596 
G01 X26.3367 Y27.0786 
G01 X22.0354 Y27.0786 
G01 X21.9987 Y27.0786 
G01 X21.9633 Y27.0786 
G01 X21.9267 Y27.0688 
G01 X21.8925 Y27.0596 
G01 X21.8597 Y27.0407 
G01 X21.8289 Y27.0229 
G01 X21.8021 Y26.9961 
G01 X21.7771 Y26.9711 
G01 X10.7831 Y15.7786 
G01 X3.5786  Y15.7786 
G01 X3.5786  Y16.0146 
G01 X3.8750  Y16.0146 
G01 X3.9027  Y16.0261 
G01 X3.9239  Y16.0473 
G01 X3.9354  Y16.0750 
G01 X3.9354  Y17.3050 
G01 X3.9239  Y17.3327 
G01 X3.9027  Y17.3539 
G01 X3.8750  Y17.3654 
G01 X3.6386  Y17.3654 
G01 X3.6386  Y18.8746 
G01 X4.1950  Y18.8746 
G01 X4.2227  Y18.8861 
G01 X4.2439  Y18.9073 
G01 X4.2554  Y18.9350 
G01 X4.2554  Y20.0814 
G01 X4.3129  Y20.1389 
G01 X4.3496  Y20.2025 
G01 X4.3686  Y20.2733 
G01 X4.3686  Y22.9346 
G01 X5.3550  Y22.9346 
G01 X5.3827  Y22.9461 
G01 X5.4039  Y22.9673 
G01 X5.4154  Y22.9950 
G00 Z1.2000  
G00 X7.3332  Y11.5157 
G01 Z-0.1778 F254   
G01 X7.3332  Y9.8267  F508   
G01 X7.3654  Y9.6649  
G01 X7.4285  Y9.5125  
G01 X7.5201  Y9.3754  
G01 X7.6368  Y9.2587  
G01 X7.7739  Y9.1671  
G01 X7.9263  Y9.1040  
G01 X8.0881  Y9.0718  
G01 X8.2531  Y9.0718  
G01 X8.4149  Y9.1040  
G01 X8.5673  Y9.1671  
G01 X8.7044  Y9.2587  
G01 X8.8210  Y9.3754  
G01 X8.9127  Y9.5125  
G01 X8.9758  Y9.6649  
G01 X9.0080  Y9.8267  
G01 X9.0080  Y11.5157 
G01 X8.9758  Y11.6775 
G01 X8.9127  Y11.8299 
G01 X8.8210  Y11.9670 
G01 X8.7044  Y12.0837 
G01 X8.5673  Y12.1753 
G01 X8.4149  Y12.2384 
G01 X8.2531  Y12.2706 
G01 X8.0881  Y12.2706 
G01 X7.9263  Y12.2384 
G01 X7.7739  Y12.1753 
G01 X7.6368  Y12.0837 
G01 X7.5201  Y11.9670 
G01 X7.4285  Y11.8299 
G01 X7.3654  Y11.6775 
G01 X7.3332  Y11.5157 
G00 Z1.2000  
G00 X2.8120  Y11.5157 
G01 Z-0.1778 F254   
G01 X2.8120  Y9.8267  F508   
G01 X2.8442  Y9.6649  
G01 X2.9073  Y9.5125  
G01 X2.9989  Y9.3754  
G01 X3.1156  Y9.2587  
G01 X3.2527  Y9.1671  
G01 X3.4051  Y9.1040  
G01 X3.5669  Y9.0718  
G01 X3.7319  Y9.0718  
G01 X3.8937  Y9.1040  
G01 X4.0461  Y9.1671  
G01 X4.1832  Y9.2587  
G01 X4.2999  Y9.3754  
G01 X4.3915  Y9.5125  
G01 X4.4546  Y9.6649  
G01 X4.4868  Y9.8267  
G01 X4.4868  Y11.5157 
G01 X4.4546  Y11.6775 
G01 X4.3915  Y11.8299 
G01 X4.2999  Y11.9670 
G01 X4.1832  Y12.0837 
G01 X4.0461  Y12.1753 
G01 X3.8937  Y12.2384 
G01 X3.7319  Y12.2706 
G01 X3.5669  Y12.2706 
G01 X3.4051  Y12.2384 
G01 X3.2527  Y12.1753 
G01 X3.1156  Y12.0837 
G01 X2.9989  Y11.9670 
G01 X2.9073  Y11.8299 
G01 X2.8442  Y11.6775 
G01 X2.8120  Y11.5157 
G00 Z1.2000  
G00 X2.8120  Y5.0133  
G01 Z-0.1778 F254   
G01 X2.8120  Y3.3243  F508   
G01 X2.8442  Y3.1625  
G01 X2.9073  Y3.0101  
G01 X2.9989  Y2.8730  
G01 X3.1156  Y2.7563  
G01 X3.2527  Y2.6647  
G01 X3.4051  Y2.6016  
G01 X3.5669  Y2.5694  
G01 X3.7319  Y2.5694  
G01 X3.8937  Y2.6016  
G01 X4.0461  Y2.6647  
G01 X4.1832  Y2.7563  
G01 X4.2999  Y2.8730  
G01 X4.3915  Y3.0101  
G01 X4.3981  Y3.0261  
G01 X5.9471  Y1.4771  
G01 X6.0107  Y1.4404  
G01 X6.0815  Y1.4214  
G01 X9.7463  Y1.4214  
G01 X10.1780 Y1.2487  
G01 X10.1925 Y1.2404  
G01 X10.2119 Y1.2352  
G01 X10.2306 Y1.2277  
G01 X10.2472 Y1.2257  
G01 X10.2633 Y1.2214  
G01 X10.2834 Y1.2214  
G01 X10.3034 Y1.2190  
G01 X10.3200 Y1.2214  
G01 X53.0841 Y1.2214  
G01 X53.1048 Y1.2190  
G01 X53.1206 Y1.2214  
G01 X53.1367 Y1.2214  
G01 X53.1568 Y1.2268  
G01 X53.1773 Y1.2298  
G01 X53.1920 Y1.2362  
G01 X53.2075 Y1.2404  
G01 X53.2255 Y1.2508  
G01 X53.2446 Y1.2591  
G01 X53.2572 Y1.2690  
G01 X53.2711 Y1.2771  
G01 X53.2858 Y1.2918  
G01 X53.3020 Y1.3047  
G01 X53.3116 Y1.3176  
G01 X53.3229 Y1.3289  
G01 X53.3333 Y1.3469  
G01 X55.3116 Y4.0176  
G01 X55.3229 Y4.0289  
G01 X55.3333 Y4.0469  
G01 X55.3457 Y4.0636  
G01 X55.3516 Y4.0786  
G01 X55.3596 Y4.0925  
G01 X55.3650 Y4.1126  
G01 X55.3726 Y4.1319  
G01 X55.3744 Y4.1478  
G01 X55.3786 Y4.1633  
G01 X55.3786 Y4.1841  
G01 X55.3810 Y4.2048  
G01 X55.3786 Y4.2206  
G01 X55.3786 Y12.5214 
G01 X61.3085 Y12.5214 
G01 X61.3006 Y12.4817 
G01 X61.3006 Y12.3183 
G01 X61.3325 Y12.1581 
G01 X61.3950 Y12.0071 
G01 X61.4858 Y11.8713 
G01 X61.6013 Y11.7558 
G01 X61.7371 Y11.6650 
G01 X61.8881 Y11.6025 
G01 X62.0483 Y11.5706 
G01 X62.2117 Y11.5706 
G01 X62.3719 Y11.6025 
G01 X62.5229 Y11.6650 
G01 X62.6587 Y11.7558 
G01 X62.7742 Y11.8713 
G01 X62.8650 Y12.0071 
G01 X62.9275 Y12.1581 
G01 X62.9594 Y12.3183 
G01 X62.9594 Y12.4817 
G01 X62.9275 Y12.6419 
G01 X62.8650 Y12.7929 
G01 X62.7742 Y12.9287 
G01 X62.6587 Y13.0442 
G01 X62.5229 Y13.1350 
G01 X62.3719 Y13.1975 
G01 X62.2117 Y13.2294 
G01 X62.0483 Y13.2294 
G01 X61.8881 Y13.1975 
G01 X61.7371 Y13.1350 
G01 X61.6527 Y13.0786 
G01 X38.2674 Y13.0786 
G01 X38.2596 Y13.1075 
G01 X38.2229 Y13.1711 
G01 X38.1711 Y13.2229 
G01 X35.0409 Y16.3531 
G01 X34.9774 Y16.3898 
G01 X34.9065 Y16.4088 
G01 X34.8887 Y16.4088 
G01 X34.3590 Y16.9384 
G01 X34.3313 Y16.9499 
G01 X34.3013 Y16.9499 
G01 X34.2736 Y16.9384 
G01 X33.8988 Y16.5637 
G01 X33.8873 Y16.5360 
G01 X33.8873 Y16.5060 
G01 X33.8988 Y16.4782 
G01 X34.9807 Y15.3964 
G01 X35.0084 Y15.3849 
G01 X35.0211 Y15.3849 
G01 X37.7771 Y12.6289 
G01 X37.8289 Y12.5771 
G01 X37.8925 Y12.5404 
G01 X37.9633 Y12.5214 
G01 X54.8214 Y12.5214 
G01 X54.8214 Y4.2919  
G01 X52.9597 Y1.7786  
G01 X10.3537 Y1.7786  
G01 X9.9220  Y1.9513  
G01 X9.9075  Y1.9596  
G01 X9.8881  Y1.9648  
G01 X9.8694  Y1.9723  
G01 X9.8528  Y1.9743  
G01 X9.8367  Y1.9786  
G01 X9.8166  Y1.9786  
G01 X9.7966  Y1.9810  
G01 X9.7800  Y1.9786  
G01 X6.2336  Y1.9786  
G01 X4.4868  Y3.7254  
G01 X4.4868  Y5.0133  
G01 X4.4546  Y5.1751  
G01 X4.3915  Y5.3275  
G01 X4.2999  Y5.4646  
G01 X4.1832  Y5.5813  
G01 X4.0461  Y5.6729  
G01 X3.8937  Y5.7360  
G01 X3.7319  Y5.7682  
G01 X3.5669  Y5.7682  
G01 X3.4051  Y5.7360  
G01 X3.2527  Y5.6729  
G01 X3.1156  Y5.5813  
G01 X2.9989  Y5.4646  
G01 X2.9073  Y5.3275  
G01 X2.8442  Y5.1751  
G01 X2.8120  Y5.0133  
G00 Z1.2000  
G00 X68.8207 Y0.6514  
G01 Z-0.1778 F254   
G01 X68.8207 Y2.3646  F508   
G01 X68.8156 Y2.3838  
G01 X68.8057 Y2.4010  
G01 X68.7916 Y2.4150  
G01 X68.7744 Y2.4249  
G01 X68.7552 Y2.4301  
G01 X60.5514 Y2.4301  
G01 X60.5322 Y2.4249  
G01 X60.5150 Y2.4150  
G01 X60.5010 Y2.4010  
G01 X60.4911 Y2.3838  
G01 X60.4859 Y2.3646  
G01 X60.4859 Y0.6514  
G01 X60.4911 Y0.6322  
G01 X60.5010 Y0.6150  
G01 X60.5150 Y0.6010  
G01 X60.5322 Y0.5911  
G01 X60.5514 Y0.5859  
G01 X68.7552 Y0.5859  
G01 X68.7744 Y0.5911  
G01 X68.7916 Y0.6010  
G01 X68.8057 Y0.6150  
G01 X68.8156 Y0.6322  
G01 X68.8207 Y0.6514  
G00 Z1.2000  
G00 X69.2830 Y36.7901 
G01 Z-0.1778 F254   
G01 X69.2830 Y39.3099 F508   
G01 X69.2778 Y39.3291 
G01 X69.2679 Y39.3463 
G01 X69.2539 Y39.3603 
G01 X69.2367 Y39.3703 
G01 X69.2175 Y39.3754 
G01 X57.7901 Y39.3754 
G01 X57.7709 Y39.3703 
G01 X57.7537 Y39.3603 
G01 X57.7397 Y39.3463 
G01 X57.7297 Y39.3291 
G01 X57.7246 Y39.3099 
G01 X57.7246 Y36.7901 
G01 X57.7297 Y36.7709 
G01 X57.7397 Y36.7537 
G01 X57.7537 Y36.7397 
G01 X57.7709 Y36.7297 
G01 X57.7901 Y36.7246 
G01 X69.2175 Y36.7246 
G01 X69.2367 Y36.7297 
G01 X69.2539 Y36.7397 
G01 X69.2679 Y36.7537 
G01 X69.2778 Y36.7709 
G01 X69.2830 Y36.7901 
G00 Z1.2000  
G00 X12.9550 Y21.0854 
G01 Z-0.1778 F254   
G01 X12.4686 Y21.0854 F508   
G01 X12.4686 Y21.6746 
G01 X14.5711 Y23.7771 
G01 X14.6229 Y23.8289 
G01 X14.6596 Y23.8925 
G01 X14.6786 Y23.9633 
G01 X14.6786 Y27.3446 
G01 X14.7154 Y27.3814 
G01 X15.8967 Y27.3814 
G01 X15.9675 Y27.4004 
G01 X16.0311 Y27.4371 
G01 X17.6500 Y29.0560 
G01 X19.3289 Y27.3771 
G01 X19.3925 Y27.3404 
G01 X19.4633 Y27.3214 
G01 X26.3846 Y27.3214 
G01 X27.8620 Y25.8440 
G01 X27.9256 Y25.8073 
G01 X27.9779 Y25.7933 
G01 X28.4753 Y25.2959 
G01 X28.5030 Y25.2844 
G01 X28.5216 Y25.2844 
G01 X29.1771 Y24.6289 
G01 X29.2214 Y24.5846 
G01 X29.2214 Y20.4468 
G01 X27.4158 Y18.6411 
G01 X27.4016 Y18.6470 
G01 X27.3716 Y18.6470 
G01 X27.3439 Y18.6355 
G01 X26.2621 Y17.5536 
G01 X26.2506 Y17.5259 
G01 X26.2506 Y17.4959 
G01 X26.2621 Y17.4682 
G01 X26.6368 Y17.0934 
G01 X26.6645 Y17.0820 
G01 X26.6945 Y17.0820 
G01 X26.7223 Y17.0934 
G01 X27.8041 Y18.1753 
G01 X27.8156 Y18.2030 
G01 X27.8156 Y18.2330 
G01 X27.8098 Y18.2471 
G01 X29.6154 Y20.0528 
G01 X31.5219 Y20.0528 
G01 X34.4589 Y17.1158 
G01 X34.4530 Y17.1016 
G01 X34.4530 Y17.0716 
G01 X34.4645 Y17.0439 
G01 X35.5464 Y15.9621 
G01 X35.5741 Y15.9506 
G01 X35.6041 Y15.9506 
G01 X35.6182 Y15.9564 
G01 X38.1976 Y13.3771 
G01 X38.2611 Y13.3404 
G01 X38.3319 Y13.3214 
G01 X52.2367 Y13.3214 
G01 X52.3075 Y13.3404 
G01 X52.3711 Y13.3771 
G01 X52.4154 Y13.4214 
G01 X52.4367 Y13.4214 
G01 X52.5075 Y13.4404 
G01 X52.5711 Y13.4771 
G01 X52.6229 Y13.5289 
G01 X60.1154 Y21.0214 
G01 X61.2846 Y21.0214 
G01 X64.1656 Y18.1404 
G01 X64.1413 Y18.1242 
G01 X64.0258 Y18.0087 
G01 X63.9350 Y17.8729 
G01 X63.8725 Y17.7219 
G01 X63.8406 Y17.5617 
G01 X63.8406 Y17.3983 
G01 X63.8725 Y17.2381 
G01 X63.9350 Y17.0871 
G01 X64.0258 Y16.9513 
G01 X64.1413 Y16.8358 
G01 X64.2771 Y16.7450 
G01 X64.4281 Y16.6825 
G01 X64.5883 Y16.6506 
G01 X64.7517 Y16.6506 
G01 X64.9119 Y16.6825 
G01 X65.0629 Y16.7450 
G01 X65.1987 Y16.8358 
G01 X65.3142 Y16.9513 
G01 X65.4050 Y17.0871 
G01 X65.4675 Y17.2381 
G01 X65.4994 Y17.3983 
G01 X65.4994 Y17.5617 
G01 X65.4675 Y17.7219 
G01 X65.4050 Y17.8729 
G01 X65.3142 Y18.0087 
G01 X65.1987 Y18.1242 
G01 X65.0629 Y18.2150 
G01 X64.9119 Y18.2775 
G01 X64.7928 Y18.3012 
G01 X61.6229 Y21.4711 
G01 X61.5711 Y21.5229 
G01 X61.5075 Y21.5596 
G01 X61.4367 Y21.5786 
G01 X59.9633 Y21.5786 
G01 X59.8925 Y21.5596 
G01 X59.8289 Y21.5229 
G01 X52.2846 Y13.9786 
G01 X52.2633 Y13.9786 
G01 X52.1925 Y13.9596 
G01 X52.1289 Y13.9229 
G01 X52.0846 Y13.8786 
G01 X38.4840 Y13.8786 
G01 X36.0122 Y16.3504 
G01 X36.0180 Y16.3645 
G01 X36.0180 Y16.3945 
G01 X36.0066 Y16.4223 
G01 X34.9247 Y17.5041 
G01 X34.8970 Y17.5156 
G01 X34.8670 Y17.5156 
G01 X34.8529 Y17.5098 
G01 X31.8083 Y20.5543 
G01 X31.7448 Y20.5910 
G01 X31.6739 Y20.6100 
G01 X29.7786 Y20.6100 
G01 X29.7786 Y24.5214 
G01 X35.1367 Y24.5214 
G01 X35.2075 Y24.5404 
G01 X35.2711 Y24.5771 
G01 X35.4186 Y24.7246 
G01 X35.4327 Y24.7187 
G01 X35.4627 Y24.7187 
G01 X35.4904 Y24.7302 
G01 X36.5722 Y25.8121 
G01 X36.5837 Y25.8398 
G01 X36.5837 Y25.8698 
G01 X36.5722 Y25.8975 
G01 X36.1975 Y26.2722 
G01 X36.1698 Y26.2837 
G01 X36.1398 Y26.2837 
G01 X36.1121 Y26.2722 
G01 X35.0302 Y25.1904 
G01 X35.0187 Y25.1627 
G01 X35.0187 Y25.1327 
G01 X35.0246 Y25.1186 
G01 X34.9846 Y25.0786 
G01 X29.6154 Y25.0786 
G01 X28.4042 Y26.2898 
G01 X28.3984 Y26.2932 
G01 X27.8536 Y26.8379 
G01 X27.8259 Y26.8494 
G01 X27.7959 Y26.8494 
G01 X27.7682 Y26.8379 
G01 X27.7121 Y26.7819 
G01 X26.7229 Y27.7711 
G01 X26.6711 Y27.8229 
G01 X26.6075 Y27.8596 
G01 X26.5367 Y27.8786 
G01 X19.6154 Y27.8786 
G01 X17.8729 Y29.6211 
G01 X11.1274 Y36.3666 
G01 X11.1274 Y37.6545 
G01 X11.0952 Y37.8163 
G01 X11.0321 Y37.9687 
G01 X10.9405 Y38.1058 
G01 X10.8238 Y38.2225 
G01 X10.6867 Y38.3141 
G01 X10.5343 Y38.3772 
G01 X10.3725 Y38.4094 
G01 X10.2075 Y38.4094 
G01 X10.0457 Y38.3772 
G01 X9.8933  Y38.3141 
G01 X9.7562  Y38.2225 
G01 X9.6395  Y38.1058 
G01 X9.5479  Y37.9687 
G01 X9.4848  Y37.8163 
G01 X9.4526  Y37.6545 
G01 X9.4526  Y35.9655 
G01 X9.4848  Y35.8037 
G01 X9.5479  Y35.6513 
G01 X9.6395  Y35.5142 
G01 X9.7562  Y35.3975 
G01 X9.8933  Y35.3059 
G01 X10.0457 Y35.2428 
G01 X10.2075 Y35.2106 
G01 X10.3725 Y35.2106 
G01 X10.5343 Y35.2428 
G01 X10.6867 Y35.3059 
G01 X10.8238 Y35.3975 
G01 X10.9405 Y35.5142 
G01 X11.0321 Y35.6513 
G01 X11.0387 Y35.6673 
G01 X17.2560 Y29.4500 
G01 X15.7446 Y27.9386 
G01 X11.7098 Y27.9386 
G01 X11.7039 Y27.9527 
G01 X11.6827 Y27.9739 
G01 X11.6550 Y27.9854 
G01 X8.5250  Y27.9854 
G01 X8.4973  Y27.9739 
G01 X8.4761  Y27.9527 
G01 X8.4646  Y27.9250 
G01 X8.4646  Y27.3950 
G01 X8.4761  Y27.3673 
G01 X8.4973  Y27.3461 
G01 X8.5250  Y27.3346 
G01 X11.6550 Y27.3346 
G01 X11.6827 Y27.3461 
G01 X11.7039 Y27.3673 
G01 X11.7098 Y27.3814 
G01 X14.1214 Y27.3814 
G01 X14.1214 Y24.1154 
G01 X11.9671 Y21.9611 
G01 X11.9304 Y21.8975 
G01 X11.9114 Y21.8267 
G01 X11.9114 Y21.0854 
G01 X11.4250 Y21.0854 
G01 X11.3973 Y21.0739 
G01 X11.3761 Y21.0527 
G01 X11.3646 Y21.0250 
G01 X11.3646 Y19.2786 
G01 X9.0546  Y16.9686 
G01 X5.9354  Y16.9686 
G01 X5.9354  Y17.3050 
G01 X5.9239  Y17.3327 
G01 X5.9027  Y17.3539 
G01 X5.8750  Y17.3654 
G01 X4.8450  Y17.3654 
G01 X4.8173  Y17.3539 
G01 X4.7961  Y17.3327 
G01 X4.7846  Y17.3050 
G01 X4.7846  Y16.0750 
G01 X4.7961  Y16.0473 
G01 X4.8173  Y16.0261 
G01 X4.8450  Y16.0146 
G01 X5.8750  Y16.0146 
G01 X5.9027  Y16.0261 
G01 X5.9239  Y16.0473 
G01 X5.9354  Y16.0750 
G01 X5.9354  Y16.4114 
G01 X9.2067  Y16.4114 
G01 X9.2775  Y16.4304 
G01 X9.3411  Y16.4671 
G01 X11.3646 Y18.4906 
G01 X11.3646 Y18.3950 
G01 X11.3761 Y18.3673 
G01 X11.3973 Y18.3461 
G01 X11.4250 Y18.3346 
G01 X12.9550 Y18.3346 
G01 X12.9827 Y18.3461 
G01 X13.0039 Y18.3673 
G01 X13.0154 Y18.3950 
G01 X13.0154 Y21.0250 
G01 X13.0039 Y21.0527 
G01 X12.9827 Y21.0739 
G01 X12.9550 Y21.0854 
G00 Z1.2000  
G00 X6.1554  Y18.9350 
G01 Z-0.1778 F254   
G01 X6.1554  Y19.4714 F508   
G01 X7.9646  Y19.4714 
G01 X7.9646  Y18.3950 
G01 X7.9761  Y18.3673 
G01 X7.9973  Y18.3461 
G01 X8.0250  Y18.3346 
G01 X9.5550  Y18.3346 
G01 X9.5827  Y18.3461 
G01 X9.6039  Y18.3673 
G01 X9.6154  Y18.3950 
G01 X9.6154  Y21.0250 
G01 X9.6039  Y21.0527 
G01 X9.5827  Y21.0739 
G01 X9.5550  Y21.0854 
G01 X8.0250  Y21.0854 
G01 X7.9973  Y21.0739 
G01 X7.9761  Y21.0527 
G01 X7.9646  Y21.0250 
G01 X7.9646  Y20.0286 
G01 X6.1554  Y20.0286 
G01 X6.1554  Y20.5650 
G01 X6.1439  Y20.5927 
G01 X6.1227  Y20.6139 
G01 X6.0950  Y20.6254 
G01 X4.7650  Y20.6254 
G01 X4.7373  Y20.6139 
G01 X4.7161  Y20.5927 
G01 X4.7046  Y20.5650 
G01 X4.7046  Y18.9350 
G01 X4.7161  Y18.9073 
G01 X4.7373  Y18.8861 
G01 X4.7650  Y18.8746 
G01 X6.0950  Y18.8746 
G01 X6.1227  Y18.8861 
G01 X6.1439  Y18.9073 
G01 X6.1554  Y18.9350 
G00 Z1.2000  
G00 X32.5765 Y15.2414 
G01 Z-0.1778 F254   
G01 X32.2018 Y14.8666 F508   
G01 X32.1903 Y14.8389 
G01 X32.1903 Y14.8089 
G01 X32.2018 Y14.7812 
G01 X33.2836 Y13.6993 
G01 X33.3113 Y13.6878 
G01 X33.3413 Y13.6878 
G01 X33.3691 Y13.6993 
G01 X33.3879 Y13.7181 
G01 X37.2771 Y9.8289  
G01 X37.3289 Y9.7771  
G01 X37.3925 Y9.7404  
G01 X37.4633 Y9.7214  
G01 X45.8846 Y9.7214  
G01 X47.2214 Y8.3846  
G01 X47.2214 Y6.3783  
G01 X47.1657 Y6.3672  
G01 X47.0133 Y6.3041  
G01 X46.8762 Y6.2125  
G01 X46.7595 Y6.0958  
G01 X46.6679 Y5.9587  
G01 X46.6048 Y5.8063  
G01 X46.5726 Y5.6445  
G01 X46.5726 Y3.9555  
G01 X46.6048 Y3.7937  
G01 X46.6679 Y3.6413  
G01 X46.7595 Y3.5042  
G01 X46.8762 Y3.3875  
G01 X47.0133 Y3.2959  
G01 X47.1657 Y3.2328  
G01 X47.3275 Y3.2006  
G01 X47.4925 Y3.2006  
G01 X47.6543 Y3.2328  
G01 X47.8067 Y3.2959  
G01 X47.9438 Y3.3875  
G01 X48.0605 Y3.5042  
G01 X48.1521 Y3.6413  
G01 X48.2152 Y3.7937  
G01 X48.2474 Y3.9555  
G01 X48.2474 Y5.6445  
G01 X48.2152 Y5.8063  
G01 X48.1521 Y5.9587  
G01 X48.0605 Y6.0958  
G01 X47.9438 Y6.2125  
G01 X47.8067 Y6.3041  
G01 X47.7786 Y6.3157  
G01 X47.7786 Y8.5367  
G01 X47.7596 Y8.6075  
G01 X47.7229 Y8.6711  
G01 X47.6711 Y8.7229  
G01 X46.1711 Y10.2229 
G01 X46.1075 Y10.2596 
G01 X46.0367 Y10.2786 
G01 X37.6154 Y10.2786 
G01 X33.7504 Y14.1436 
G01 X33.7438 Y14.1595 
G01 X32.6619 Y15.2414 
G01 X32.6342 Y15.2529 
G01 X32.6042 Y15.2529 
G01 X32.5765 Y15.2414 
G00 Z1.2000  
G00 X34.4150 Y27.9693 
G01 Z-0.1778 F254   
G01 X33.3331 Y26.8874 F508   
G01 X33.3217 Y26.8597 
G01 X33.3217 Y26.8297 
G01 X33.3331 Y26.8020 
G01 X33.7079 Y26.4272 
G01 X33.7356 Y26.4158 
G01 X33.7656 Y26.4158 
G01 X33.7933 Y26.4272 
G01 X34.8752 Y27.5091 
G01 X34.8867 Y27.5368 
G01 X34.8867 Y27.5668 
G01 X34.8808 Y27.5809 
G01 X36.1229 Y28.8230 
G01 X36.1596 Y28.8866 
G01 X36.1786 Y28.9574 
G01 X36.1786 Y29.2367 
G01 X36.1596 Y29.3075 
G01 X36.1229 Y29.3711 
G01 X36.0711 Y29.4229 
G01 X31.8286 Y33.6654 
G01 X31.8286 Y35.2470 
G01 X31.9467 Y35.2959 
G01 X32.0838 Y35.3875 
G01 X32.2005 Y35.5042 
G01 X32.2921 Y35.6413 
G01 X32.3552 Y35.7937 
G01 X32.3874 Y35.9555 
G01 X32.3874 Y37.6445 
G01 X32.3552 Y37.8063 
G01 X32.2921 Y37.9587 
G01 X32.2005 Y38.0958 
G01 X32.0838 Y38.2125 
G01 X31.9467 Y38.3041 
G01 X31.7943 Y38.3672 
G01 X31.6325 Y38.3994 
G01 X31.4675 Y38.3994 
G01 X31.3057 Y38.3672 
G01 X31.1533 Y38.3041 
G01 X31.0162 Y38.2125 
G01 X30.8995 Y38.0958 
G01 X30.8079 Y37.9587 
G01 X30.7448 Y37.8063 
G01 X30.7126 Y37.6445 
G01 X30.7126 Y35.9555 
G01 X30.7448 Y35.7937 
G01 X30.8079 Y35.6413 
G01 X30.8995 Y35.5042 
G01 X31.0162 Y35.3875 
G01 X31.1533 Y35.2959 
G01 X31.2714 Y35.2470 
G01 X31.2714 Y33.5133 
G01 X31.2904 Y33.4425 
G01 X31.3271 Y33.3789 
G01 X35.6089 Y29.0971 
G01 X34.4868 Y27.9749 
G01 X34.4727 Y27.9808 
G01 X34.4427 Y27.9808 
G01 X34.4150 Y27.9693 
G00 Z1.2000  
G00 X33.2836 Y29.1007 
G01 Z-0.1778 F254   
G01 X33.0885 Y28.9055 F508   
G01 X27.2711 Y34.7229 
G01 X27.2075 Y34.7596 
G01 X27.1367 Y34.7786 
G01 X26.6154 Y34.7786 
G01 X26.5786 Y34.8154 
G01 X26.5786 Y35.2058 
G01 X26.7143 Y35.2328 
G01 X26.8667 Y35.2959 
G01 X27.0038 Y35.3875 
G01 X27.1205 Y35.5042 
G01 X27.2121 Y35.6413 
G01 X27.2752 Y35.7937 
G01 X27.3074 Y35.9555 
G01 X27.3074 Y37.6445 
G01 X27.2752 Y37.8063 
G01 X27.2121 Y37.9587 
G01 X27.1205 Y38.0958 
G01 X27.0038 Y38.2125 
G01 X26.8667 Y38.3041 
G01 X26.7143 Y38.3672 
G01 X26.5525 Y38.3994 
G01 X26.3875 Y38.3994 
G01 X26.2257 Y38.3672 
G01 X26.0733 Y38.3041 
G01 X25.9362 Y38.2125 
G01 X25.8195 Y38.0958 
G01 X25.7279 Y37.9587 
G01 X25.6648 Y37.8063 
G01 X25.6326 Y37.6445 
G01 X25.6326 Y35.9555 
G01 X25.6648 Y35.7937 
G01 X25.7279 Y35.6413 
G01 X25.8195 Y35.5042 
G01 X25.9362 Y35.3875 
G01 X26.0214 Y35.3306 
G01 X26.0214 Y34.6633 
G01 X26.0404 Y34.5925 
G01 X26.0771 Y34.5289 
G01 X26.1289 Y34.4771 
G01 X26.3289 Y34.2771 
G01 X26.3925 Y34.2404 
G01 X26.4633 Y34.2214 
G01 X26.9846 Y34.2214 
G01 X32.6942 Y28.5118 
G01 X32.2018 Y28.0188 
G01 X32.1903 Y27.9911 
G01 X32.1903 Y27.9611 
G01 X32.2018 Y27.9334 
G01 X32.5765 Y27.5586 
G01 X32.6042 Y27.5471 
G01 X32.6342 Y27.5471 
G01 X32.6619 Y27.5586 
G01 X33.7438 Y28.6405 
G01 X33.7553 Y28.6682 
G01 X33.7553 Y28.6982 
G01 X33.7438 Y28.7259 
G01 X33.3691 Y29.1007 
G01 X33.3413 Y29.1121 
G01 X33.3113 Y29.1121 
G01 X33.2836 Y29.1007 
G00 Z1.2000  
G00 X25.5055 Y24.5752 
G01 Z-0.1778 F254   
G01 X25.4621 Y24.5319 F508   
G01 X25.0229 Y24.9711 
G01 X24.9711 Y25.0229 
G01 X24.9075 Y25.0596 
G01 X24.8367 Y25.0786 
G01 X23.9633 Y25.0786 
G01 X23.8925 Y25.0596 
G01 X23.8289 Y25.0229 
G01 X21.4289 Y22.6229 
G01 X21.3771 Y22.5711 
G01 X21.3404 Y22.5075 
G01 X21.3214 Y22.4367 
G01 X21.3214 Y20.7154 
G01 X14.4289 Y13.8229 
G01 X14.3771 Y13.7711 
G01 X14.3404 Y13.7075 
G01 X14.3214 Y13.6367 
G01 X14.3214 Y6.3560  
G01 X14.2943 Y6.3672  
G01 X14.1325 Y6.3994  
G01 X13.9675 Y6.3994  
G01 X13.8057 Y6.3672  
G01 X13.6533 Y6.3041  
G01 X13.5162 Y6.2125  
G01 X13.3995 Y6.0958  
G01 X13.3079 Y5.9587  
G01 X13.2448 Y5.8063  
G01 X13.2126 Y5.6445  
G01 X13.2126 Y3.9555  
G01 X13.2448 Y3.7937  
G01 X13.3079 Y3.6413  
G01 X13.3995 Y3.5042  
G01 X13.5162 Y3.3875  
G01 X13.6533 Y3.2959  
G01 X13.8057 Y3.2328  
G01 X13.9675 Y3.2006  
G01 X14.1325 Y3.2006  
G01 X14.2943 Y3.2328  
G01 X14.4467 Y3.2959  
G01 X14.5838 Y3.3875  
G01 X14.7005 Y3.5042  
G01 X14.7921 Y3.6413  
G01 X14.8552 Y3.7937  
G01 X14.8874 Y3.9555  
G01 X14.8874 Y5.6445  
G01 X14.8786 Y5.6887  
G01 X14.8786 Y13.4846 
G01 X21.8229 Y20.4289 
G01 X21.8596 Y20.4925 
G01 X21.8786 Y20.5633 
G01 X21.8786 Y22.2846 
G01 X24.1154 Y24.5214 
G01 X24.6846 Y24.5214 
G01 X25.6248 Y23.5812 
G01 X25.6883 Y23.5445 
G01 X25.7059 Y23.5398 
G01 X26.2126 Y23.0331 
G01 X26.2403 Y23.0217 
G01 X26.2703 Y23.0217 
G01 X26.2980 Y23.0331 
G01 X26.6727 Y23.4079 
G01 X26.6842 Y23.4356 
G01 X26.6842 Y23.4656 
G01 X26.6727 Y23.4933 
G01 X25.5909 Y24.5752 
G01 X25.5632 Y24.5867 
G01 X25.5332 Y24.5867 
G01 X25.5055 Y24.5752 
G00 Z1.2000  
G00 X24.3741 Y23.4438 
G01 Z-0.1778 F254   
G01 X23.9993 Y23.0691 F508   
G01 X23.9878 Y23.0413 
G01 X23.9878 Y23.0113 
G01 X23.9993 Y22.9836 
G01 X24.5214 Y22.4616 
G01 X24.5214 Y21.7154 
G01 X17.9771 Y15.1711 
G01 X17.9404 Y15.1075 
G01 X17.9214 Y15.0367 
G01 X17.9214 Y13.1633 
G01 X17.9404 Y13.0925 
G01 X17.9771 Y13.0289 
G01 X18.0289 Y12.9771 
G01 X18.8514 Y12.1546 
G01 X18.8514 Y6.3530  
G01 X18.7333 Y6.3041  
G01 X18.5962 Y6.2125  
G01 X18.4795 Y6.0958  
G01 X18.3879 Y5.9587  
G01 X18.3248 Y5.8063  
G01 X18.2926 Y5.6445  
G01 X18.2926 Y3.9555  
G01 X18.3248 Y3.7937  
G01 X18.3879 Y3.6413  
G01 X18.4795 Y3.5042  
G01 X18.5962 Y3.3875  
G01 X18.7333 Y3.2959  
G01 X18.8857 Y3.2328  
G01 X19.0475 Y3.2006  
G01 X19.2125 Y3.2006  
G01 X19.3743 Y3.2328  
G01 X19.5267 Y3.2959  
G01 X19.6638 Y3.3875  
G01 X19.7805 Y3.5042  
G01 X19.8721 Y3.6413  
G01 X19.9352 Y3.7937  
G01 X19.9674 Y3.9555  
G01 X19.9674 Y5.6445  
G01 X19.9352 Y5.8063  
G01 X19.8721 Y5.9587  
G01 X19.7805 Y6.0958  
G01 X19.6638 Y6.2125  
G01 X19.5267 Y6.3041  
G01 X19.4086 Y6.3530  
G01 X19.4086 Y12.3067 
G01 X19.3896 Y12.3775 
G01 X19.3529 Y12.4411 
G01 X18.4786 Y13.3154 
G01 X18.4786 Y14.8846 
G01 X24.9711 Y21.3771 
G01 X25.0229 Y21.4289 
G01 X25.0596 Y21.4925 
G01 X25.0786 Y21.5633 
G01 X25.0786 Y21.9044 
G01 X25.0812 Y21.9018 
G01 X25.1089 Y21.8903 
G01 X25.1389 Y21.8903 
G01 X25.1666 Y21.9018 
G01 X25.5414 Y22.2765 
G01 X25.5529 Y22.3042 
G01 X25.5529 Y22.3342 
G01 X25.5414 Y22.3619 
G01 X24.4595 Y23.4438 
G01 X24.4318 Y23.4553 
G01 X24.4018 Y23.4553 
G01 X24.3741 Y23.4438 
G00 Z1.2000  
G00 X25.0812 Y20.8982 
G01 Z-0.1778 F254   
G01 X23.9993 Y19.8164 F508   
G01 X23.9878 Y19.7887 
G01 X23.9878 Y19.7818 
G01 X18.8289 Y14.6229 
G01 X18.7771 Y14.5711 
G01 X18.7404 Y14.5075 
G01 X18.7214 Y14.4367 
G01 X18.7214 Y13.5633 
G01 X18.7404 Y13.4925 
G01 X18.7771 Y13.4289 
G01 X22.1214 Y10.0846 
G01 X22.1214 Y6.2675  
G01 X22.0667 Y6.3041  
G01 X21.9143 Y6.3672  
G01 X21.7525 Y6.3994  
G01 X21.5875 Y6.3994  
G01 X21.4257 Y6.3672  
G01 X21.2733 Y6.3041  
G01 X21.1362 Y6.2125  
G01 X21.0195 Y6.0958  
G01 X20.9279 Y5.9587  
G01 X20.8648 Y5.8063  
G01 X20.8326 Y5.6445  
G01 X20.8326 Y3.9555  
G01 X20.8648 Y3.7937  
G01 X20.9279 Y3.6413  
G01 X21.0195 Y3.5042  
G01 X21.1362 Y3.3875  
G01 X21.2733 Y3.2959  
G01 X21.4257 Y3.2328  
G01 X21.5875 Y3.2006  
G01 X21.7525 Y3.2006  
G01 X21.9143 Y3.2328  
G01 X22.0667 Y3.2959  
G01 X22.2038 Y3.3875  
G01 X22.3205 Y3.5042  
G01 X22.4121 Y3.6413  
G01 X22.4752 Y3.7937  
G01 X22.5074 Y3.9555  
G01 X22.5074 Y5.2434  
G01 X22.6229 Y5.3589  
G01 X22.6596 Y5.4225  
G01 X22.6786 Y5.4933  
G01 X22.6786 Y10.2367 
G01 X22.6596 Y10.3075 
G01 X22.6229 Y10.3711 
G01 X22.5711 Y10.4229 
G01 X19.2786 Y13.7154 
G01 X19.2786 Y14.2846 
G01 X24.3621 Y19.3681 
G01 X24.3741 Y19.3562 
G01 X24.4018 Y19.3447 
G01 X24.4318 Y19.3447 
G01 X24.4595 Y19.3562 
G01 X25.5414 Y20.4380 
G01 X25.5529 Y20.4658 
G01 X25.5529 Y20.4958 
G01 X25.5414 Y20.5235 
G01 X25.1666 Y20.8982 
G01 X25.1389 Y20.9097 
G01 X25.1089 Y20.9097 
G01 X25.0812 Y20.8982 
G00 Z1.2000  
G00 X28.4753 Y17.5041 
G01 Z-0.1778 F254   
G01 X27.3934 Y16.4223 F508   
G01 X27.3820 Y16.3945 
G01 X27.3820 Y16.3645 
G01 X27.3878 Y16.3504 
G01 X25.0771 Y14.0397 
G01 X25.0404 Y13.9762 
G01 X25.0214 Y13.9053 
G01 X25.0214 Y13.6633 
G01 X25.0404 Y13.5925 
G01 X25.0771 Y13.5289 
G01 X25.1289 Y13.4771 
G01 X28.1289 Y10.4771 
G01 X28.1925 Y10.4404 
G01 X28.2633 Y10.4214 
G01 X30.2846 Y10.4214 
G01 X34.3760 Y6.3300  
G01 X34.3133 Y6.3041  
G01 X34.1762 Y6.2125  
G01 X34.0595 Y6.0958  
G01 X33.9679 Y5.9587  
G01 X33.9048 Y5.8063  
G01 X33.8726 Y5.6445  
G01 X33.8726 Y3.9555  
G01 X33.9048 Y3.7937  
G01 X33.9679 Y3.6413  
G01 X34.0595 Y3.5042  
G01 X34.1762 Y3.3875  
G01 X34.3133 Y3.2959  
G01 X34.4657 Y3.2328  
G01 X34.6275 Y3.2006  
G01 X34.7925 Y3.2006  
G01 X34.9543 Y3.2328  
G01 X35.1067 Y3.2959  
G01 X35.2438 Y3.3875  
G01 X35.3605 Y3.5042  
G01 X35.4521 Y3.6413  
G01 X35.5152 Y3.7937  
G01 X35.5474 Y3.9555  
G01 X35.5474 Y5.6445  
G01 X35.5152 Y5.8063  
G01 X35.4521 Y5.9587  
G01 X35.3605 Y6.0958  
G01 X35.2438 Y6.2125  
G01 X35.1067 Y6.3041  
G01 X34.9886 Y6.3530  
G01 X34.9886 Y6.4267  
G01 X34.9696 Y6.4975  
G01 X34.9329 Y6.5611  
G01 X30.6229 Y10.8711 
G01 X30.5711 Y10.9229 
G01 X30.5075 Y10.9596 
G01 X30.4367 Y10.9786 
G01 X28.4154 Y10.9786 
G01 X25.6097 Y13.7843 
G01 X27.7818 Y15.9564 
G01 X27.7959 Y15.9506 
G01 X27.8259 Y15.9506 
G01 X27.8536 Y15.9621 
G01 X28.9355 Y17.0439 
G01 X28.9470 Y17.0716 
G01 X28.9470 Y17.1016 
G01 X28.9355 Y17.1294 
G01 X28.5607 Y17.5041 
G01 X28.5330 Y17.5156 
G01 X28.5030 Y17.5156 
G01 X28.4753 Y17.5041 
G00 Z1.2000  
G00 X29.6067 Y16.3727 
G01 Z-0.1778 F254   
G01 X28.5248 Y15.2909 F508   
G01 X28.5133 Y15.2632 
G01 X28.5133 Y15.2332 
G01 X28.5192 Y15.2191 
G01 X27.3787 Y14.0786 
G01 X27.3633 Y14.0786 
G01 X27.2925 Y14.0596 
G01 X27.2289 Y14.0229 
G01 X27.1771 Y13.9711 
G01 X27.1404 Y13.9075 
G01 X27.1214 Y13.8367 
G01 X27.1214 Y13.7633 
G01 X27.1404 Y13.6925 
G01 X27.1771 Y13.6289 
G01 X27.2289 Y13.5771 
G01 X28.5289 Y12.2771 
G01 X28.5925 Y12.2404 
G01 X28.6633 Y12.2214 
G01 X31.0846 Y12.2214 
G01 X36.0289 Y7.2771  
G01 X36.0925 Y7.2404  
G01 X36.1633 Y7.2214  
G01 X39.2846 Y7.2214  
G01 X39.5114 Y6.9946  
G01 X39.5114 Y6.3530  
G01 X39.3933 Y6.3041  
G01 X39.2562 Y6.2125  
G01 X39.1395 Y6.0958  
G01 X39.0479 Y5.9587  
G01 X38.9848 Y5.8063  
G01 X38.9526 Y5.6445  
G01 X38.9526 Y3.9555  
G01 X38.9848 Y3.7937  
G01 X39.0479 Y3.6413  
G01 X39.1395 Y3.5042  
G01 X39.2562 Y3.3875  
G01 X39.3933 Y3.2959  
G01 X39.5457 Y3.2328  
G01 X39.7075 Y3.2006  
G01 X39.8725 Y3.2006  
G01 X40.0343 Y3.2328  
G01 X40.1867 Y3.2959  
G01 X40.3238 Y3.3875  
G01 X40.4404 Y3.5042  
G01 X40.5321 Y3.6413  
G01 X40.5952 Y3.7937  
G01 X40.6274 Y3.9555  
G01 X40.6274 Y5.6445  
G01 X40.5952 Y5.8063  
G01 X40.5321 Y5.9587  
G01 X40.4404 Y6.0958  
G01 X40.3238 Y6.2125  
G01 X40.1867 Y6.3041  
G01 X40.0686 Y6.3530  
G01 X40.0686 Y7.1467  
G01 X40.0496 Y7.2175  
G01 X40.0129 Y7.2811  
G01 X39.6229 Y7.6711  
G01 X39.5711 Y7.7229  
G01 X39.5075 Y7.7596  
G01 X39.4367 Y7.7786  
G01 X36.3154 Y7.7786  
G01 X31.4229 Y12.6711 
G01 X31.3711 Y12.7229 
G01 X31.3075 Y12.7596 
G01 X31.2367 Y12.7786 
G01 X28.8154 Y12.7786 
G01 X27.8411 Y13.7529 
G01 X28.9132 Y14.8251 
G01 X28.9273 Y14.8192 
G01 X28.9573 Y14.8192 
G01 X28.9850 Y14.8307 
G01 X30.0669 Y15.9126 
G01 X30.0783 Y15.9403 
G01 X30.0783 Y15.9703 
G01 X30.0669 Y15.9980 
G01 X29.6921 Y16.3727 
G01 X29.6644 Y16.3842 
G01 X29.6344 Y16.3842 
G01 X29.6067 Y16.3727 
G00 Z1.2000  
G00 X15.4726 Y37.6445 
G01 Z-0.1778 F254   
G01 X15.4726 Y35.9555 F508   
G01 X15.5048 Y35.7937 
G01 X15.5679 Y35.6413 
G01 X15.6595 Y35.5042 
G01 X15.7762 Y35.3875 
G01 X15.9133 Y35.2959 
G01 X16.0657 Y35.2328 
G01 X16.2214 Y35.2018 
G01 X16.2214 Y32.2633 
G01 X16.2404 Y32.1925 
G01 X16.2771 Y32.1289 
G01 X16.3289 Y32.0771 
G01 X19.9289 Y28.4771 
G01 X19.9925 Y28.4404 
G01 X20.0633 Y28.4214 
G01 X26.6846 Y28.4214 
G01 X28.0181 Y27.0879 
G01 X27.9591 Y27.0289 
G01 X27.9476 Y27.0011 
G01 X27.9476 Y26.9711 
G01 X27.9591 Y26.9434 
G01 X29.0410 Y25.8616 
G01 X29.0687 Y25.8501 
G01 X29.0987 Y25.8501 
G01 X29.1264 Y25.8616 
G01 X29.5012 Y26.2363 
G01 X29.5127 Y26.2640 
G01 X29.5127 Y26.2940 
G01 X29.5012 Y26.3217 
G01 X29.0059 Y26.8170 
G01 X28.9898 Y26.8774 
G01 X28.9531 Y26.9409 
G01 X27.0229 Y28.8711 
G01 X26.9711 Y28.9229 
G01 X26.9075 Y28.9596 
G01 X26.8367 Y28.9786 
G01 X20.2154 Y28.9786 
G01 X16.7786 Y32.4154 
G01 X16.7786 Y35.3440 
G01 X16.8438 Y35.3875 
G01 X16.9605 Y35.5042 
G01 X17.0521 Y35.6413 
G01 X17.1152 Y35.7937 
G01 X17.1474 Y35.9555 
G01 X17.1474 Y37.6445 
G01 X17.1152 Y37.8063 
G01 X17.0521 Y37.9587 
G01 X16.9605 Y38.0958 
G01 X16.8438 Y38.2125 
G01 X16.7067 Y38.3041 
G01 X16.5543 Y38.3672 
G01 X16.3925 Y38.3994 
G01 X16.2275 Y38.3994 
G01 X16.0657 Y38.3672 
G01 X15.9133 Y38.3041 
G01 X15.7762 Y38.2125 
G01 X15.6595 Y38.0958 
G01 X15.5679 Y37.9587 
G01 X15.5048 Y37.8063 
G01 X15.4726 Y37.6445 
G00 Z1.2000  
G00 X18.0126 Y37.6445 
G01 Z-0.1778 F254   
G01 X18.0126 Y35.9555 F508   
G01 X18.0448 Y35.7937 
G01 X18.1079 Y35.6413 
G01 X18.1995 Y35.5042 
G01 X18.3162 Y35.3875 
G01 X18.4533 Y35.2959 
G01 X18.6057 Y35.2328 
G01 X18.6214 Y35.2297 
G01 X18.6214 Y32.0633 
G01 X18.6404 Y31.9925 
G01 X18.6771 Y31.9289 
G01 X18.7289 Y31.8771 
G01 X20.4289 Y30.1771 
G01 X20.4925 Y30.1404 
G01 X20.5633 Y30.1214 
G01 X26.0846 Y30.1214 
G01 X28.5681 Y27.6379 
G01 X28.5248 Y27.5945 
G01 X28.5133 Y27.5668 
G01 X28.5133 Y27.5368 
G01 X28.5248 Y27.5091 
G01 X29.6067 Y26.4272 
G01 X29.6344 Y26.4158 
G01 X29.6644 Y26.4158 
G01 X29.6921 Y26.4272 
G01 X30.0669 Y26.8020 
G01 X30.0783 Y26.8297 
G01 X30.0783 Y26.8597 
G01 X30.0669 Y26.8874 
G01 X29.5602 Y27.3941 
G01 X29.5554 Y27.4117 
G01 X29.5188 Y27.4752 
G01 X26.4229 Y30.5711 
G01 X26.3711 Y30.6229 
G01 X26.3075 Y30.6596 
G01 X26.2367 Y30.6786 
G01 X20.7154 Y30.6786 
G01 X19.1786 Y32.2154 
G01 X19.1786 Y35.2677 
G01 X19.2467 Y35.2959 
G01 X19.3838 Y35.3875 
G01 X19.5005 Y35.5042 
G01 X19.5921 Y35.6413 
G01 X19.6552 Y35.7937 
G01 X19.6874 Y35.9555 
G01 X19.6874 Y37.6445 
G01 X19.6552 Y37.8063 
G01 X19.5921 Y37.9587 
G01 X19.5005 Y38.0958 
G01 X19.3838 Y38.2125 
G01 X19.2467 Y38.3041 
G01 X19.0943 Y38.3672 
G01 X18.9325 Y38.3994 
G01 X18.7675 Y38.3994 
G01 X18.6057 Y38.3672 
G01 X18.4533 Y38.3041 
G01 X18.3162 Y38.2125 
G01 X18.1995 Y38.0958 
G01 X18.1079 Y37.9587 
G01 X18.0448 Y37.8063 
G01 X18.0126 Y37.6445 
G00 Z1.2000  
G00 X23.0926 Y37.6445 
G01 Z-0.1778 F254   
G01 X23.0926 Y35.9555 F508   
G01 X23.1248 Y35.7937 
G01 X23.1879 Y35.6413 
G01 X23.2795 Y35.5042 
G01 X23.3962 Y35.3875 
G01 X23.4214 Y35.3707 
G01 X23.4214 Y34.3633 
G01 X23.4404 Y34.2925 
G01 X23.4771 Y34.2289 
G01 X23.5289 Y34.1771 
G01 X24.0289 Y33.6771 
G01 X24.0925 Y33.6404 
G01 X24.1633 Y33.6214 
G01 X24.7846 Y33.6214 
G01 X29.6681 Y28.7379 
G01 X29.6562 Y28.7259 
G01 X29.6447 Y28.6982 
G01 X29.6447 Y28.6682 
G01 X29.6562 Y28.6405 
G01 X30.7380 Y27.5586 
G01 X30.7658 Y27.5471 
G01 X30.7958 Y27.5471 
G01 X30.8235 Y27.5586 
G01 X31.1982 Y27.9334 
G01 X31.2097 Y27.9611 
G01 X31.2097 Y27.9911 
G01 X31.1982 Y28.0188 
G01 X30.1164 Y29.1007 
G01 X30.0887 Y29.1121 
G01 X30.0819 Y29.1121 
G01 X25.1229 Y34.0711 
G01 X25.0711 Y34.1229 
G01 X25.0075 Y34.1596 
G01 X24.9367 Y34.1786 
G01 X24.3154 Y34.1786 
G01 X23.9786 Y34.5154 
G01 X23.9786 Y35.2006 
G01 X24.0125 Y35.2006 
G01 X24.1743 Y35.2328 
G01 X24.3267 Y35.2959 
G01 X24.4638 Y35.3875 
G01 X24.5805 Y35.5042 
G01 X24.6721 Y35.6413 
G01 X24.7352 Y35.7937 
G01 X24.7674 Y35.9555 
G01 X24.7674 Y37.6445 
G01 X24.7352 Y37.8063 
G01 X24.6721 Y37.9587 
G01 X24.5805 Y38.0958 
G01 X24.4638 Y38.2125 
G01 X24.3267 Y38.3041 
G01 X24.1743 Y38.3672 
G01 X24.0125 Y38.3994 
G01 X23.8475 Y38.3994 
G01 X23.6857 Y38.3672 
G01 X23.5333 Y38.3041 
G01 X23.3962 Y38.2125 
G01 X23.2795 Y38.0958 
G01 X23.1879 Y37.9587 
G01 X23.1248 Y37.8063 
G01 X23.0926 Y37.6445 
G00 Z1.2000  
G00 X10.6726 Y5.6445  
G01 Z-0.1778 F254   
G01 X10.6726 Y3.9555  F508   
G01 X10.7048 Y3.7937  
G01 X10.7679 Y3.6413  
G01 X10.8595 Y3.5042  
G01 X10.9762 Y3.3875  
G01 X11.1133 Y3.2959  
G01 X11.2657 Y3.2328  
G01 X11.4275 Y3.2006  
G01 X11.5925 Y3.2006  
G01 X11.7543 Y3.2328  
G01 X11.9067 Y3.2959  
G01 X12.0438 Y3.3875  
G01 X12.1605 Y3.5042  
G01 X12.2521 Y3.6413  
G01 X12.3152 Y3.7937  
G01 X12.3474 Y3.9555  
G01 X12.3474 Y5.6445  
G01 X12.3152 Y5.8063  
G01 X12.2786 Y5.8947  
G01 X12.2786 Y12.2846 
G01 X20.4229 Y20.4289 
G01 X20.4596 Y20.4925 
G01 X20.4786 Y20.5633 
G01 X20.4786 Y22.2846 
G01 X23.3154 Y25.1214 
G01 X25.2846 Y25.1214 
G01 X25.6849 Y24.7211 
G01 X25.6849 Y24.7084 
G01 X25.6964 Y24.6807 
G01 X26.7782 Y23.5988 
G01 X26.8060 Y23.5873 
G01 X26.8360 Y23.5873 
G01 X26.8637 Y23.5988 
G01 X27.2384 Y23.9736 
G01 X27.2499 Y24.0013 
G01 X27.2499 Y24.0313 
G01 X27.2384 Y24.0590 
G01 X26.1566 Y25.1409 
G01 X26.1289 Y25.1524 
G01 X26.0989 Y25.1524 
G01 X26.0711 Y25.1409 
G01 X26.0621 Y25.1319 
G01 X25.6229 Y25.5711 
G01 X25.5711 Y25.6229 
G01 X25.5075 Y25.6596 
G01 X25.4367 Y25.6786 
G01 X23.1633 Y25.6786 
G01 X23.0925 Y25.6596 
G01 X23.0289 Y25.6229 
G01 X20.0289 Y22.6229 
G01 X19.9771 Y22.5711 
G01 X19.9404 Y22.5075 
G01 X19.9214 Y22.4367 
G01 X19.9214 Y20.7154 
G01 X11.8289 Y12.6229 
G01 X11.7771 Y12.5711 
G01 X11.7404 Y12.5075 
G01 X11.7214 Y12.4367 
G01 X11.7214 Y6.3738  
G01 X11.5925 Y6.3994  
G01 X11.4275 Y6.3994  
G01 X11.2657 Y6.3672  
G01 X11.1133 Y6.3041  
G01 X10.9762 Y6.2125  
G01 X10.8595 Y6.0958  
G01 X10.7679 Y5.9587  
G01 X10.7048 Y5.8063  
G01 X10.6726 Y5.6445  
G00 Z1.2000  
G00 X15.7526 Y5.6445  
G01 Z-0.1778 F254   
G01 X15.7526 Y3.9555  F508   
G01 X15.7848 Y3.7937  
G01 X15.8479 Y3.6413  
G01 X15.9395 Y3.5042  
G01 X16.0562 Y3.3875  
G01 X16.1933 Y3.2959  
G01 X16.3457 Y3.2328  
G01 X16.5075 Y3.2006  
G01 X16.6725 Y3.2006  
G01 X16.8343 Y3.2328  
G01 X16.9867 Y3.2959  
G01 X17.1238 Y3.3875  
G01 X17.2404 Y3.5042  
G01 X17.3321 Y3.6413  
G01 X17.3952 Y3.7937  
G01 X17.4274 Y3.9555  
G01 X17.4274 Y5.6445  
G01 X17.3952 Y5.8063  
G01 X17.3321 Y5.9587  
G01 X17.2404 Y6.0958  
G01 X17.1238 Y6.2125  
G01 X17.0786 Y6.2427  
G01 X17.0786 Y14.4846 
G01 X23.0229 Y20.4289 
G01 X23.0596 Y20.4925 
G01 X23.0786 Y20.5633 
G01 X23.0786 Y22.2846 
G01 X24.5000 Y23.7060 
G01 X24.5681 Y23.6379 
G01 X24.5650 Y23.6347 
G01 X24.5535 Y23.6070 
G01 X24.5535 Y23.5770 
G01 X24.5650 Y23.5493 
G01 X25.6469 Y22.4674 
G01 X25.6746 Y22.4560 
G01 X25.7046 Y22.4560 
G01 X25.7323 Y22.4674 
G01 X26.1071 Y22.8422 
G01 X26.1185 Y22.8699 
G01 X26.1185 Y22.8999 
G01 X26.1071 Y22.9276 
G01 X25.0252 Y24.0095 
G01 X24.9975 Y24.0210 
G01 X24.9730 Y24.0210 
G01 X24.8229 Y24.1711 
G01 X24.7711 Y24.2229 
G01 X24.7075 Y24.2596 
G01 X24.6367 Y24.2786 
G01 X24.3633 Y24.2786 
G01 X24.2925 Y24.2596 
G01 X24.2289 Y24.2229 
G01 X22.6289 Y22.6229 
G01 X22.5771 Y22.5711 
G01 X22.5404 Y22.5075 
G01 X22.5214 Y22.4367 
G01 X22.5214 Y20.7154 
G01 X16.6289 Y14.8229 
G01 X16.5771 Y14.7711 
G01 X16.5404 Y14.7075 
G01 X16.5214 Y14.6367 
G01 X16.5214 Y6.3994  
G01 X16.5075 Y6.3994  
G01 X16.3457 Y6.3672  
G01 X16.1933 Y6.3041  
G01 X16.0562 Y6.2125  
G01 X15.9395 Y6.0958  
G01 X15.8479 Y5.9587  
G01 X15.7848 Y5.8063  
G01 X15.7526 Y5.6445  
G00 Z1.2000  
G00 X23.3726 Y5.6445  
G01 Z-0.1778 F254   
G01 X23.3726 Y3.9555  F508   
G01 X23.4048 Y3.7937  
G01 X23.4679 Y3.6413  
G01 X23.5595 Y3.5042  
G01 X23.6762 Y3.3875  
G01 X23.8133 Y3.2959  
G01 X23.9657 Y3.2328  
G01 X24.1275 Y3.2006  
G01 X24.2925 Y3.2006  
G01 X24.4543 Y3.2328  
G01 X24.6067 Y3.2959  
G01 X24.7438 Y3.3875  
G01 X24.8605 Y3.5042  
G01 X24.9521 Y3.6413  
G01 X25.0152 Y3.7937  
G01 X25.0474 Y3.9555  
G01 X25.0474 Y5.6445  
G01 X25.0152 Y5.8063  
G01 X24.9521 Y5.9587  
G01 X24.8605 Y6.0958  
G01 X24.7438 Y6.2125  
G01 X24.6067 Y6.3041  
G01 X24.4886 Y6.3530  
G01 X24.4886 Y10.0267 
G01 X24.4696 Y10.0975 
G01 X24.4329 Y10.1611 
G01 X20.3813 Y14.2127 
G01 X24.9534 Y18.7849 
G01 X24.9675 Y18.7790 
G01 X24.9975 Y18.7790 
G01 X25.0252 Y18.7905 
G01 X26.1071 Y19.8724 
G01 X26.1185 Y19.9001 
G01 X26.1185 Y19.9301 
G01 X26.1071 Y19.9578 
G01 X25.7323 Y20.3325 
G01 X25.7046 Y20.3440 
G01 X25.6746 Y20.3440 
G01 X25.6469 Y20.3325 
G01 X24.5650 Y19.2507 
G01 X24.5535 Y19.2230 
G01 X24.5535 Y19.1930 
G01 X24.5594 Y19.1789 
G01 X19.9967 Y14.6162 
G01 X19.9887 Y14.6108 
G01 X19.9708 Y14.5903 
G01 X19.9516 Y14.5711 
G01 X19.9468 Y14.5628 
G01 X19.7963 Y14.3903 
G01 X19.7771 Y14.3711 
G01 X19.7723 Y14.3628 
G01 X19.7660 Y14.3555 
G01 X19.7540 Y14.3311 
G01 X19.7404 Y14.3075 
G01 X19.7379 Y14.2983 
G01 X19.7337 Y14.2897 
G01 X19.7284 Y14.2630 
G01 X19.7214 Y14.2367 
G01 X19.7214 Y14.2271 
G01 X19.7196 Y14.2177 
G01 X19.7214 Y14.1905 
G01 X19.7214 Y14.1633 
G01 X19.7239 Y14.1541 
G01 X19.7245 Y14.1445 
G01 X19.7333 Y14.1187 
G01 X19.7404 Y14.0925 
G01 X19.7452 Y14.0842 
G01 X19.7483 Y14.0751 
G01 X19.7635 Y14.0525 
G01 X19.7771 Y14.0289 
G01 X19.7838 Y14.0222 
G01 X19.7892 Y14.0142 
G01 X19.8097 Y13.9963 
G01 X23.9314 Y9.8746  
G01 X23.9314 Y6.3530  
G01 X23.8133 Y6.3041  
G01 X23.6762 Y6.2125  
G01 X23.5595 Y6.0958  
G01 X23.4679 Y5.9587  
G01 X23.4048 Y5.8063  
G01 X23.3726 Y5.6445  
G00 Z1.2000  
G00 X25.9126 Y5.6445  
G01 Z-0.1778 F254   
G01 X25.9126 Y3.9555  F508   
G01 X25.9448 Y3.7937  
G01 X26.0079 Y3.6413  
G01 X26.0995 Y3.5042  
G01 X26.2162 Y3.3875  
G01 X26.3533 Y3.2959  
G01 X26.5057 Y3.2328  
G01 X26.6675 Y3.2006  
G01 X26.8325 Y3.2006  
G01 X26.9943 Y3.2328  
G01 X27.1467 Y3.2959  
G01 X27.2838 Y3.3875  
G01 X27.4005 Y3.5042  
G01 X27.4921 Y3.6413  
G01 X27.5552 Y3.7937  
G01 X27.5874 Y3.9555  
G01 X27.5874 Y5.6445  
G01 X27.5552 Y5.8063  
G01 X27.4921 Y5.9587  
G01 X27.4005 Y6.0958  
G01 X27.2838 Y6.2125  
G01 X27.1467 Y6.3041  
G01 X27.0286 Y6.3530  
G01 X27.0286 Y8.6867  
G01 X27.0096 Y8.7575  
G01 X26.9729 Y8.8211  
G01 X21.6786 Y14.1154 
G01 X21.6786 Y14.3787 
G01 X25.5191 Y18.2192 
G01 X25.5332 Y18.2133 
G01 X25.5632 Y18.2133 
G01 X25.5909 Y18.2248 
G01 X26.6727 Y19.3067 
G01 X26.6842 Y19.3344 
G01 X26.6842 Y19.3644 
G01 X26.6727 Y19.3921 
G01 X26.2980 Y19.7669 
G01 X26.2703 Y19.7783 
G01 X26.2403 Y19.7783 
G01 X26.2126 Y19.7669 
G01 X25.1307 Y18.6850 
G01 X25.1192 Y18.6573 
G01 X25.1192 Y18.6273 
G01 X25.1251 Y18.6132 
G01 X21.1771 Y14.6652 
G01 X21.1404 Y14.6016 
G01 X21.1214 Y14.5308 
G01 X21.1214 Y13.9633 
G01 X21.1404 Y13.8925 
G01 X21.1771 Y13.8289 
G01 X21.2289 Y13.7771 
G01 X26.4714 Y8.5346  
G01 X26.4714 Y6.3530  
G01 X26.3533 Y6.3041  
G01 X26.2162 Y6.2125  
G01 X26.0995 Y6.0958  
G01 X26.0079 Y5.9587  
G01 X25.9448 Y5.8063  
G01 X25.9126 Y5.6445  
G00 Z1.2000  
G00 X28.4526 Y5.6445  
G01 Z-0.1778 F254   
G01 X28.4526 Y3.9555  F508   
G01 X28.4848 Y3.7937  
G01 X28.5479 Y3.6413  
G01 X28.6395 Y3.5042  
G01 X28.7562 Y3.3875  
G01 X28.8933 Y3.2959  
G01 X29.0457 Y3.2328  
G01 X29.2075 Y3.2006  
G01 X29.3725 Y3.2006  
G01 X29.5343 Y3.2328  
G01 X29.6867 Y3.2959  
G01 X29.8238 Y3.3875  
G01 X29.9405 Y3.5042  
G01 X30.0321 Y3.6413  
G01 X30.0952 Y3.7937  
G01 X30.1274 Y3.9555  
G01 X30.1274 Y5.6445  
G01 X30.0952 Y5.8063  
G01 X30.0321 Y5.9587  
G01 X29.9405 Y6.0958  
G01 X29.8238 Y6.2125  
G01 X29.6867 Y6.3041  
G01 X29.5686 Y6.3530  
G01 X29.5686 Y7.3467  
G01 X29.5496 Y7.4175  
G01 X29.5129 Y7.4811  
G01 X23.1940 Y13.8000 
G01 X25.9711 Y16.5771 
G01 X26.0229 Y16.6289 
G01 X26.0596 Y16.6925 
G01 X26.0786 Y16.7633 
G01 X26.0786 Y17.6473 
G01 X26.0847 Y17.6535 
G01 X26.0989 Y17.6476 
G01 X26.1289 Y17.6476 
G01 X26.1566 Y17.6591 
G01 X27.2384 Y18.7410 
G01 X27.2499 Y18.7687 
G01 X27.2499 Y18.7987 
G01 X27.2384 Y18.8264 
G01 X26.8637 Y19.2012 
G01 X26.8360 Y19.2127 
G01 X26.8060 Y19.2127 
G01 X26.7782 Y19.2012 
G01 X25.6964 Y18.1193 
G01 X25.6849 Y18.0916 
G01 X25.6849 Y18.0616 
G01 X25.6908 Y18.0475 
G01 X25.5771 Y17.9338 
G01 X25.5404 Y17.8703 
G01 X25.5214 Y17.7994 
G01 X25.5214 Y16.9154 
G01 X22.5771 Y13.9711 
G01 X22.5404 Y13.9075 
G01 X22.5214 Y13.8367 
G01 X22.5214 Y13.7633 
G01 X22.5404 Y13.6925 
G01 X22.5771 Y13.6289 
G01 X22.6289 Y13.5771 
G01 X29.0114 Y7.1946  
G01 X29.0114 Y6.3530  
G01 X28.8933 Y6.3041  
G01 X28.7562 Y6.2125  
G01 X28.6395 Y6.0958  
G01 X28.5479 Y5.9587  
G01 X28.4848 Y5.8063  
G01 X28.4526 Y5.6445  
G00 Z1.2000  
G00 X53.3274 Y3.9555  
G01 Z-0.1778 F254   
G01 X53.3274 Y5.6445  F508   
G01 X53.2952 Y5.8063  
G01 X53.2321 Y5.9587  
G01 X53.1405 Y6.0958  
G01 X53.0238 Y6.2125  
G01 X52.8867 Y6.3041  
G01 X52.7343 Y6.3672  
G01 X52.5725 Y6.3994  
G01 X52.4075 Y6.3994  
G01 X52.2786 Y6.3738  
G01 X52.2786 Y10.8640 
G01 X52.2786 Y10.9009 
G01 X52.2786 Y10.9367 
G01 X52.2689 Y10.9728 
G01 X52.2596 Y11.0075 
G01 X52.2411 Y11.0396 
G01 X52.2229 Y11.0711 
G01 X51.5410 Y12.2398 
G01 X51.5229 Y12.2711 
G01 X51.4966 Y12.2974 
G01 X51.4711 Y12.3229 
G01 X51.4389 Y12.3415 
G01 X51.4075 Y12.3596 
G01 X51.3714 Y12.3693 
G01 X51.3367 Y12.3786 
G01 X51.2991 Y12.3786 
G01 X37.9109 Y12.3786 
G01 X34.8867 Y15.2392 
G01 X34.8867 Y15.2632 
G01 X34.8752 Y15.2909 
G01 X33.7933 Y16.3727 
G01 X33.7656 Y16.3842 
G01 X33.7356 Y16.3842 
G01 X33.7079 Y16.3727 
G01 X33.3331 Y15.9980 
G01 X33.3217 Y15.9703 
G01 X33.3217 Y15.9403 
G01 X33.3331 Y15.9126 
G01 X34.4150 Y14.8307 
G01 X34.4427 Y14.8192 
G01 X34.4727 Y14.8192 
G01 X34.5004 Y14.8307 
G01 X34.5039 Y14.8342 
G01 X37.6057 Y11.9003 
G01 X37.6289 Y11.8771 
G01 X37.6323 Y11.8751 
G01 X37.6352 Y11.8724 
G01 X37.6640 Y11.8568 
G01 X37.6925 Y11.8404 
G01 X37.6963 Y11.8394 
G01 X37.6997 Y11.8375 
G01 X37.7316 Y11.8299 
G01 X37.7633 Y11.8214 
G01 X37.7673 Y11.8214 
G01 X37.7711 Y11.8205 
G01 X37.8039 Y11.8214 
G01 X51.1400 Y11.8214 
G01 X51.7214 Y10.8247 
G01 X51.7214 Y5.8947  
G01 X51.6848 Y5.8063  
G01 X51.6526 Y5.6445  
G01 X51.6526 Y3.9555  
G01 X51.6848 Y3.7937  
G01 X51.7479 Y3.6413  
G01 X51.8395 Y3.5042  
G01 X51.9562 Y3.3875  
G01 X52.0933 Y3.2959  
G01 X52.2457 Y3.2328  
G01 X52.4075 Y3.2006  
G01 X52.5725 Y3.2006  
G01 X52.7343 Y3.2328  
G01 X52.8867 Y3.2959  
G01 X53.0238 Y3.3875  
G01 X53.1405 Y3.5042  
G01 X53.2321 Y3.6413  
G01 X53.2952 Y3.7937  
G01 X53.3274 Y3.9555  
G00 Z1.2000  
G00 X45.7074 Y3.9555  
G01 Z-0.1778 F254   
G01 X45.7074 Y5.6445  F508   
G01 X45.6752 Y5.8063  
G01 X45.6121 Y5.9587  
G01 X45.5205 Y6.0958  
G01 X45.4038 Y6.2125  
G01 X45.2667 Y6.3041  
G01 X45.1486 Y6.3530  
G01 X45.1486 Y7.6667  
G01 X45.1296 Y7.7375  
G01 X45.0929 Y7.8011  
G01 X43.5229 Y9.3711  
G01 X43.4711 Y9.4229  
G01 X43.4075 Y9.4596  
G01 X43.3367 Y9.4786  
G01 X37.2154 Y9.4786  
G01 X32.2229 Y14.4711 
G01 X32.1711 Y14.5229 
G01 X32.1075 Y14.5596 
G01 X32.0367 Y14.5786 
G01 X30.9956 Y14.5786 
G01 X31.1982 Y14.7812 
G01 X31.2097 Y14.8089 
G01 X31.2097 Y14.8389 
G01 X31.1982 Y14.8666 
G01 X30.8235 Y15.2414 
G01 X30.7958 Y15.2529 
G01 X30.7658 Y15.2529 
G01 X30.7380 Y15.2414 
G01 X29.6562 Y14.1595 
G01 X29.6447 Y14.1318 
G01 X29.6447 Y14.1018 
G01 X29.6562 Y14.0741 
G01 X30.0309 Y13.6993 
G01 X30.0587 Y13.6878 
G01 X30.0887 Y13.6878 
G01 X30.1164 Y13.6993 
G01 X30.4694 Y14.0523 
G01 X30.4900 Y14.0404 
G01 X30.5609 Y14.0214 
G01 X31.8846 Y14.0214 
G01 X36.9289 Y8.9771  
G01 X36.9925 Y8.9404  
G01 X37.0633 Y8.9214  
G01 X43.1846 Y8.9214  
G01 X44.5914 Y7.5146  
G01 X44.5914 Y6.3530  
G01 X44.4733 Y6.3041  
G01 X44.3362 Y6.2125  
G01 X44.2195 Y6.0958  
G01 X44.1279 Y5.9587  
G01 X44.0648 Y5.8063  
G01 X44.0326 Y5.6445  
G01 X44.0326 Y3.9555  
G01 X44.0648 Y3.7937  
G01 X44.1279 Y3.6413  
G01 X44.2195 Y3.5042  
G01 X44.3362 Y3.3875  
G01 X44.4733 Y3.2959  
G01 X44.6257 Y3.2328  
G01 X44.7875 Y3.2006  
G01 X44.9525 Y3.2006  
G01 X45.1143 Y3.2328  
G01 X45.2667 Y3.2959  
G01 X45.4038 Y3.3875  
G01 X45.5205 Y3.5042  
G01 X45.6121 Y3.6413  
G01 X45.6752 Y3.7937  
G01 X45.7074 Y3.9555  
G00 Z1.2000  
G00 X4.7246  Y14.9150 
G01 Z-0.1778 F254   
G01 X4.7246  Y13.6850 F508   
G01 X4.7361  Y13.6573 
G01 X4.7573  Y13.6361 
G01 X4.7850  Y13.6246 
G01 X5.8150  Y13.6246 
G01 X5.8427  Y13.6361 
G01 X5.8639  Y13.6573 
G01 X5.8754  Y13.6850 
G01 X5.8754  Y14.0214 
G01 X11.0367 Y14.0214 
G01 X11.1075 Y14.0404 
G01 X11.1711 Y14.0771 
G01 X22.9154 Y25.8214 
G01 X25.4973 Y25.8214 
G01 X26.7752 Y24.7308 
G01 X26.7934 Y24.7126 
G01 X26.7992 Y24.7093 
G01 X27.3439 Y24.1645 
G01 X27.3716 Y24.1530 
G01 X27.4016 Y24.1530 
G01 X27.4294 Y24.1645 
G01 X27.8041 Y24.5393 
G01 X27.8156 Y24.5670 
G01 X27.8156 Y24.5970 
G01 X27.8041 Y24.6247 
G01 X26.7223 Y25.7066 
G01 X26.6945 Y25.7180 
G01 X26.6645 Y25.7180 
G01 X26.6368 Y25.7066 
G01 X26.5693 Y25.6390 
G01 X25.7892 Y26.3048 
G01 X25.7711 Y26.3229 
G01 X25.7614 Y26.3285 
G01 X25.7530 Y26.3357 
G01 X25.7298 Y26.3468 
G01 X25.7075 Y26.3596 
G01 X25.6968 Y26.3625 
G01 X25.6867 Y26.3673 
G01 X25.6615 Y26.3720 
G01 X25.6367 Y26.3786 
G01 X25.6255 Y26.3786 
G01 X25.6146 Y26.3806 
G01 X25.5890 Y26.3786 
G01 X22.7633 Y26.3786 
G01 X22.6925 Y26.3596 
G01 X22.6289 Y26.3229 
G01 X22.5771 Y26.2711 
G01 X10.8846 Y14.5786 
G01 X5.8754  Y14.5786 
G01 X5.8754  Y14.9150 
G01 X5.8639  Y14.9427 
G01 X5.8427  Y14.9639 
G01 X5.8150  Y14.9754 
G01 X4.7850  Y14.9754 
G01 X4.7573  Y14.9639 
G01 X4.7361  Y14.9427 
G01 X4.7246  Y14.9150 
G00 Z1.2000  
G00 X62.9594 Y17.3983 
G01 Z-0.1778 F254   
G01 X62.9594 Y17.5617 F508   
G01 X62.9275 Y17.7219 
G01 X62.8650 Y17.8729 
G01 X62.7742 Y18.0087 
G01 X62.6587 Y18.1242 
G01 X62.5229 Y18.2150 
G01 X62.3719 Y18.2775 
G01 X62.2117 Y18.3094 
G01 X62.0483 Y18.3094 
G01 X61.8881 Y18.2775 
G01 X61.7371 Y18.2150 
G01 X61.6013 Y18.1242 
G01 X61.4858 Y18.0087 
G01 X61.3950 Y17.8729 
G01 X61.3325 Y17.7219 
G01 X61.3006 Y17.5617 
G01 X61.3006 Y17.3983 
G01 X61.3325 Y17.2381 
G01 X61.3950 Y17.0871 
G01 X61.4858 Y16.9513 
G01 X61.6013 Y16.8358 
G01 X61.7371 Y16.7450 
G01 X61.8881 Y16.6825 
G01 X62.0483 Y16.6506 
G01 X62.2117 Y16.6506 
G01 X62.3719 Y16.6825 
G01 X62.5229 Y16.7450 
G01 X62.6587 Y16.8358 
G01 X62.7742 Y16.9513 
G01 X62.8650 Y17.0871 
G01 X62.9275 Y17.2381 
G01 X62.9594 Y17.3983 
G00 Z1.2000  
G00 X62.9594 Y14.8583 
G01 Z-0.1778 F254   
G01 X62.9594 Y15.0217 F508   
G01 X62.9275 Y15.1819 
G01 X62.8650 Y15.3329 
G01 X62.7742 Y15.4687 
G01 X62.6587 Y15.5842 
G01 X62.5229 Y15.6750 
G01 X62.3719 Y15.7375 
G01 X62.2117 Y15.7694 
G01 X62.0483 Y15.7694 
G01 X61.8881 Y15.7375 
G01 X61.7371 Y15.6750 
G01 X61.6013 Y15.5842 
G01 X61.4858 Y15.4687 
G01 X61.3950 Y15.3329 
G01 X61.3325 Y15.1819 
G01 X61.3006 Y15.0217 
G01 X61.3006 Y14.8583 
G01 X61.3325 Y14.6981 
G01 X61.3950 Y14.5471 
G01 X61.4858 Y14.4113 
G01 X61.6013 Y14.2958 
G01 X61.7371 Y14.2050 
G01 X61.8881 Y14.1425 
G01 X62.0483 Y14.1106 
G01 X62.2117 Y14.1106 
G01 X62.3719 Y14.1425 
G01 X62.5229 Y14.2050 
G01 X62.6587 Y14.2958 
G01 X62.7742 Y14.4113 
G01 X62.8650 Y14.5471 
G01 X62.9275 Y14.6981 
G01 X62.9594 Y14.8583 
G00 Z1.2000  
G00 X65.4994 Y14.8583 
G01 Z-0.1778 F254   
G01 X65.4994 Y15.0217 F508   
G01 X65.4675 Y15.1819 
G01 X65.4114 Y15.3174 
G01 X67.8711 Y17.7771 
G01 X67.9229 Y17.8289 
G01 X67.9596 Y17.8925 
G01 X67.9786 Y17.9633 
G01 X67.9786 Y19.5025 
G01 X67.9596 Y19.5733 
G01 X67.9229 Y19.6368 
G01 X61.3975 Y26.1623 
G01 X61.5646 Y26.3295 
G01 X61.5761 Y26.3572 
G01 X61.5761 Y26.3872 
G01 X61.5646 Y26.4149 
G01 X60.6949 Y27.2846 
G01 X60.6672 Y27.2961 
G01 X60.6372 Y27.2961 
G01 X60.6095 Y27.2846 
G01 X59.8812 Y26.5563 
G01 X59.8697 Y26.5286 
G01 X59.8697 Y26.4986 
G01 X59.8812 Y26.4709 
G01 X60.1190 Y26.2330 
G01 X55.8170 Y21.9310 
G01 X55.5791 Y22.1688 
G01 X55.5514 Y22.1803 
G01 X55.5214 Y22.1803 
G01 X55.4937 Y22.1688 
G01 X54.7654 Y21.4405 
G01 X54.7539 Y21.4128 
G01 X54.7539 Y21.3828 
G01 X54.7654 Y21.3551 
G01 X55.6351 Y20.4854 
G01 X55.6628 Y20.4739 
G01 X55.6928 Y20.4739 
G01 X55.7205 Y20.4854 
G01 X56.0137 Y20.7785 
G01 X56.5801 Y20.3627 
G01 X51.0805 Y14.5786 
G01 X39.3102 Y14.5786 
G01 X36.1950 Y17.4990 
G01 X36.1723 Y17.5217 
G01 X36.1683 Y17.5240 
G01 X36.1650 Y17.5271 
G01 X36.1367 Y17.5423 
G01 X36.1088 Y17.5584 
G01 X36.1043 Y17.5596 
G01 X36.1003 Y17.5617 
G01 X36.0690 Y17.5690 
G01 X36.0379 Y17.5774 
G01 X36.0333 Y17.5774 
G01 X36.0289 Y17.5784 
G01 X35.9967 Y17.5774 
G01 X35.9828 Y17.5774 
G01 X35.4904 Y18.0698 
G01 X35.4627 Y18.0813 
G01 X35.4327 Y18.0813 
G01 X35.4050 Y18.0698 
G01 X35.0302 Y17.6950 
G01 X35.0187 Y17.6673 
G01 X35.0187 Y17.6373 
G01 X35.0302 Y17.6096 
G01 X36.1121 Y16.5278 
G01 X36.1398 Y16.5163 
G01 X36.1698 Y16.5163 
G01 X36.1975 Y16.5278 
G01 X36.3034 Y16.6336 
G01 X39.0062 Y14.0998 
G01 X39.0289 Y14.0771 
G01 X39.0329 Y14.0748 
G01 X39.0362 Y14.0717 
G01 X39.0646 Y14.0565 
G01 X39.0925 Y14.0404 
G01 X39.0969 Y14.0392 
G01 X39.1009 Y14.0371 
G01 X39.1322 Y14.0297 
G01 X39.1633 Y14.0214 
G01 X39.1679 Y14.0214 
G01 X39.1723 Y14.0204 
G01 X39.2045 Y14.0214 
G01 X51.1669 Y14.0214 
G01 X51.1704 Y14.0206 
G01 X51.2035 Y14.0214 
G01 X51.2367 Y14.0214 
G01 X51.2401 Y14.0223 
G01 X51.2437 Y14.0224 
G01 X51.2755 Y14.0318 
G01 X51.3075 Y14.0404 
G01 X51.3106 Y14.0422 
G01 X51.3140 Y14.0432 
G01 X51.3423 Y14.0605 
G01 X51.3711 Y14.0771 
G01 X51.3766 Y14.0814 
G01 X51.3994 Y14.1054 
G01 X51.4229 Y14.1289 
G01 X51.4247 Y14.1320 
G01 X57.1889 Y20.1944 
G01 X57.2029 Y20.2056 
G01 X57.2141 Y20.2209 
G01 X57.2272 Y20.2346 
G01 X57.2357 Y20.2503 
G01 X57.2463 Y20.2647 
G01 X57.2532 Y20.2824 
G01 X57.2622 Y20.2990 
G01 X57.2664 Y20.3164 
G01 X57.2729 Y20.3330 
G01 X57.2750 Y20.3519 
G01 X57.2794 Y20.3704 
G01 X57.2790 Y20.3882 
G01 X57.2809 Y20.4060 
G01 X57.2781 Y20.4247 
G01 X57.2776 Y20.4437 
G01 X57.2725 Y20.4608 
G01 X57.2698 Y20.4785 
G01 X57.2622 Y20.4958 
G01 X57.2568 Y20.5140 
G01 X57.2475 Y20.5293 
G01 X57.2403 Y20.5456 
G01 X57.2284 Y20.5604 
G01 X57.2186 Y20.5766 
G01 X57.2056 Y20.5889 
G01 X57.1944 Y20.6029 
G01 X57.1791 Y20.6141 
G01 X57.1654 Y20.6272 
G01 X57.1497 Y20.6357 
G01 X56.4123 Y21.1771 
G01 X56.4488 Y21.2137 
G01 X56.4603 Y21.2414 
G01 X56.4603 Y21.2714 
G01 X56.4488 Y21.2991 
G01 X56.2110 Y21.5370 
G01 X60.5130 Y25.8390 
G01 X60.7509 Y25.6012 
G01 X60.7786 Y25.5897 
G01 X60.8086 Y25.5897 
G01 X60.8363 Y25.6012 
G01 X61.0035 Y25.7683 
G01 X67.4214 Y19.3504 
G01 X67.4214 Y18.1154 
G01 X65.0050 Y15.6990 
G01 X64.9119 Y15.7375 
G01 X64.7517 Y15.7694 
G01 X64.5883 Y15.7694 
G01 X64.4281 Y15.7375 
G01 X64.2771 Y15.6750 
G01 X64.1413 Y15.5842 
G01 X64.0258 Y15.4687 
G01 X63.9350 Y15.3329 
G01 X63.8725 Y15.1819 
G01 X63.8406 Y15.0217 
G01 X63.8406 Y14.8583 
G01 X63.8725 Y14.6981 
G01 X63.9350 Y14.5471 
G01 X64.0258 Y14.4113 
G01 X64.1413 Y14.2958 
G01 X64.2771 Y14.2050 
G01 X64.4281 Y14.1425 
G01 X64.5883 Y14.1106 
G01 X64.7517 Y14.1106 
G01 X64.9119 Y14.1425 
G01 X65.0629 Y14.2050 
G01 X65.1987 Y14.2958 
G01 X65.3142 Y14.4113 
G01 X65.4050 Y14.5471 
G01 X65.4675 Y14.6981 
G01 X65.4994 Y14.8583 
G00 Z1.2000  
G00 X65.4994 Y12.3183 
G01 Z-0.1778 F254   
G01 X65.4994 Y12.4817 F508   
G01 X65.4675 Y12.6419 
G01 X65.4050 Y12.7929 
G01 X65.3142 Y12.9287 
G01 X65.1987 Y13.0442 
G01 X65.0629 Y13.1350 
G01 X64.9119 Y13.1975 
G01 X64.7517 Y13.2294 
G01 X64.5883 Y13.2294 
G01 X64.4281 Y13.1975 
G01 X64.2771 Y13.1350 
G01 X64.1413 Y13.0442 
G01 X64.0258 Y12.9287 
G01 X63.9350 Y12.7929 
G01 X63.8725 Y12.6419 
G01 X63.8406 Y12.4817 
G01 X63.8406 Y12.3183 
G01 X63.8725 Y12.1581 
G01 X63.9350 Y12.0071 
G01 X64.0258 Y11.8713 
G01 X64.1413 Y11.7558 
G01 X64.2771 Y11.6650 
G01 X64.4281 Y11.6025 
G01 X64.5883 Y11.5706 
G01 X64.7517 Y11.5706 
G01 X64.9119 Y11.6025 
G01 X65.0629 Y11.6650 
G01 X65.1987 Y11.7558 
G01 X65.3142 Y11.8713 
G01 X65.4050 Y12.0071 
G01 X65.4675 Y12.1581 
G01 X65.4994 Y12.3183 
G00 Z1.2000  
G00 X62.9594 Y9.7783  
G01 Z-0.1778 F254   
G01 X62.9594 Y9.9417  F508   
G01 X62.9275 Y10.1019 
G01 X62.8650 Y10.2529 
G01 X62.7742 Y10.3887 
G01 X62.6587 Y10.5042 
G01 X62.5229 Y10.5950 
G01 X62.3719 Y10.6575 
G01 X62.2117 Y10.6894 
G01 X62.0483 Y10.6894 
G01 X61.8881 Y10.6575 
G01 X61.7371 Y10.5950 
G01 X61.6013 Y10.5042 
G01 X61.4858 Y10.3887 
G01 X61.3950 Y10.2529 
G01 X61.3325 Y10.1019 
G01 X61.3006 Y9.9417  
G01 X61.3006 Y9.7783  
G01 X61.3325 Y9.6181  
G01 X61.3950 Y9.4671  
G01 X61.4858 Y9.3313  
G01 X61.6013 Y9.2158  
G01 X61.7371 Y9.1250  
G01 X61.8881 Y9.0625  
G01 X62.0483 Y9.0306  
G01 X62.2117 Y9.0306  
G01 X62.3719 Y9.0625  
G01 X62.5229 Y9.1250  
G01 X62.6587 Y9.2158  
G01 X62.7742 Y9.3313  
G01 X62.8650 Y9.4671  
G01 X62.9275 Y9.6181  
G01 X62.9594 Y9.7783  
G00 Z1.2000  
G00 X65.4994 Y9.7783  
G01 Z-0.1778 F254   
G01 X65.4994 Y9.9417  F508   
G01 X65.4675 Y10.1019 
G01 X65.4050 Y10.2529 
G01 X65.3142 Y10.3887 
G01 X65.1987 Y10.5042 
G01 X65.0629 Y10.5950 
G01 X64.9119 Y10.6575 
G01 X64.7517 Y10.6894 
G01 X64.5883 Y10.6894 
G01 X64.4281 Y10.6575 
G01 X64.2771 Y10.5950 
G01 X64.1413 Y10.5042 
G01 X64.0258 Y10.3887 
G01 X63.9350 Y10.2529 
G01 X63.8725 Y10.1019 
G01 X63.8406 Y9.9417  
G01 X63.8406 Y9.7783  
G01 X63.8725 Y9.6181  
G01 X63.9350 Y9.4671  
G01 X64.0258 Y9.3313  
G01 X64.1413 Y9.2158  
G01 X64.2771 Y9.1250  
G01 X64.4281 Y9.0625  
G01 X64.5883 Y9.0306  
G01 X64.7517 Y9.0306  
G01 X64.9119 Y9.0625  
G01 X65.0629 Y9.1250  
G01 X65.1987 Y9.2158  
G01 X65.3142 Y9.3313  
G01 X65.4050 Y9.4671  
G01 X65.4675 Y9.6181  
G01 X65.4994 Y9.7783  
G00 Z1.2000  
G00 X62.9594 Y7.2383  
G01 Z-0.1778 F254   
G01 X62.9594 Y7.4017  F508   
G01 X62.9275 Y7.5619  
G01 X62.8650 Y7.7129  
G01 X62.7742 Y7.8487  
G01 X62.6587 Y7.9642  
G01 X62.5229 Y8.0550  
G01 X62.3719 Y8.1175  
G01 X62.2117 Y8.1494  
G01 X62.0483 Y8.1494  
G01 X61.8881 Y8.1175  
G01 X61.7371 Y8.0550  
G01 X61.6013 Y7.9642  
G01 X61.4858 Y7.8487  
G01 X61.3950 Y7.7129  
G01 X61.3325 Y7.5619  
G01 X61.3006 Y7.4017  
G01 X61.3006 Y7.2383  
G01 X61.3325 Y7.0781  
G01 X61.3950 Y6.9271  
G01 X61.4858 Y6.7913  
G01 X61.6013 Y6.6758  
G01 X61.7371 Y6.5850  
G01 X61.8881 Y6.5225  
G01 X62.0483 Y6.4906  
G01 X62.2117 Y6.4906  
G01 X62.3719 Y6.5225  
G01 X62.5229 Y6.5850  
G01 X62.6587 Y6.6758  
G01 X62.7742 Y6.7913  
G01 X62.8650 Y6.9271  
G01 X62.9275 Y7.0781  
G01 X62.9594 Y7.2383  
G00 Z1.2000  
G00 X65.4994 Y7.2383  
G01 Z-0.1778 F254   
G01 X65.4994 Y7.4017  F508   
G01 X65.4675 Y7.5619  
G01 X65.4050 Y7.7129  
G01 X65.3142 Y7.8487  
G01 X65.1987 Y7.9642  
G01 X65.0629 Y8.0550  
G01 X64.9119 Y8.1175  
G01 X64.7517 Y8.1494  
G01 X64.5883 Y8.1494  
G01 X64.4281 Y8.1175  
G01 X64.2771 Y8.0550  
G01 X64.1413 Y7.9642  
G01 X64.0258 Y7.8487  
G01 X63.9350 Y7.7129  
G01 X63.8725 Y7.5619  
G01 X63.8406 Y7.4017  
G01 X63.8406 Y7.2383  
G01 X63.8725 Y7.0781  
G01 X63.9350 Y6.9271  
G01 X64.0258 Y6.7913  
G01 X64.1413 Y6.6758  
G01 X64.2771 Y6.5850  
G01 X64.4281 Y6.5225  
G01 X64.5883 Y6.4906  
G01 X64.7517 Y6.4906  
G01 X64.9119 Y6.5225  
G01 X65.0629 Y6.5850  
G01 X65.1987 Y6.6758  
G01 X65.3142 Y6.7913  
G01 X65.4050 Y6.9271  
G01 X65.4675 Y7.0781  
G01 X65.4994 Y7.2383  
G00 Z1.2000  
G82 X12.8300 Y36.8100 Z-0.2794 F254   R1.2000  P1.000000
G82 X10.2900 Y36.8100 
G82 X11.5100 Y4.8000  
G82 X14.0500 Y4.8000  
G82 X16.5900 Y4.8000  
G82 X19.1300 Y4.8000  
G82 X21.6700 Y4.8000  
G82 X24.2100 Y4.8000  
G82 X26.7500 Y4.8000  
G82 X29.2900 Y4.8000  
G82 X52.4900 Y4.8000  
G82 X49.9500 Y4.8000  
G82 X47.4100 Y4.8000  
G82 X44.8700 Y4.8000  
G82 X42.3300 Y4.8000  
G82 X39.7900 Y4.8000  
G82 X37.2500 Y4.8000  
G82 X34.7100 Y4.8000  
G82 X16.3100 Y36.8000 
G82 X18.8500 Y36.8000 
G82 X21.3900 Y36.8000 
G82 X23.9300 Y36.8000 
G82 X26.4700 Y36.8000 
G82 X29.0100 Y36.8000 
G82 X31.5500 Y36.8000 
G82 X34.0900 Y36.8000 
G82 X37.5300 Y36.7900 
G82 X40.0700 Y36.7900 
G82 X42.6100 Y36.7900 
G82 X45.1500 Y36.7900 
G82 X47.6900 Y36.7900 
G82 X50.2300 Y36.7900 
G82 X52.7700 Y36.7900 
G82 X55.3100 Y36.7900 
G82 X3.6494  Y4.1688  
G82 X3.6494  Y10.6712 
G82 X8.1706  Y4.1688  
G82 X8.1706  Y10.6712 
G82 X7.0900  Y30.6600 
G82 X7.0900  Y26.2600 
G82 X62.1300 Y17.4800 
G82 X64.6700 Y17.4800 
G82 X62.1300 Y14.9400 
G82 X64.6700 Y14.9400 
G82 X62.1300 Y12.4000 
G82 X64.6700 Y12.4000 
G82 X62.1300 Y9.8600  
G82 X64.6700 Y9.8600  
G82 X62.1300 Y7.3200  
G82 X64.6700 Y7.3200  
M05
M02
